; generated by PrusaSlicer 2.3.3+linux-x64 on 2021-10-08 at 11:02:50 UTC


;
;

;
;
; 

; external perimeters extrusion width = 0.45mm
; perimeters extrusion width = 0.45mm
; infill extrusion width = 0.45mm
; solid infill extrusion width = 0.45mm
; top infill extrusion width = 0.40mm
; first layer extrusion width = 0.42mm

M73 P0 R3
M201 X1250 Y1250 Z400 E5000 ; sets maximum accelerations, mm/sec^2
M203 X180 Y180 Z12 E80 ; sets maximum feedrates, mm/sec
M204 P1250 R1250 T1250 ; sets acceleration (P, T) and retract acceleration (R), mm/sec^2
M205 X8.00 Y8.00 Z2.00 E10.00 ; sets the jerk limits, mm/sec
M205 S0 T0 ; sets the minimum extruding and travel feed rate, mm/sec
M107
;TYPE:Custom
G90 ; use absolute coordinates
M83 ; extruder relative mode
M104 S170 ; set extruder temp for bed leveling
M140 S60 ; set bed temp
M109 R170 ; wait for bed leveling temp
M190 S60 ; wait for bed temp
G28 ; home all without mesh bed level
G29 ; mesh bed leveling 
M104 S215 ; set extruder temp
G92 E0.0
G1 Y-2.0 X179 F2400
M73 P2 R3
G1 Z3 F720
M109 S215 ; wait for extruder temp

; intro line
G1 X170 F1000
G1 Z0.2 F720
M73 P3 R3
G1 X110.0 E8.0 F900
M73 P5 R3
G1 X40.0 E10.0 F700
G92 E0.0

M221 S95 ; set flow
G21 ; set units to millimeters
G90 ; use absolute coordinates
M83 ; use relative distances for extrusion
M900 K0.2 ; Filament gcode LA 1.5
; ; Filament gcode LA 1.0
;LAYER_CHANGE
;Z:0.2
;HEIGHT:0.2
;BEFORE_LAYER_CHANGE
G92 E0.0
;0.2


M73 P8 R3
G1 E-3.20000 F4200.000
G1 Z0.200 F9000.000
;AFTER_LAYER_CHANGE
;0.2
G1 Z0.400
G1 X84.723 Y84.659
G1 Z0.200
G1 E3.20000 F2400.000
M204 S800
;TYPE:Skirt
;WIDTH:0.42
M73 P9 R3
G1 F1200.000
G1 X85.845 Y83.746 E0.04536
G1 X87.116 Y83.068 E0.04519
G1 X88.566 Y82.630 E0.04748
G1 X90.005 Y82.492 E0.04532
G1 X91.439 Y82.631 E0.04517
G1 X92.885 Y83.068 E0.04736
G1 X94.155 Y83.746 E0.04516
G1 X95.279 Y84.661 E0.04546
G1 X96.233 Y85.814 E0.04689
G1 X96.924 Y87.095 E0.04564
G1 X97.366 Y88.546 E0.04756
G1 X97.508 Y89.991 E0.04554
G1 X97.371 Y91.430 E0.04530
G1 X96.937 Y92.871 E0.04720
G1 X96.254 Y94.155 E0.04561
G1 X95.341 Y95.277 E0.04535
G1 X94.178 Y96.238 E0.04730
G1 X92.901 Y96.925 E0.04548
G1 X91.438 Y97.369 E0.04791
G1 X90.000 Y97.508 E0.04532
G1 X88.561 Y97.369 E0.04532
G1 X87.098 Y96.925 E0.04793
G1 X85.822 Y96.238 E0.04545
G1 X84.661 Y95.279 E0.04720
G1 X83.752 Y94.163 E0.04514
M73 P10 R3
G1 X83.068 Y92.884 E0.04550
G1 X82.632 Y91.445 E0.04713
G1 X82.492 Y89.998 E0.04558
G1 X82.631 Y88.560 E0.04530
G1 X83.071 Y87.107 E0.04759
G1 X83.759 Y85.826 E0.04561
G1 X84.685 Y84.705 E0.04556
M204 S1250
G1 X84.974 Y84.945 F9000.000
M204 S800
G1 F1200.000
G1 X86.055 Y84.059 E0.04382
G1 X87.263 Y83.415 E0.04291
G1 X88.640 Y83.000 E0.04510
G1 X90.006 Y82.869 E0.04304
G1 X91.368 Y83.001 E0.04291
G1 X92.758 Y83.424 E0.04552
G1 X93.966 Y84.073 E0.04302
G1 X95.072 Y84.987 E0.04498
G1 X95.933 Y86.044 E0.04273
G1 X96.583 Y87.259 E0.04322
G1 X96.997 Y88.625 E0.04475
G1 X97.131 Y89.994 E0.04312
G1 X97.000 Y91.360 E0.04303
G1 X96.582 Y92.745 E0.04536
G1 X95.929 Y93.963 E0.04334
G1 X95.014 Y95.071 E0.04506
G1 X93.948 Y95.938 E0.04307
G1 X92.741 Y96.583 E0.04291
M73 P11 R3
G1 X91.364 Y96.999 E0.04510
G1 X89.998 Y97.131 E0.04304
G1 X88.632 Y96.999 E0.04304
G1 X87.242 Y96.576 E0.04552
G1 X86.034 Y95.927 E0.04302
G1 X84.928 Y95.013 E0.04498
G1 X84.067 Y93.956 E0.04273
G1 X83.417 Y92.741 E0.04322
G1 X83.002 Y91.371 E0.04489
G1 X82.869 Y89.996 E0.04331
G1 X83.001 Y88.634 E0.04289
G1 X83.420 Y87.251 E0.04531
G1 X84.074 Y86.034 E0.04334
G1 X84.936 Y84.991 E0.04242
M204 S1250
G1 X85.225 Y85.230 F9000.000
M204 S800
G1 F1200.000
G1 X86.262 Y84.375 E0.04215
G1 X87.405 Y83.764 E0.04064
G1 X88.710 Y83.370 E0.04273
G1 X90.004 Y83.246 E0.04075
G1 X91.289 Y83.370 E0.04050
G1 X92.599 Y83.766 E0.04288
G1 X93.741 Y84.376 E0.04061
G1 X94.746 Y85.195 E0.04064
G1 X95.606 Y86.234 E0.04230
G1 X96.227 Y87.383 E0.04095
G1 X96.612 Y88.621 E0.04065
G1 X96.754 Y89.992 E0.04321
G1 X96.631 Y91.282 E0.04063
M73 P12 R3
G1 X96.239 Y92.586 E0.04269
G1 X95.628 Y93.734 E0.04080
G1 X94.807 Y94.744 E0.04079
G1 X93.758 Y95.612 E0.04268
G1 X92.614 Y96.228 E0.04076
G1 X91.294 Y96.629 E0.04324
G1 X90.000 Y96.754 E0.04075
G1 X88.706 Y96.629 E0.04077
G1 X87.386 Y96.228 E0.04325
G1 X86.242 Y95.612 E0.04074
G1 X85.195 Y94.746 E0.04262
G1 X84.380 Y93.746 E0.04045
G1 X83.766 Y92.598 E0.04082
G1 X83.372 Y91.301 E0.04251
G1 X83.246 Y89.998 E0.04104
G1 X83.371 Y88.709 E0.04061
G1 X83.768 Y87.395 E0.04303
G1 X84.386 Y86.245 E0.04093
G1 X85.187 Y85.276 E0.03941
M204 S1250
G1 X85.476 Y85.515 F9000.000
M204 S800
G1 F1200.000
G1 X85.523 Y85.459 E0.00228
G1 X86.472 Y84.688 E0.03837
G1 X87.548 Y84.113 E0.03824
G1 X88.784 Y83.740 E0.04049
G1 X90.006 Y83.623 E0.03846
G1 X91.215 Y83.740 E0.03811
G1 X92.452 Y84.113 E0.04050
G1 X93.530 Y84.689 E0.03833
G1 X94.479 Y85.461 E0.03836
M73 P13 R3
G1 X95.295 Y86.446 E0.04007
G1 X95.880 Y87.531 E0.03866
G1 X96.257 Y88.770 E0.04061
G1 X96.377 Y89.994 E0.03856
G1 X96.261 Y91.212 E0.03837
G1 X95.885 Y92.457 E0.04077
G1 X95.302 Y93.544 E0.03866
G1 X94.480 Y94.538 E0.04044
G1 X93.531 Y95.310 E0.03837
G1 X92.452 Y95.887 E0.03835
G1 X91.216 Y96.260 E0.04049
G1 X89.998 Y96.377 E0.03835
G1 X88.781 Y96.259 E0.03836
G1 X87.534 Y95.881 E0.04085
G1 X86.454 Y95.300 E0.03845
G1 X85.461 Y94.479 E0.04038
G1 X84.695 Y93.538 E0.03805
G1 X84.114 Y92.455 E0.03855
G1 X83.742 Y91.226 E0.04025
G1 X83.623 Y90.000 E0.03864
G1 X83.740 Y88.783 E0.03832
G1 X84.115 Y87.543 E0.04063
G1 X84.698 Y86.456 E0.03866
G1 X85.438 Y85.562 E0.03640
M204 S1250
; printing object dice_round.stl id:0 copy 0
G1 E-2.24000 F4200.000
;WIPE_START
G1 F7200.000
G1 X85.523 Y85.459 E-0.07359
G1 X86.472 Y84.688 E-0.67819
G1 X86.727 Y84.551 E-0.16022
;WIPE_END
G1 E-0.04800 F4200.000
G1 Z0.400 F9000.000
G1 X87.692 Y87.769
G1 Z0.200
G1 E3.20000 F2400.000
M204 S800
;TYPE:Perimeter
M73 P14 R3
G1 F1200.000
G1 X88.002 Y87.485 E0.01320
G1 X88.279 Y87.288 E0.01064
G1 X88.574 Y87.121 E0.01064
G1 X88.817 Y87.013 E0.00834
G1 X89.069 Y86.926 E0.00834
G1 X89.398 Y86.845 E0.01064
G1 X89.731 Y86.799 E0.01054
G1 X90.067 Y86.789 E0.01054
G1 X90.403 Y86.813 E0.01054
G1 X90.733 Y86.873 E0.01054
G1 X91.059 Y86.967 E0.01064
G1 X91.304 Y87.064 E0.00824
G1 X91.606 Y87.218 E0.01064
G1 X91.888 Y87.401 E0.01054
G1 X92.152 Y87.615 E0.01064
G1 X92.340 Y87.799 E0.00824
G1 X92.561 Y88.060 E0.01074
G1 X92.711 Y88.276 E0.00824
G1 X92.879 Y88.574 E0.01074
G1 X92.987 Y88.817 E0.00834
G1 X93.074 Y89.069 E0.00834
G1 X93.155 Y89.398 E0.01064
G1 X93.201 Y89.731 E0.01054
G1 X93.211 Y90.067 E0.01054
G1 X93.187 Y90.403 E0.01054
G1 X93.127 Y90.733 E0.01054
G1 X93.033 Y91.059 E0.01064
G1 X92.935 Y91.307 E0.00834
G1 X92.816 Y91.545 E0.00834
G1 X92.638 Y91.833 E0.01064
G1 X92.430 Y92.101 E0.01064
G1 X92.249 Y92.294 E0.00829
G1 X91.995 Y92.517 E0.01059
G1 X91.721 Y92.712 E0.01054
G1 X91.426 Y92.879 E0.01064
G1 X91.183 Y92.987 E0.00834
G1 X90.931 Y93.074 E0.00834
G1 X90.602 Y93.155 E0.01064
G1 X90.269 Y93.201 E0.01054
G1 X89.933 Y93.211 E0.01054
G1 X89.597 Y93.187 E0.01054
G1 X89.267 Y93.127 E0.01054
G1 X88.941 Y93.033 E0.01064
G1 X88.696 Y92.936 E0.00824
G1 X88.394 Y92.782 E0.01064
G1 X88.112 Y92.599 E0.01054
G1 X87.848 Y92.385 E0.01064
G1 X87.660 Y92.201 E0.00824
G1 X87.439 Y91.940 E0.01074
G1 X87.289 Y91.724 E0.00824
G1 X87.121 Y91.426 E0.01074
G1 X87.014 Y91.185 E0.00824
G1 X86.906 Y90.864 E0.01064
G1 X86.833 Y90.536 E0.01054
G1 X86.794 Y90.199 E0.01064
G1 X86.788 Y89.936 E0.00824
G1 X86.813 Y89.597 E0.01064
G1 X86.873 Y89.267 E0.01054
G1 X86.967 Y88.941 E0.01064
G1 X87.064 Y88.696 E0.00824
G1 X87.218 Y88.394 E0.01064
G1 X87.401 Y88.112 E0.01054
G1 X87.650 Y87.812 E0.01222
M204 S1250
G1 X87.381 Y87.548 F9000.000
M204 S800
;TYPE:External perimeter
G1 F1200.000
G1 X87.769 Y87.187 E0.01662
G1 X88.077 Y86.969 E0.01182
G1 X88.405 Y86.784 E0.01182
G1 X88.679 Y86.662 E0.00939
G1 X88.961 Y86.564 E0.00939
G1 X89.327 Y86.474 E0.01182
G1 X89.700 Y86.423 E0.01178
G1 X90.075 Y86.411 E0.01178
G1 X90.450 Y86.439 E0.01178
G1 X90.820 Y86.505 E0.01178
G1 X91.182 Y86.610 E0.01182
G1 X91.459 Y86.720 E0.00936
G1 X91.795 Y86.891 E0.01182
G1 X92.110 Y87.096 E0.01178
G1 X92.403 Y87.333 E0.01182
G1 X92.616 Y87.542 E0.00936
G1 X92.860 Y87.831 E0.01185
G1 X93.030 Y88.076 E0.00936
G1 X93.216 Y88.405 E0.01185
G1 X93.338 Y88.679 E0.00939
G1 X93.436 Y88.961 E0.00939
G1 X93.526 Y89.327 E0.01182
G1 X93.577 Y89.700 E0.01178
G1 X93.589 Y90.075 E0.01178
G1 X93.561 Y90.450 E0.01178
G1 X93.495 Y90.820 E0.01178
G1 X93.390 Y91.182 E0.01182
G1 X93.279 Y91.460 E0.00939
G1 X93.146 Y91.728 E0.00939
G1 X92.948 Y92.049 E0.01182
G1 X92.717 Y92.346 E0.01182
G1 X92.511 Y92.565 E0.00941
G1 X92.230 Y92.813 E0.01176
G1 X91.923 Y93.031 E0.01178
G1 X91.595 Y93.216 E0.01182
G1 X91.321 Y93.338 E0.00939
G1 X91.039 Y93.436 E0.00939
G1 X90.673 Y93.526 E0.01182
G1 X90.300 Y93.577 E0.01178
G1 X89.925 Y93.589 E0.01178
G1 X89.550 Y93.561 E0.01178
G1 X89.180 Y93.495 E0.01178
M73 P15 R3
G1 X88.818 Y93.390 E0.01182
G1 X88.541 Y93.280 E0.00936
G1 X88.205 Y93.109 E0.01182
G1 X87.890 Y92.904 E0.01178
G1 X87.597 Y92.667 E0.01182
G1 X87.384 Y92.458 E0.00936
G1 X87.140 Y92.169 E0.01185
G1 X86.970 Y91.924 E0.00936
G1 X86.784 Y91.595 E0.01185
G1 X86.663 Y91.322 E0.00936
G1 X86.543 Y90.965 E0.01182
G1 X86.461 Y90.599 E0.01178
G1 X86.417 Y90.224 E0.01181
G1 X86.411 Y89.926 E0.00936
G1 X86.439 Y89.550 E0.01182
G1 X86.505 Y89.180 E0.01178
G1 X86.610 Y88.818 E0.01182
G1 X86.720 Y88.541 E0.00936
G1 X86.891 Y88.205 E0.01182
G1 X87.096 Y87.890 E0.01178
G1 X87.339 Y87.591 E0.01208
M204 S1250
G1 X87.770 Y87.643 F9000.000
G1 E-2.24000 F4200.000
;WIPE_START
G1 F7200.000
G1 X87.769 Y87.187 E-0.32703
G1 X88.077 Y86.969 E-0.20883
G1 X88.405 Y86.784 E-0.20887
G1 X88.679 Y86.662 E-0.16600
G1 X88.681 Y86.662 E-0.00128
;WIPE_END
G1 E-0.04800 F4200.000
G1 Z0.400 F9000.000
G1 X91.343 Y87.211
G1 Z0.200
G1 E3.20000 F2400.000
M204 S800
;TYPE:Solid infill
;WIDTH:0.432479
G1 F1200.000
G1 X92.180 Y88.048 E0.03835
G1 X92.336 Y88.233 E0.00782
G1 X92.471 Y88.427 E0.00765
G1 X92.623 Y88.697 E0.01003
G1 X92.827 Y89.246 E0.01897
G1 X90.754 Y87.173 E0.09493
G1 X90.367 Y87.094 E0.01280
G1 X90.105 Y87.075 E0.00851
G1 X92.923 Y89.893 E0.12909
G1 X92.928 Y90.061 E0.00546
G1 X92.897 Y90.418 E0.01159
G1 X89.584 Y87.105 E0.15176
G1 X89.133 Y87.205 E0.01497
G1 X92.794 Y90.866 E0.16773
M73 P16 R3
G1 X92.635 Y91.258 E0.01369
G1 X88.738 Y87.361 E0.17851
G1 X88.385 Y87.559 E0.01310
G1 X92.441 Y91.614 E0.18576
G1 X92.204 Y91.929 E0.01274
G1 X88.077 Y87.802 E0.18904
G1 X87.797 Y88.073 E0.01262
G1 X91.926 Y92.201 E0.18914
G1 X91.614 Y92.441 E0.01273
G1 X87.560 Y88.387 E0.18572
G1 X87.360 Y88.738 E0.01309
G1 X91.262 Y92.639 E0.17872
M73 P17 R3
G1 X90.867 Y92.796 E0.01375
G1 X87.206 Y89.134 E0.16773
G1 X87.103 Y89.582 E0.01490
G1 X90.416 Y92.895 E0.15176
G1 X90.245 Y92.919 E0.00559
G1 X89.895 Y92.925 E0.01134
G1 X87.075 Y90.105 E0.12919
G1 X87.112 Y90.488 E0.01248
G1 X87.171 Y90.752 E0.00875
G1 X89.246 Y92.827 E0.09504
G1 X88.813 Y92.678 E0.01483
G1 X88.536 Y92.537 E0.01008
G1 X88.278 Y92.370 E0.00993
G1 X88.064 Y92.196 E0.00895
G1 X87.206 Y91.338 E0.03927
M204 S1250
; stop printing object dice_round.stl id:0 copy 0
M106 S84.15
;LAYER_CHANGE
;Z:0.45
;HEIGHT:0.25
;BEFORE_LAYER_CHANGE
G92 E0.0
;0.45


G1 E-2.24000 F4200.000
;WIPE_START
G1 F7200.000
G1 X88.064 Y92.196 E-0.67191
G1 X88.278 Y92.370 E-0.15312
G1 X88.410 Y92.455 E-0.08697
;WIPE_END
G1 E-0.04800 F4200.000
G1 Z0.400 F9000.000
G1 Z0.450
;AFTER_LAYER_CHANGE
;0.45
G1 Z0.650
G1 X85.822 Y96.238
G1 Z0.450
G1 E3.20000 F2400.000
;TYPE:Skirt
;WIDTH:0.42
G1 F1293
G1 X84.661 Y95.279 E0.05732
G1 X83.752 Y94.163 E0.05482
M73 P18 R3
G1 X83.068 Y92.884 E0.05525
G1 X82.632 Y91.445 E0.05724
G1 X82.492 Y89.998 E0.05535
G1 X82.631 Y88.560 E0.05502
G1 X83.071 Y87.107 E0.05780
M73 P18 R2
G1 X83.759 Y85.826 E0.05539
G1 X84.723 Y84.659 E0.05761
G1 X85.845 Y83.746 E0.05508
G1 X87.116 Y83.068 E0.05488
G1 X88.566 Y82.630 E0.05766
G1 X90.005 Y82.492 E0.05504
G1 X91.439 Y82.631 E0.05486
G1 X92.885 Y83.068 E0.05751
G1 X94.155 Y83.746 E0.05484
G1 X95.279 Y84.661 E0.05520
G1 X96.233 Y85.814 E0.05695
G1 X96.924 Y87.095 E0.05543
G1 X97.366 Y88.546 E0.05776
G1 X97.508 Y89.991 E0.05530
G1 X97.371 Y91.430 E0.05501
G1 X96.937 Y92.871 E0.05732
G1 X96.254 Y94.155 E0.05539
G1 X95.341 Y95.277 E0.05508
G1 X94.178 Y96.238 E0.05744
G1 X92.901 Y96.925 E0.05523
G1 X91.438 Y97.369 E0.05818
G1 X90.000 Y97.508 E0.05504
M73 P19 R2
G1 X88.561 Y97.369 E0.05503
G1 X87.098 Y96.925 E0.05821
G1 X85.875 Y96.267 E0.05291
G1 X86.052 Y95.936 F9000.000
G1 F1293
G1 X84.928 Y95.013 E0.05541
G1 X84.067 Y93.956 E0.05189
G1 X83.417 Y92.741 E0.05249
G1 X83.002 Y91.371 E0.05451
G1 X82.869 Y89.996 E0.05260
G1 X83.001 Y88.634 E0.05209
G1 X83.420 Y87.251 E0.05503
G1 X84.074 Y86.034 E0.05263
G1 X84.989 Y84.926 E0.05473
G1 X86.055 Y84.059 E0.05231
G1 X87.263 Y83.415 E0.05212
G1 X88.640 Y83.000 E0.05477
G1 X90.006 Y82.869 E0.05227
G1 X91.368 Y83.001 E0.05211
G1 X92.758 Y83.424 E0.05529
G1 X93.966 Y84.073 E0.05225
G1 X95.072 Y84.987 E0.05462
G1 X95.933 Y86.044 E0.05189
G1 X96.583 Y87.259 E0.05249
G1 X96.997 Y88.625 E0.05435
G1 X97.131 Y89.994 E0.05237
G1 X97.000 Y91.360 E0.05226
G1 X96.582 Y92.745 E0.05509
G1 X95.929 Y93.963 E0.05263
G1 X95.014 Y95.071 E0.05473
M73 P20 R2
G1 X93.948 Y95.938 E0.05231
G1 X92.741 Y96.583 E0.05212
G1 X91.364 Y96.999 E0.05477
G1 X89.998 Y97.131 E0.05227
G1 X88.632 Y96.999 E0.05227
G1 X87.242 Y96.576 E0.05529
G1 X86.105 Y95.965 E0.04916
G1 X86.283 Y95.634 F9000.000
G1 F1293
G1 X85.195 Y94.746 E0.05349
G1 X84.380 Y93.746 E0.04913
G1 X83.766 Y92.598 E0.04957
G1 X83.372 Y91.301 E0.05162
G1 X83.246 Y89.998 E0.04984
G1 X83.371 Y88.709 E0.04932
G1 X83.768 Y87.395 E0.05226
G1 X84.386 Y86.245 E0.04971
G1 X85.256 Y85.193 E0.05200
G1 X86.262 Y84.375 E0.04937
G1 X87.405 Y83.764 E0.04935
G1 X88.710 Y83.370 E0.05190
G1 X90.004 Y83.246 E0.04949
G1 X91.289 Y83.370 E0.04918
G1 X92.599 Y83.766 E0.05207
G1 X93.741 Y84.376 E0.04932
G1 X94.746 Y85.195 E0.04936
G1 X95.606 Y86.234 E0.05137
G1 X96.227 Y87.383 E0.04973
G1 X96.612 Y88.621 E0.04937
G1 X96.754 Y89.992 E0.05247
G1 X96.631 Y91.282 E0.04935
M73 P21 R2
G1 X96.239 Y92.586 E0.05184
G1 X95.628 Y93.734 E0.04955
G1 X94.807 Y94.744 E0.04954
G1 X93.758 Y95.612 E0.05183
G1 X92.614 Y96.228 E0.04950
G1 X91.294 Y96.629 E0.05252
G1 X90.000 Y96.754 E0.04949
G1 X88.706 Y96.629 E0.04951
G1 X87.386 Y96.228 E0.05252
G1 X86.336 Y95.663 E0.04542
G1 X86.514 Y95.332 F9000.000
G1 F1293
G1 X86.454 Y95.300 E0.00259
G1 X85.461 Y94.479 E0.04904
G1 X84.695 Y93.538 E0.04621
G1 X84.114 Y92.455 E0.04681
G1 X83.742 Y91.226 E0.04888
G1 X83.623 Y90.000 E0.04693
G1 X83.740 Y88.783 E0.04653
G1 X84.115 Y87.543 E0.04934
G1 X84.698 Y86.456 E0.04695
G1 X85.523 Y85.459 E0.04926
G1 X86.472 Y84.688 E0.04660
G1 X87.548 Y84.113 E0.04644
G1 X88.784 Y83.740 E0.04917
G1 X90.006 Y83.623 E0.04671
G1 X91.215 Y83.740 E0.04628
G1 X92.452 Y84.113 E0.04919
G1 X93.530 Y84.689 E0.04655
G1 X94.479 Y85.461 E0.04659
G1 X95.295 Y86.446 E0.04867
G1 X95.880 Y87.531 E0.04695
G1 X96.257 Y88.770 E0.04932
M73 P22 R2
G1 X96.377 Y89.994 E0.04683
G1 X96.261 Y91.212 E0.04660
G1 X95.885 Y92.457 E0.04952
G1 X95.302 Y93.544 E0.04695
G1 X94.480 Y94.538 E0.04912
G1 X93.531 Y95.310 E0.04660
G1 X92.452 Y95.887 E0.04658
G1 X91.216 Y96.260 E0.04917
G1 X89.998 Y96.377 E0.04657
G1 X88.781 Y96.259 E0.04658
G1 X87.534 Y95.881 E0.04961
G1 X86.567 Y95.361 E0.04183
; printing object dice_round.stl id:0 copy 0
G1 E-2.24000 F4200.000
;WIPE_START
G1 F7200.000
G1 X86.454 Y95.300 E-0.07089
G1 X85.461 Y94.479 E-0.71369
G1 X85.316 Y94.301 E-0.12741
;WIPE_END
G1 E-0.04800 F4200.000
G1 Z0.650 F9000.000
G1 X88.131 Y92.813
G1 Z0.450
G1 E3.20000 F2400.000
M204 S800
;TYPE:Perimeter
;WIDTH:0.45
G1 F1293
G1 X87.844 Y92.601 E0.01470
G1 X87.639 Y92.416 E0.01139
G1 X87.397 Y92.153 E0.01470
G1 X87.185 Y91.867 E0.01470
G1 X87.041 Y91.630 E0.01139
G1 X86.886 Y91.309 E0.01470
G1 X86.766 Y90.976 E0.01457
G1 X86.682 Y90.635 E0.01449
G1 X86.641 Y90.356 E0.01160
G1 X86.622 Y90.000 E0.01469
G1 X86.641 Y89.644 E0.01470
G1 X86.681 Y89.370 E0.01139
G1 X86.766 Y89.024 E0.01470
G1 X86.886 Y88.691 E0.01457
