; generated by PrusaSlicer 2.3.3+linux-x64 on 2021-10-08 at 11:03:09 UTC


;
;

;
;
; 

; external perimeters extrusion width = 0.45mm
; perimeters extrusion width = 0.45mm
; infill extrusion width = 0.45mm
; solid infill extrusion width = 0.45mm
; top infill extrusion width = 0.40mm
; first layer extrusion width = 0.42mm

M73 P0 R3
M201 X1250 Y1250 Z400 E5000 ; sets maximum accelerations, mm/sec^2
M203 X180 Y180 Z12 E80 ; sets maximum feedrates, mm/sec
M204 P1250 R1250 T1250 ; sets acceleration (P, T) and retract acceleration (R), mm/sec^2
M205 X8.00 Y8.00 Z2.00 E10.00 ; sets the jerk limits, mm/sec
M205 S0 T0 ; sets the minimum extruding and travel feed rate, mm/sec
M107
;TYPE:Custom
G90 ; use absolute coordinates
M83 ; extruder relative mode
M104 S170 ; set extruder temp for bed leveling
M140 S60 ; set bed temp
M109 R170 ; wait for bed leveling temp
M190 S60 ; wait for bed temp
G28 ; home all without mesh bed level
G29 ; mesh bed leveling 
M104 S215 ; set extruder temp
G92 E0.0
G1 Y-2.0 X179 F2400
M73 P2 R3
G1 Z3 F720
M109 S215 ; wait for extruder temp

; intro line
G1 X170 F1000
G1 Z0.2 F720
G1 X110.0 E8.0 F900
M73 P5 R3
G1 X40.0 E10.0 F700
G92 E0.0

M221 S95 ; set flow
G21 ; set units to millimeters
G90 ; use absolute coordinates
M83 ; use relative distances for extrusion
M900 K0.2 ; Filament gcode LA 1.5
; ; Filament gcode LA 1.0
;LAYER_CHANGE
;Z:0.2
;HEIGHT:0.2
;BEFORE_LAYER_CHANGE
G92 E0.0
;0.2


M73 P8 R3
G1 E-3.20000 F4200.000
G1 Z0.200 F9000.000
;AFTER_LAYER_CHANGE
;0.2
G1 Z0.400
G1 X92.785 Y83.150
G1 Z0.200
G1 E3.20000 F2400.000
M204 S800
;TYPE:Skirt
;WIDTH:0.42
G1 F1029
G1 X93.689 Y83.638 E0.03220
G1 X96.164 Y86.081 E0.10905
M73 P9 R3
G1 X96.665 Y86.783 E0.02705
G1 X96.917 Y87.434 E0.02189
G1 X97.018 Y88.125 E0.02189
G1 X97.019 Y91.873 E0.11751
G1 X96.867 Y92.735 E0.02746
G1 X96.577 Y93.375 E0.02202
G1 X96.151 Y93.933 E0.02202
G1 X93.865 Y96.215 E0.10126
G1 X93.007 Y96.764 E0.03193
G1 X92.430 Y96.950 E0.01902
G1 X91.823 Y97.020 E0.01916
G1 X88.127 Y97.019 E0.11586
G1 X87.265 Y96.867 E0.02746
G1 X86.625 Y96.577 E0.02202
G1 X86.067 Y96.151 E0.02202
G1 X83.785 Y93.865 E0.10126
G1 X83.236 Y93.007 E0.03193
G1 X83.050 Y92.430 E0.01902
G1 X82.980 Y91.823 E0.01916
G1 X82.981 Y88.127 E0.11586
G1 X83.133 Y87.265 E0.02746
G1 X83.415 Y86.640 E0.02148
M73 P10 R3
G1 X83.825 Y86.092 E0.02148
G1 X86.106 Y83.812 E0.10113
G1 X86.842 Y83.305 E0.02800
G1 X87.417 Y83.088 E0.01930
G1 X88.025 Y82.987 E0.01930
G1 X91.772 Y82.980 E0.11750
G1 X92.726 Y83.140 E0.03032
M204 S1250
G1 X92.663 Y83.508 F9000.000
M204 S800
G1 F1029
G1 X93.478 Y83.952 E0.02908
G1 X95.891 Y86.341 E0.10646
G1 X96.343 Y86.982 E0.02460
G1 X96.558 Y87.552 E0.01912
G1 X96.642 Y88.156 E0.01912
G1 X96.642 Y91.854 E0.11594
G1 X96.499 Y92.646 E0.02523
G1 X96.240 Y93.202 E0.01924
G1 X95.867 Y93.684 E0.01912
G1 X93.617 Y95.930 E0.09966
G1 X92.836 Y96.428 E0.02904
G1 X92.328 Y96.586 E0.01669
G1 X91.803 Y96.643 E0.01656
G1 X88.142 Y96.642 E0.11479
M73 P11 R3
G1 X87.354 Y96.499 E0.02511
G1 X86.798 Y96.240 E0.01924
G1 X86.316 Y95.867 E0.01912
G1 X84.070 Y93.617 E0.09966
G1 X83.572 Y92.836 E0.02904
G1 X83.414 Y92.328 E0.01669
G1 X83.357 Y91.803 E0.01656
G1 X83.358 Y88.142 E0.11479
G1 X83.501 Y87.354 E0.02511
G1 X83.751 Y86.812 E0.01873
G1 X84.113 Y86.336 E0.01873
G1 X86.362 Y84.090 E0.09967
G1 X87.033 Y83.631 E0.02549
G1 X87.540 Y83.445 E0.01694
G1 X88.074 Y83.361 E0.01694
G1 X91.772 Y83.357 E0.11594
G1 X92.604 Y83.498 E0.02647
M204 S1250
G1 X92.540 Y83.867 F9000.000
M204 S800
G1 F1029
G1 X93.264 Y84.264 E0.02589
G1 X95.615 Y86.598 E0.10386
G1 X96.019 Y87.177 E0.02213
G1 X96.198 Y87.666 E0.01633
G1 X96.266 Y88.182 E0.01633
G1 X96.265 Y91.840 E0.11469
M73 P12 R3
G1 X96.134 Y92.549 E0.02260
G1 X95.910 Y93.019 E0.01633
G1 X95.589 Y93.429 E0.01633
G1 X93.369 Y95.646 E0.09838
G1 X92.674 Y96.087 E0.02579
G1 X91.787 Y96.266 E0.02837
G1 X88.160 Y96.265 E0.11374
G1 X87.451 Y96.134 E0.02260
G1 X86.981 Y95.910 E0.01633
G1 X86.571 Y95.589 E0.01633
G1 X84.354 Y93.369 E0.09838
G1 X83.913 Y92.674 E0.02579
G1 X83.734 Y91.787 E0.02837
G1 X83.735 Y88.160 E0.11374
G1 X83.866 Y87.451 E0.02260
G1 X84.084 Y86.991 E0.01597
G1 X84.398 Y86.584 E0.01609
G1 X86.614 Y84.369 E0.09826
G1 X87.221 Y83.960 E0.02296
G1 X88.114 Y83.737 E0.02884
G1 X91.772 Y83.734 E0.11469
M73 P13 R3
G1 X92.481 Y83.857 E0.02258
M204 S1250
; printing object dice_cross.stl id:0 copy 0
G1 E-2.24000 F4200.000
;WIPE_START
G1 F7200.000
G1 X93.264 Y84.264 E-0.48922
G1 X93.806 Y84.802 E-0.42278
;WIPE_END
G1 E-0.04800 F4200.000
G1 Z0.400 F9000.000
G1 X91.768 Y87.224
G1 Z0.200
G1 E3.20000 F2400.000
M204 S800
;TYPE:Perimeter
G1 F1029
G1 X92.776 Y88.232 E0.04471
G1 X91.008 Y90.000 E0.07839
G1 X92.776 Y91.768 E0.07839
G1 X91.768 Y92.776 E0.04471
G1 X90.000 Y91.008 E0.07839
G1 X88.232 Y92.776 E0.07839
G1 X87.224 Y91.768 E0.04471
G1 X88.992 Y90.000 E0.07839
G1 X87.224 Y88.232 E0.07839
G1 X88.232 Y87.224 E0.04471
G1 X90.000 Y88.992 E0.07839
G1 X91.725 Y87.266 E0.07650
M204 S1250
M73 P14 R3
G1 E-2.24000 F4200.000
;WIPE_START
G1 F7200.000
G1 X92.776 Y88.232 E-0.79085
G1 X92.621 Y88.387 E-0.12115
;WIPE_END
G1 E-0.04800 F4200.000
G1 Z0.400 F9000.000
G1 X91.541 Y90.000
G1 Z0.200
G1 E3.20000 F2400.000
M204 S800
;TYPE:External perimeter
G1 F1029
G1 X93.309 Y91.768 E0.07839
G1 X91.768 Y93.309 E0.06835
G1 X90.000 Y91.541 E0.07839
G1 X88.232 Y93.309 E0.07839
G1 X86.691 Y91.768 E0.06835
G1 X88.459 Y90.000 E0.07839
G1 X86.691 Y88.232 E0.07839
G1 X88.232 Y86.691 E0.06835
G1 X90.000 Y88.459 E0.07839
G1 X91.768 Y86.691 E0.07839
M73 P15 R3
G1 X93.309 Y88.232 E0.06835
G1 X91.584 Y89.958 E0.07650
M204 S1250
G1 X91.334 Y90.342 F9000.000
G1 E-2.24000 F4200.000
;WIPE_START
G1 F7200.000
G1 X92.719 Y91.149 E-0.91200
;WIPE_END
G1 E-0.04800 F4200.000
G1 Z0.400 F9000.000
G1 X92.491 Y88.357
G1 Z0.200
G1 E3.20000 F2400.000
M204 S800
;TYPE:Solid infill
;WIDTH:0.432751
G1 F1029
G1 X91.763 Y87.629 E0.03338
G1 X91.488 Y87.904 E0.01264
G1 X92.096 Y88.512 E0.02788
G1 X91.820 Y88.788 E0.01264
G1 X91.212 Y88.180 E0.02788
G1 X90.936 Y88.455 E0.01264
G1 X91.545 Y89.064 E0.02788
G1 X91.269 Y89.339 E0.01264
G1 X90.661 Y88.731 E0.02788
G1 X90.385 Y89.007 E0.01264
G1 X90.993 Y89.615 E0.02788
G1 X90.718 Y89.891 E0.01264
G1 X90.109 Y89.282 E0.02788
G1 X90.000 Y89.392 E0.00501
G1 X88.232 Y87.624 E0.08104
G1 X88.066 Y87.790 E0.00763
G1 X92.210 Y91.934 E0.18996
G1 X91.934 Y92.210 E0.01264
G1 X87.790 Y88.066 E0.18996
M73 P16 R3
G1 X87.624 Y88.232 E0.00762
G1 X89.392 Y90.000 E0.08104
G1 X89.282 Y90.109 E0.00501
G1 X89.891 Y90.718 E0.02788
G1 X89.615 Y90.993 E0.01264
G1 X89.007 Y90.385 E0.02788
G1 X88.731 Y90.661 E0.01264
G1 X89.339 Y91.269 E0.02788
G1 X89.064 Y91.545 E0.01264
G1 X88.455 Y90.936 E0.02788
G1 X88.180 Y91.212 E0.01264
G1 X88.788 Y91.820 E0.02788
G1 X88.512 Y92.096 E0.01264
G1 X87.904 Y91.488 E0.02788
G1 X87.628 Y91.763 E0.01264
G1 X88.357 Y92.492 E0.03338
M204 S1250
; stop printing object dice_cross.stl id:0 copy 0
M106 S84.15
;LAYER_CHANGE
;Z:0.45
;HEIGHT:0.25
;BEFORE_LAYER_CHANGE
G92 E0.0
;0.45


G1 E-2.24000 F4200.000
;WIPE_START
G1 F7200.000
G1 X87.628 Y91.763 E-0.57075
G1 X87.904 Y91.488 E-0.21603
G1 X88.064 Y91.647 E-0.12522
;WIPE_END
G1 E-0.04800 F4200.000
G1 Z0.400 F9000.000
G1 Z0.450
;AFTER_LAYER_CHANGE
;0.45
G1 Z0.650
G1 X83.236 Y93.007
G1 Z0.450
G1 E3.20000 F2400.000
;TYPE:Skirt
;WIDTH:0.42
G1 F1007
G1 X83.050 Y92.430 E0.02310
G1 X82.980 Y91.823 E0.02327
G1 X82.981 Y88.127 E0.14071
G1 X83.133 Y87.265 E0.03335
G1 X83.415 Y86.640 E0.02608
G1 X83.825 Y86.092 E0.02608
M73 P17 R3
G1 X86.106 Y83.812 E0.12281
G1 X86.842 Y83.305 E0.03401
G1 X87.417 Y83.088 E0.02343
G1 X88.025 Y82.987 E0.02343
G1 X91.772 Y82.980 E0.14270
G1 X92.785 Y83.150 E0.03911
G1 X93.689 Y83.638 E0.03911
G1 X96.164 Y86.081 E0.13243
G1 X96.665 Y86.783 E0.03285
G1 X96.917 Y87.434 E0.02658
G1 X97.018 Y88.125 E0.02658
G1 X97.019 Y91.873 E0.14270
G1 X96.867 Y92.735 E0.03335
G1 X96.577 Y93.375 E0.02674
G1 X96.151 Y93.933 E0.02674
G1 X93.865 Y96.215 E0.12298
G1 X93.007 Y96.764 E0.03878
G1 X92.430 Y96.950 E0.02310
G1 X91.823 Y97.020 E0.02327
G1 X88.127 Y97.019 E0.14071
M73 P18 R3
G1 X87.265 Y96.867 E0.03335
G1 X86.625 Y96.577 E0.02674
G1 X86.067 Y96.151 E0.02674
G1 X83.785 Y93.865 E0.12298
G1 X83.268 Y93.058 E0.03649
G1 X83.585 Y92.856 F9000.000
G1 F1007
G1 X83.414 Y92.328 E0.02113
G1 X83.357 Y91.803 E0.02011
G1 X83.358 Y88.142 E0.13940
G1 X83.501 Y87.354 E0.03049
G1 X83.751 Y86.812 E0.02275
G1 X84.113 Y86.336 E0.02275
G1 X86.362 Y84.090 E0.12104
G1 X87.033 Y83.631 E0.03095
G1 X87.540 Y83.445 E0.02057
G1 X88.074 Y83.361 E0.02057
G1 X91.772 Y83.357 E0.14080
G1 X92.673 Y83.510 E0.03481
G1 X93.478 Y83.952 E0.03496
G1 X95.891 Y86.341 E0.12929
G1 X96.343 Y86.982 E0.02987
G1 X96.558 Y87.552 E0.02321
G1 X96.642 Y88.156 E0.02321
G1 X96.642 Y91.854 E0.14080
M73 P19 R3
G1 X96.499 Y92.646 E0.03065
G1 X96.240 Y93.202 E0.02337
G1 X95.867 Y93.684 E0.02321
G1 X93.617 Y95.930 E0.12104
G1 X92.836 Y96.428 E0.03527
G1 X92.328 Y96.586 E0.02026
G1 X91.803 Y96.643 E0.02011
M73 P19 R2
G1 X88.142 Y96.642 E0.13940
G1 X87.354 Y96.499 E0.03049
G1 X86.798 Y96.240 E0.02337
G1 X86.316 Y95.867 E0.02321
G1 X84.070 Y93.617 E0.12104
G1 X83.617 Y92.906 E0.03209
G1 X83.913 Y92.674 F9000.000
G1 F1007
G1 X83.734 Y91.787 E0.03445
G1 X83.735 Y88.160 E0.13813
G1 X83.866 Y87.451 E0.02745
G1 X84.084 Y86.991 E0.01940
G1 X84.398 Y86.584 E0.01954
G1 X86.614 Y84.369 E0.11933
G1 X87.221 Y83.960 E0.02788
G1 X88.114 Y83.737 E0.03502
M73 P20 R2
G1 X91.772 Y83.734 E0.13928
G1 X92.563 Y83.871 E0.03060
G1 X93.264 Y84.264 E0.03060
G1 X95.615 Y86.598 E0.12613
G1 X96.019 Y87.177 E0.02688
G1 X96.198 Y87.666 E0.01983
G1 X96.266 Y88.182 E0.01983
G1 X96.265 Y91.840 E0.13929
G1 X96.134 Y92.549 E0.02745
G1 X95.910 Y93.019 E0.01983
G1 X95.589 Y93.429 E0.01983
G1 X93.369 Y95.646 E0.11947
G1 X92.674 Y96.087 E0.03131
G1 X91.787 Y96.266 E0.03445
G1 X88.160 Y96.265 E0.13813
G1 X87.451 Y96.134 E0.02745
G1 X86.981 Y95.910 E0.01983
G1 X86.571 Y95.589 E0.01983
G1 X84.354 Y93.369 E0.11947
G1 X83.946 Y92.725 E0.02903
; printing object dice_cross.stl id:0 copy 0
G1 E-2.24000 F4200.000
;WIPE_START
M73 P21 R2
G1 F7200.000
G1 X83.734 Y91.787 E-0.53260
G1 X83.734 Y91.103 E-0.37940
;WIPE_END
G1 E-0.04800 F4200.000
G1 Z0.650 F9000.000
G1 X86.990 Y91.768
G1 Z0.450
G1 E3.20000 F2400.000
M204 S800
;TYPE:Perimeter
;WIDTH:0.45
G1 F1007
G1 X88.757 Y90.000 E0.10299
G1 X86.990 Y88.232 E0.10299
G1 X88.232 Y86.990 E0.07239
G1 X90.000 Y88.757 E0.10299
G1 X91.768 Y86.990 E0.10299
G1 X93.010 Y88.232 E0.07239
G1 X91.243 Y90.000 E0.10299
G1 X93.010 Y91.768 E0.10299
G1 X91.768 Y93.010 E0.07239
G1 X90.000 Y91.243 E0.10299
G1 X88.232 Y93.010 E0.10299
M73 P22 R2
G1 X87.032 Y91.810 E0.06992
M204 S1250
G1 E-2.24000 F4200.000
;WIPE_START
G1 F7200.000
G1 X88.168 Y90.619 E-0.91200
;WIPE_END
G1 E-0.04800 F4200.000
G1 Z0.650 F9000.000
G1 X91.803 Y90.000
G1 Z0.450
G1 E3.20000 F2400.000
M204 S800
;TYPE:External perimeter
G1 F1007
G1 X93.571 Y91.768 E0.10299
G1 X91.768 Y93.571 E0.10505
G1 X90.000 Y91.803 E0.10299
G1 X88.232 Y93.571 E0.10299
G1 X86.429 Y91.768 E0.10505
G1 X88.197 Y90.000 E0.10299
G1 X86.429 Y88.232 E0.10299
G1 X88.232 Y86.429 E0.10505
G1 X90.000 Y88.197 E0.10299
M73 P23 R2
G1 X91.768 Y86.429 E0.10299
G1 X93.571 Y88.232 E0.10505
G1 X91.846 Y89.958 E0.10052
M204 S1250
G1 X91.604 Y90.347 F9000.000
G1 E-2.24000 F4200.000
;WIPE_START
G1 F7200.000
G1 X92.981 Y91.149 E-0.91200
;WIPE_END
G1 E-0.04800 F4200.000
G1 Z0.650 F9000.000
G1 X91.637 Y92.711
G1 Z0.450
G1 E3.20000 F2400.000
M204 S1000
;TYPE:Solid infill
;WIDTH:0.463594
G1 F1007
G1 X92.585 Y91.763 E0.05714
G1 X92.295 Y91.473 E0.01747
G1 X91.473 Y92.295 E0.04954
G1 X91.183 Y92.005 E0.01747
G1 X92.005 Y91.183 E0.04954
G1 X91.716 Y90.893 E0.01747
G1 X90.893 Y91.716 E0.04954
G1 X90.603 Y91.426 E0.01747
G1 X91.426 Y90.603 E0.04954
G1 X91.136 Y90.314 E0.01747
G1 X90.314 Y91.136 E0.04954
G1 X90.024 Y90.846 E0.01747
G1 X90.846 Y90.024 E0.04954
G1 X90.822 Y90.000 E0.00143
G1 X92.590 Y88.232 E0.10652
G1 X92.324 Y87.966 E0.01604
G1 X87.966 Y92.324 E0.26259
M73 P24 R2
G1 X87.676 Y92.034 E0.01747
G1 X92.034 Y87.676 E0.26259
G1 X91.768 Y87.410 E0.01604
G1 X90.000 Y89.178 E0.10652
G1 X89.976 Y89.154 E0.00143
G1 X89.154 Y89.976 E0.04954
G1 X88.864 Y89.686 E0.01747
G1 X89.686 Y88.864 E0.04954
G1 X89.397 Y88.574 E0.01747
G1 X88.574 Y89.397 E0.04954
G1 X88.284 Y89.107 E0.01747
G1 X89.107 Y88.284 E0.04954
G1 X88.817 Y87.995 E0.01747
G1 X87.995 Y88.817 E0.04954
G1 X87.705 Y88.527 E0.01747
G1 X88.527 Y87.705 E0.04954
G1 X88.237 Y87.415 E0.01747
G1 X87.289 Y88.363 E0.05714
M204 S1250
; stop printing object dice_cross.stl id:0 copy 0
M106 S170.85
;LAYER_CHANGE
;Z:0.7
;HEIGHT:0.25
;BEFORE_LAYER_CHANGE
G92 E0.0
;0.7


G1 E-2.24000 F4200.000
;WIPE_START
G1 F7200.000
G1 X88.237 Y87.415 E-0.74321
G1 X88.452 Y87.630 E-0.16879
;WIPE_END
G1 E-0.04800 F4200.000
G1 Z0.650 F9000.000
G1 Z0.700
;AFTER_LAYER_CHANGE
;0.7
G1 Z0.900
G1 X86.842 Y83.305
G1 Z0.700
G1 E3.20000 F2400.000
;TYPE:Skirt
;WIDTH:0.42
M73 P25 R2
G1 F1006
G1 X87.417 Y83.088 E0.02343
G1 X88.025 Y82.987 E0.02343
G1 X91.772 Y82.980 E0.14270
G1 X92.785 Y83.150 E0.03911
G1 X93.689 Y83.638 E0.03911
G1 X96.164 Y86.081 E0.13243
G1 X96.665 Y86.783 E0.03285
G1 X96.917 Y87.434 E0.02658
G1 X97.018 Y88.125 E0.02658
G1 X97.019 Y91.873 E0.14270
G1 X96.867 Y92.735 E0.03335
G1 X96.577 Y93.375 E0.02674
G1 X96.151 Y93.933 E0.02674
G1 X93.865 Y96.215 E0.12298
G1 X93.007 Y96.764 E0.03878
G1 X92.430 Y96.950 E0.02310
G1 X91.823 Y97.020 E0.02327
G1 X88.127 Y97.019 E0.14071
G1 X87.265 Y96.867 E0.03335
G1 X86.625 Y96.577 E0.02674
G1 X86.067 Y96.151 E0.02674
M73 P26 R2
G1 X83.785 Y93.865 E0.12298
G1 X83.236 Y93.007 E0.03878
G1 X83.050 Y92.430 E0.02310
G1 X82.980 Y91.823 E0.02327
G1 X82.981 Y88.127 E0.14071
G1 X83.133 Y87.265 E0.03335
G1 X83.415 Y86.640 E0.02608
G1 X83.825 Y86.092 E0.02608
G1 X86.106 Y83.812 E0.12281
G1 X86.792 Y83.339 E0.03172
G1 X87.005 Y83.651 F9000.000
G1 F1006
G1 X87.540 Y83.445 E0.02184
G1 X88.074 Y83.361 E0.02057
G1 X91.772 Y83.357 E0.14080
G1 X92.673 Y83.510 E0.03481
G1 X93.478 Y83.952 E0.03496
G1 X95.891 Y86.341 E0.12929
G1 X96.343 Y86.982 E0.02987
G1 X96.558 Y87.552 E0.02321
G1 X96.642 Y88.156 E0.02321
G1 X96.642 Y91.854 E0.14080
M73 P27 R2
G1 X96.499 Y92.646 E0.03065
G1 X96.240 Y93.202 E0.02337
G1 X95.867 Y93.684 E0.02321
G1 X93.617 Y95.930 E0.12104
G1 X92.836 Y96.428 E0.03527
G1 X92.328 Y96.586 E0.02026
G1 X91.803 Y96.643 E0.02011
G1 X88.142 Y96.642 E0.13940
G1 X87.354 Y96.499 E0.03049
G1 X86.798 Y96.240 E0.02337
G1 X86.316 Y95.867 E0.02321
G1 X84.070 Y93.617 E0.12104
G1 X83.572 Y92.836 E0.03527
G1 X83.414 Y92.328 E0.02026
G1 X83.357 Y91.803 E0.02011
G1 X83.358 Y88.142 E0.13940
G1 X83.501 Y87.354 E0.03049
G1 X83.751 Y86.812 E0.02275
G1 X84.113 Y86.336 E0.02275
G1 X86.362 Y84.090 E0.12104
G1 X86.955 Y83.685 E0.02737
G1 X87.221 Y83.960 F9000.000
G1 F1006
G1 X88.114 Y83.737 E0.03502
G1 X91.772 Y83.734 E0.13928
M73 P28 R2
G1 X92.563 Y83.871 E0.03060
G1 X93.264 Y84.264 E0.03060
G1 X95.615 Y86.598 E0.12613
G1 X96.019 Y87.177 E0.02688
G1 X96.198 Y87.666 E0.01983
G1 X96.266 Y88.182 E0.01983
G1 X96.265 Y91.840 E0.13929
G1 X96.134 Y92.549 E0.02745
G1 X95.910 Y93.019 E0.01983
G1 X95.589 Y93.429 E0.01983
G1 X93.369 Y95.646 E0.11947
G1 X92.674 Y96.087 E0.03131
G1 X91.787 Y96.266 E0.03445
G1 X88.160 Y96.265 E0.13813
G1 X87.451 Y96.134 E0.02745
G1 X86.981 Y95.910 E0.01983
G1 X86.571 Y95.589 E0.01983
G1 X84.354 Y93.369 E0.11947
G1 X83.913 Y92.674 E0.03131
G1 X83.734 Y91.787 E0.03445
G1 X83.735 Y88.160 E0.13813
M73 P29 R2
G1 X83.866 Y87.451 E0.02745
G1 X84.084 Y86.991 E0.01940
G1 X84.398 Y86.584 E0.01954
G1 X86.614 Y84.369 E0.11933
G1 X87.172 Y83.993 E0.02560
; printing object dice_cross.stl id:0 copy 0
G1 E-2.24000 F4200.000
;WIPE_START
G1 F7200.000
G1 X88.114 Y83.737 E-0.54106
G1 X88.783 Y83.736 E-0.37094
;WIPE_END
G1 E-0.04800 F4200.000
G1 Z0.900 F9000.000
G1 X88.232 Y86.990
G1 Z0.700
G1 E3.20000 F2400.000
M204 S800
;TYPE:Perimeter
;WIDTH:0.45
G1 F1006
G1 X90.000 Y88.757 E0.10299
G1 X91.768 Y86.990 E0.10299
G1 X93.010 Y88.232 E0.07239
G1 X91.243 Y90.000 E0.10299
G1 X93.010 Y91.768 E0.10299
