; generated by PrusaSlicer 2.3.3+linux-x64 on 2021-10-08 at 11:03:42 UTC


;
;

;
;
; 

; external perimeters extrusion width = 0.45mm
; perimeters extrusion width = 0.45mm
; infill extrusion width = 0.45mm
; solid infill extrusion width = 0.45mm
; top infill extrusion width = 0.40mm
; first layer extrusion width = 0.42mm

M73 P0 R51
M201 X1250 Y1250 Z400 E5000 ; sets maximum accelerations, mm/sec^2
M203 X180 Y180 Z12 E80 ; sets maximum feedrates, mm/sec
M204 P1250 R1250 T1250 ; sets acceleration (P, T) and retract acceleration (R), mm/sec^2
M205 X8.00 Y8.00 Z2.00 E10.00 ; sets the jerk limits, mm/sec
M205 S0 T0 ; sets the minimum extruding and travel feed rate, mm/sec
M107
;TYPE:Custom
G90 ; use absolute coordinates
M83 ; extruder relative mode
M104 S170 ; set extruder temp for bed leveling
M140 S60 ; set bed temp
M109 R170 ; wait for bed leveling temp
M190 S60 ; wait for bed temp
G28 ; home all without mesh bed level
G29 ; mesh bed leveling 
M104 S215 ; set extruder temp
G92 E0.0
G1 Y-2.0 X179 F2400
G1 Z3 F720
M109 S215 ; wait for extruder temp

; intro line
G1 X170 F1000
G1 Z0.2 F720
G1 X110.0 E8.0 F900
G1 X40.0 E10.0 F700
G92 E0.0

M221 S95 ; set flow
G21 ; set units to millimeters
G90 ; use absolute coordinates
M83 ; use relative distances for extrusion
M900 K0.2 ; Filament gcode LA 1.5
; ; Filament gcode LA 1.0
;LAYER_CHANGE
;Z:0.2
;HEIGHT:0.2
;BEFORE_LAYER_CHANGE
G92 E0.0
;0.2


G1 E-3.20000 F4200.000
G1 Z0.200 F9000.000
;AFTER_LAYER_CHANGE
;0.2
G1 Z0.400
G1 X81.446 Y81.314
G1 Z0.200
G1 E3.20000 F2400.000
M204 S800
;TYPE:Skirt
;WIDTH:0.42
G1 F1200.000
G1 X82.404 Y80.465 E0.04013
G1 X83.393 Y79.755 E0.03820
G1 X84.433 Y79.155 E0.03762
G1 X85.479 Y78.679 E0.03603
G1 X86.554 Y78.306 E0.03568
G1 X87.666 Y78.036 E0.03589
G1 X88.762 Y77.873 E0.03475
G1 X90.145 Y77.810 E0.04342
G1 X91.311 Y77.880 E0.03662
G1 X92.690 Y78.111 E0.04384
G1 X93.801 Y78.417 E0.03613
G1 X94.868 Y78.823 E0.03578
G1 X95.913 Y79.340 E0.03656
G1 X96.942 Y79.979 E0.03799
G1 X97.922 Y80.735 E0.03881
G1 X98.851 Y81.617 E0.04017
G1 X99.582 Y82.465 E0.03509
G1 X100.304 Y83.486 E0.03921
G1 X100.958 Y84.659 E0.04210
G1 X101.385 Y85.644 E0.03366
G1 X101.760 Y86.788 E0.03776
G1 X102.007 Y87.893 E0.03550
G1 X102.147 Y88.979 E0.03433
G1 X102.188 Y90.240 E0.03955
G1 X102.093 Y91.545 E0.04102
G1 X101.905 Y92.619 E0.03420
G1 X101.243 Y94.713 E0.06885
G1 X100.697 Y95.848 E0.03948
G1 X100.100 Y96.828 E0.03599
G1 X99.293 Y97.889 E0.04179
M73 P0 R50
G1 X98.548 Y98.692 E0.03433
G1 X97.596 Y99.535 E0.03988
G1 X96.607 Y100.245 E0.03820
G1 X95.567 Y100.845 E0.03762
G1 X94.518 Y101.323 E0.03616
G1 X93.446 Y101.694 E0.03555
G1 X92.334 Y101.964 E0.03589
G1 X90.952 Y102.153 E0.04375
G1 X89.822 Y102.190 E0.03545
G1 X88.685 Y102.119 E0.03572
G1 X87.306 Y101.889 E0.04384
G1 X86.199 Y101.583 E0.03601
G1 X85.129 Y101.175 E0.03591
G1 X84.087 Y100.660 E0.03643
G1 X83.058 Y100.021 E0.03799
G1 X82.078 Y99.265 E0.03881
G1 X81.149 Y98.383 E0.04017
G1 X80.418 Y97.535 E0.03509
G1 X79.696 Y96.514 E0.03921
G1 X79.042 Y95.341 E0.04210
G1 X78.615 Y94.356 E0.03366
G1 X78.240 Y93.212 E0.03776
G1 X77.993 Y92.107 E0.03550
G1 X77.853 Y91.021 E0.03433
G1 X77.812 Y89.760 E0.03955
G1 X77.907 Y88.455 E0.04102
G1 X78.095 Y87.381 E0.03420
G1 X78.757 Y85.287 E0.06885
G1 X79.303 Y84.152 E0.03949
G1 X79.898 Y83.176 E0.03586
G1 X80.704 Y82.114 E0.04179
G1 X81.405 Y81.358 E0.03232
M204 S1250
G1 X81.681 Y81.615 F9000.000
M204 S800
G1 F1200.000
G1 X82.640 Y80.759 E0.04030
G1 X83.601 Y80.069 E0.03709
G1 X84.603 Y79.491 E0.03628
G1 X85.621 Y79.028 E0.03504
G1 X86.660 Y78.668 E0.03447
G1 X87.732 Y78.407 E0.03460
G1 X88.796 Y78.248 E0.03374
G1 X90.145 Y78.187 E0.04234
G1 X91.268 Y78.255 E0.03528
G1 X92.611 Y78.479 E0.04270
G1 X93.686 Y78.776 E0.03496
G1 X94.719 Y79.170 E0.03465
G1 X95.732 Y79.670 E0.03542
G1 X96.729 Y80.290 E0.03682
G1 X97.676 Y81.020 E0.03749
G1 X98.581 Y81.880 E0.03913
G1 X99.283 Y82.694 E0.03372
G1 X99.986 Y83.689 E0.03819
G1 X100.621 Y84.828 E0.04087
G1 X101.034 Y85.781 E0.03256
G1 X101.396 Y86.887 E0.03649
G1 X101.635 Y87.957 E0.03438
G1 X101.771 Y89.008 E0.03323
G1 X101.811 Y90.235 E0.03851
G1 X101.718 Y91.500 E0.03977
G1 X101.536 Y92.541 E0.03314
G1 X100.897 Y94.562 E0.06646
G1 X100.366 Y95.667 E0.03843
G1 X99.788 Y96.616 E0.03484
G1 X99.003 Y97.648 E0.04065
G1 X98.278 Y98.429 E0.03341
G1 X97.360 Y99.241 E0.03844
G1 X96.399 Y99.931 E0.03709
G1 X95.397 Y100.509 E0.03628
G1 X94.379 Y100.972 E0.03504
G1 X93.340 Y101.332 E0.03447
G1 X92.265 Y101.594 E0.03472
G1 X90.918 Y101.778 E0.04262
G1 X89.828 Y101.813 E0.03418
G1 X88.728 Y101.745 E0.03456
G1 X87.385 Y101.520 E0.04270
G1 X86.314 Y101.224 E0.03484
G1 X85.278 Y100.829 E0.03477
G1 X84.268 Y100.330 E0.03530
G1 X83.271 Y99.710 E0.03682
G1 X82.324 Y98.980 E0.03749
G1 X81.419 Y98.120 E0.03913
G1 X80.717 Y97.306 E0.03372
G1 X80.014 Y96.311 E0.03819
G1 X79.379 Y95.172 E0.04087
G1 X78.966 Y94.219 E0.03256
G1 X78.604 Y93.113 E0.03649
G1 X78.365 Y92.043 E0.03438
G1 X78.229 Y90.992 E0.03323
G1 X78.189 Y89.765 E0.03851
G1 X78.282 Y88.500 E0.03977
G1 X78.464 Y87.459 E0.03314
G1 X79.103 Y85.438 E0.06646
G1 X79.634 Y84.333 E0.03843
G1 X80.210 Y83.387 E0.03472
G1 X80.997 Y82.352 E0.04076
G1 X81.640 Y81.659 E0.02966
M204 S1250
; printing object dice_body.stl id:0 copy 0
G1 E-2.24000 F4200.000
;WIPE_START
G1 F7200.000
G1 X82.640 Y80.759 E-0.74530
G1 X82.885 Y80.584 E-0.16670
;WIPE_END
G1 E-0.04800 F4200.000
G1 Z0.400 F9000.000
G1 X81.640 Y81.659
G1 X81.640 Y81.659
G1 X83.289 Y84.965
G1 Z0.200
G1 E3.20000 F2400.000
M204 S800
;TYPE:Perimeter
G1 F1200.000
G1 X83.647 Y84.520 E0.01791
G1 X84.172 Y83.964 E0.02398
G1 X84.445 Y83.712 E0.01164
G1 X84.857 Y83.371 E0.01680
G1 X85.579 Y82.870 E0.02754
G1 X86.311 Y82.465 E0.02624
G1 X86.946 Y82.186 E0.02175
G1 X87.811 Y81.901 E0.02855
G1 X88.581 Y81.731 E0.02474
G1 X89.353 Y81.636 E0.02436
G1 X90.218 Y81.614 E0.02714
G1 X90.645 Y81.635 E0.01340
G1 X91.157 Y81.691 E0.01615
G1 X91.931 Y81.835 E0.02468
G1 X92.692 Y82.054 E0.02483
G1 X93.443 Y82.350 E0.02530
G1 X94.180 Y82.726 E0.02597
G1 X94.901 Y83.191 E0.02688
G1 X95.555 Y83.712 E0.02622
G1 X96.058 Y84.196 E0.02189
G1 X96.562 Y84.772 E0.02400
G1 X97.087 Y85.510 E0.02838
G1 X97.478 Y86.197 E0.02481
G1 X97.774 Y86.845 E0.02232
G1 X98.061 Y87.677 E0.02761
G1 X98.249 Y88.470 E0.02555
G1 X98.357 Y89.247 E0.02459
G1 X98.388 Y90.186 E0.02947
G1 X98.336 Y90.954 E0.02412
G1 X98.248 Y91.534 E0.01841
G1 X98.168 Y91.919 E0.01233
G1 X97.966 Y92.633 E0.02325
G1 X97.684 Y93.366 E0.02464
G1 X97.359 Y94.031 E0.02321
G1 X96.926 Y94.737 E0.02595
G1 X96.725 Y95.017 E0.01081
G1 X96.353 Y95.480 E0.01862
G1 X95.828 Y96.036 E0.02398
G1 X95.555 Y96.288 E0.01164
G1 X95.143 Y96.629 E0.01680
G1 X94.421 Y97.130 E0.02754
G1 X93.689 Y97.535 E0.02624
G1 X93.054 Y97.814 E0.02175
G1 X92.189 Y98.099 E0.02855
G1 X91.419 Y98.269 E0.02474
G1 X90.646 Y98.365 E0.02442
G1 X89.871 Y98.389 E0.02431
G1 X89.092 Y98.340 E0.02448
G1 X88.581 Y98.269 E0.01617
G1 X88.073 Y98.166 E0.01624
G1 X87.308 Y97.946 E0.02497
G1 X86.557 Y97.650 E0.02530
G1 X85.820 Y97.274 E0.02597
G1 X85.099 Y96.809 E0.02688
G1 X84.445 Y96.288 E0.02622
G1 X83.942 Y95.804 E0.02189
G1 X83.438 Y95.228 E0.02400
G1 X82.913 Y94.490 E0.02838
G1 X82.522 Y93.803 E0.02481
G1 X82.226 Y93.155 E0.02232
G1 X81.939 Y92.323 E0.02761
G1 X81.751 Y91.530 E0.02555
G1 X81.643 Y90.753 E0.02459
G1 X81.612 Y89.814 E0.02947
G1 X81.664 Y89.046 E0.02412
G1 X81.752 Y88.466 E0.01841
G1 X81.832 Y88.081 E0.01233
G1 X82.034 Y87.367 E0.02325
G1 X82.316 Y86.634 E0.02464
G1 X82.641 Y85.969 E0.02321
G1 X83.074 Y85.263 E0.02595
G1 X83.253 Y85.013 E0.00964
M204 S1250
G1 X82.946 Y84.794 F9000.000
M204 S800
;TYPE:External perimeter
G1 F1200.000
G1 X83.362 Y84.272 E0.02092
G1 X83.906 Y83.696 E0.02485
G1 X84.629 Y83.070 E0.02997
G1 X85.379 Y82.549 E0.02864
G1 X86.144 Y82.126 E0.02739
G1 X86.806 Y81.836 E0.02267
G1 X87.186 Y81.697 E0.01269
G1 X87.715 Y81.535 E0.01735
G1 X88.518 Y81.359 E0.02576
G1 X89.324 Y81.259 E0.02549
G1 X90.223 Y81.237 E0.02817
G1 X90.675 Y81.259 E0.01419
G1 X91.212 Y81.317 E0.01695
G1 X92.018 Y81.468 E0.02570
G1 X92.813 Y81.697 E0.02595
G1 X93.598 Y82.005 E0.02644
G1 X94.369 Y82.399 E0.02714
G1 X95.121 Y82.884 E0.02807
G1 X95.803 Y83.428 E0.02736
G1 X96.331 Y83.935 E0.02295
G1 X96.858 Y84.538 E0.02511
G1 X97.405 Y85.307 E0.02957
G1 X97.814 Y86.025 E0.02593
G1 X98.125 Y86.704 E0.02342
G1 X98.424 Y87.572 E0.02877
G1 X98.620 Y88.401 E0.02670
G1 X98.732 Y89.208 E0.02557
G1 X98.759 Y89.602 E0.01238
G1 X98.765 Y90.197 E0.01865
G1 X98.711 Y90.995 E0.02507
G1 X98.620 Y91.601 E0.01922
G1 X98.535 Y92.009 E0.01308
G1 X98.324 Y92.752 E0.02420
G1 X98.030 Y93.517 E0.02570
G1 X97.689 Y94.213 E0.02430
G1 X97.240 Y94.945 E0.02693
G1 X97.026 Y95.245 E0.01157
G1 X96.638 Y95.728 E0.01942
G1 X96.094 Y96.304 E0.02485
G1 X95.804 Y96.572 E0.01237
G1 X95.371 Y96.930 E0.01761
G1 X94.621 Y97.451 E0.02864
G1 X93.856 Y97.874 E0.02739
G1 X93.194 Y98.164 E0.02267
G1 X92.814 Y98.303 E0.01269
G1 X92.285 Y98.465 E0.01735
G1 X91.482 Y98.641 E0.02576
G1 X90.675 Y98.741 E0.02551
G1 X89.865 Y98.766 E0.02541
G1 X89.054 Y98.716 E0.02548
G1 X88.517 Y98.641 E0.01698
G1 X87.984 Y98.533 E0.01708
G1 X87.187 Y98.303 E0.02600
G1 X86.402 Y97.995 E0.02644
G1 X85.631 Y97.601 E0.02714
G1 X84.879 Y97.116 E0.02807
G1 X84.197 Y96.572 E0.02736
G1 X83.669 Y96.065 E0.02295
G1 X83.142 Y95.462 E0.02511
G1 X82.595 Y94.693 E0.02957
G1 X82.186 Y93.975 E0.02593
G1 X81.875 Y93.296 E0.02342
G1 X81.576 Y92.428 E0.02877
G1 X81.380 Y91.599 E0.02670
G1 X81.268 Y90.792 E0.02557
G1 X81.241 Y90.398 E0.01238
G1 X81.235 Y89.803 E0.01865
G1 X81.289 Y89.005 E0.02507
G1 X81.380 Y88.399 E0.01922
G1 X81.465 Y87.991 E0.01308
G1 X81.676 Y87.248 E0.02420
G1 X81.970 Y86.483 E0.02570
G1 X82.311 Y85.787 E0.02430
G1 X82.760 Y85.055 E0.02693
G1 X82.911 Y84.843 E0.00818
M204 S1250
G1 X83.344 Y84.840 F9000.000
G1 E-3.20000 F4200.000
G1 Z0.400 F9000.000
G1 X94.565 Y83.108
G1 Z0.200
G1 E3.20000 F2400.000
M204 S800
;TYPE:Solid infill
;WIDTH:0.428675
G1 F1200.000
G1 X95.895 Y84.439 E0.06034
M73 P1 R50
G1 X96.339 Y84.948 E0.02168
G1 X96.848 Y85.662 E0.02813
G1 X97.212 Y86.301 E0.02359
G1 X93.719 Y82.808 E0.15846
G1 X93.326 Y82.608 E0.01413
G1 X92.744 Y82.378 E0.02009
G1 X97.615 Y87.250 E0.22097
G1 X97.789 Y87.756 E0.01718
G1 X97.856 Y88.036 E0.00923
G1 X91.956 Y82.137 E0.26760
G1 X91.274 Y82.000 E0.02231
G1 X97.999 Y88.725 E0.30503
G1 X98.077 Y89.349 E0.02018
G1 X90.648 Y81.920 E0.33699
G1 X90.083 Y81.900 E0.01814
G1 X98.096 Y89.913 E0.36347
G1 X98.105 Y90.181 E0.00862
G1 X98.087 Y90.449 E0.00861
G1 X89.551 Y81.914 E0.38719
G1 X89.050 Y81.958 E0.01613
G1 X98.049 Y90.957 E0.40822
G1 X97.978 Y91.431 E0.01538
G1 X88.570 Y82.023 E0.42677
G1 X88.122 Y82.122 E0.01469
G1 X97.884 Y91.884 E0.44282
G1 X97.764 Y92.309 E0.01417
G1 X87.693 Y82.237 E0.45686
G1 X87.282 Y82.373 E0.01386
G1 X97.630 Y92.720 E0.46937
G1 X97.478 Y93.114 E0.01354
G1 X86.885 Y82.521 E0.48051
G1 X86.506 Y82.688 E0.01328
G1 X97.309 Y93.490 E0.49002
G1 X97.129 Y93.856 E0.01308
G1 X86.150 Y82.877 E0.49805
G1 X85.799 Y83.071 E0.01288
G1 X96.925 Y94.197 E0.50471
G1 X96.718 Y94.535 E0.01272
G1 X85.471 Y83.289 E0.51017
G1 X85.149 Y83.512 E0.01257
G1 X96.484 Y94.847 E0.51416
G1 X96.246 Y95.155 E0.01248
G1 X84.846 Y83.755 E0.51714
G1 X84.553 Y84.008 E0.01241
G1 X95.994 Y95.448 E0.51896
G1 X95.729 Y95.729 E0.01238
G1 X84.271 Y84.271 E0.51976
G1 X84.006 Y84.552 E0.01238
G1 X95.447 Y95.992 E0.51896
G1 X95.154 Y96.245 E0.01241
G1 X83.754 Y84.845 E0.51714
G1 X83.516 Y85.153 E0.01248
G1 X94.851 Y96.488 E0.51416
G1 X94.529 Y96.711 E0.01257
G1 X83.282 Y85.465 E0.51017
G1 X83.075 Y85.803 E0.01272
G1 X94.201 Y96.929 E0.50471
G1 X93.850 Y97.123 E0.01288
G1 X82.871 Y86.144 E0.49805
G1 X82.691 Y86.510 E0.01308
G1 X93.494 Y97.312 E0.49002
G1 X93.114 Y97.479 E0.01328
G1 X82.522 Y86.886 E0.48051
G1 X82.370 Y87.280 E0.01354
G1 X92.718 Y97.627 E0.46937
G1 X92.307 Y97.763 E0.01386
G1 X82.236 Y87.691 E0.45686
G1 X82.116 Y88.117 E0.01417
G1 X91.877 Y97.878 E0.44282
G1 X91.430 Y97.977 E0.01469
G1 X82.022 Y88.569 E0.42677
G1 X81.951 Y89.043 E0.01538
G1 X90.950 Y98.042 E0.40822
G1 X90.450 Y98.088 E0.01610
G1 X81.913 Y89.551 E0.38725
G1 X81.895 Y89.819 E0.00861
G1 X81.904 Y90.087 E0.00862
G1 X89.921 Y98.104 E0.36366
G1 X89.344 Y98.073 E0.01854
G1 X81.923 Y90.651 E0.33664
G1 X82.001 Y91.276 E0.02018
G1 X88.730 Y98.004 E0.30523
G1 X88.044 Y97.863 E0.02247
G1 X82.145 Y91.964 E0.26760
G1 X82.211 Y92.244 E0.00922
G1 X82.385 Y92.751 E0.01718
G1 X87.256 Y97.622 E0.22096
G1 X86.674 Y97.392 E0.02009
G1 X86.281 Y97.192 E0.01413
G1 X82.788 Y93.699 E0.15844
G1 X83.152 Y94.338 E0.02358
G1 X83.661 Y95.052 E0.02813
G1 X84.106 Y95.562 E0.02171
G1 X85.435 Y96.892 E0.06031
M204 S1250
; stop printing object dice_body.stl id:0 copy 0
M106 S84.15
;LAYER_CHANGE
;Z:0.297237
;HEIGHT:0.0972372
;BEFORE_LAYER_CHANGE
G92 E0.0
;0.297237


G1 E-2.24000 F4200.000
;WIPE_START
G1 F7200.000
G1 X84.271 Y95.728 E-0.91200
;WIPE_END
G1 E-0.04800 F4200.000
G1 Z0.400 F9000.000
;AFTER_LAYER_CHANGE
;0.297237
G1 X82.078 Y99.265
G1 Z0.297
G1 E3.20000 F2400.000
;TYPE:Skirt
;WIDTH:0.42
G1 X81.149 Y98.383 E0.02067
G1 X80.418 Y97.535 E0.01806
G1 X79.696 Y96.514 E0.02018
G1 X79.042 Y95.341 E0.02167
G1 X78.615 Y94.356 E0.01732
G1 X78.240 Y93.212 E0.01943
G1 X77.993 Y92.107 E0.01827
G1 X77.853 Y91.021 E0.01767
G1 X77.812 Y89.760 E0.02035
G1 X77.907 Y88.455 E0.02111
G1 X78.095 Y87.381 E0.01760
G1 X78.757 Y85.287 E0.03543
G1 X79.303 Y84.152 E0.02032
G1 X79.898 Y83.176 E0.01845
G1 X80.704 Y82.114 E0.02151
G1 X81.446 Y81.314 E0.01760
G1 X82.404 Y80.465 E0.02065
G1 X83.393 Y79.755 E0.01966
G1 X84.433 Y79.155 E0.01936
G1 X85.479 Y78.679 E0.01854
G1 X86.554 Y78.306 E0.01836
G1 X87.666 Y78.036 E0.01847
G1 X88.762 Y77.873 E0.01788
G1 X90.145 Y77.810 E0.02235
G1 X91.311 Y77.880 E0.01885
G1 X92.690 Y78.111 E0.02256
G1 X93.801 Y78.417 E0.01860
G1 X94.868 Y78.823 E0.01841
G1 X95.913 Y79.340 E0.01881
G1 X96.942 Y79.979 E0.01955
G1 X97.922 Y80.735 E0.01997
G1 X98.851 Y81.617 E0.02067
G1 X99.582 Y82.465 E0.01806
G1 X100.304 Y83.486 E0.02018
G1 X100.958 Y84.659 E0.02167
G1 X101.385 Y85.644 E0.01732
G1 X101.760 Y86.788 E0.01943
G1 X102.007 Y87.893 E0.01827
G1 X102.147 Y88.979 E0.01767
G1 X102.188 Y90.240 E0.02035
G1 X102.093 Y91.545 E0.02111
G1 X101.905 Y92.619 E0.01760
G1 X101.243 Y94.713 E0.03543
G1 X100.697 Y95.848 E0.02032
G1 X100.100 Y96.828 E0.01852
G1 X99.293 Y97.889 E0.02151
G1 X98.548 Y98.692 E0.01767
G1 X97.596 Y99.535 E0.02052
G1 X96.607 Y100.245 E0.01966
G1 X95.567 Y100.845 E0.01936
G1 X94.518 Y101.323 E0.01861
G1 X93.446 Y101.694 E0.01829
M73 P2 R50
G1 X92.334 Y101.964 E0.01847
G1 X90.952 Y102.153 E0.02252
G1 X89.822 Y102.190 E0.01824
G1 X88.685 Y102.119 E0.01838
G1 X87.306 Y101.889 E0.02256
G1 X86.199 Y101.583 E0.01853
G1 X85.129 Y101.175 E0.01848
G1 X84.087 Y100.660 E0.01875
G1 X83.058 Y100.021 E0.01955
G1 X82.125 Y99.302 E0.01901
G1 X82.355 Y99.003 F9000.000
G1 F2400.000
G1 X81.419 Y98.120 E0.02076
G1 X80.717 Y97.306 E0.01736
G1 X80.014 Y96.311 E0.01966
G1 X79.379 Y95.172 E0.02103
G1 X78.966 Y94.219 E0.01676
G1 X78.604 Y93.113 E0.01878
G1 X78.365 Y92.043 E0.01769
G1 X78.229 Y90.992 E0.01710
G1 X78.189 Y89.765 E0.01982
G1 X78.282 Y88.500 E0.02047
G1 X78.464 Y87.459 E0.01705
G1 X79.103 Y85.438 E0.03420
G1 X79.634 Y84.333 E0.01978
G1 X80.210 Y83.387 E0.01787
G1 X80.997 Y82.352 E0.02098
G1 X81.719 Y81.574 E0.01713
G1 X82.640 Y80.759 E0.01984
G1 X83.601 Y80.069 E0.01909
G1 X84.603 Y79.491 E0.01867
G1 X85.621 Y79.028 E0.01803
G1 X86.660 Y78.668 E0.01774
G1 X87.732 Y78.407 E0.01781
G1 X88.796 Y78.248 E0.01736
G1 X90.145 Y78.187 E0.02179
G1 X91.268 Y78.255 E0.01815
G1 X92.611 Y78.479 E0.02197
G1 X93.686 Y78.776 E0.01799
G1 X94.719 Y79.170 E0.01783
G1 X95.732 Y79.670 E0.01823
G1 X96.729 Y80.290 E0.01895
G1 X97.676 Y81.020 E0.01929
G1 X98.581 Y81.880 E0.02014
G1 X99.283 Y82.694 E0.01736
G1 X99.986 Y83.689 E0.01966
G1 X100.621 Y84.828 E0.02103
G1 X101.034 Y85.781 E0.01676
G1 X101.396 Y86.887 E0.01878
G1 X101.635 Y87.957 E0.01769
G1 X101.771 Y89.008 E0.01710
G1 X101.811 Y90.235 E0.01982
G1 X101.718 Y91.500 E0.02047
G1 X101.536 Y92.541 E0.01705
