; generated by PrusaSlicer 2.3.3+linux-x64 on 2021-10-08 at 10:59:20 UTC


;
;

;
;
; 

; external perimeters extrusion width = 0.45mm
; perimeters extrusion width = 0.45mm
; infill extrusion width = 0.45mm
; solid infill extrusion width = 0.45mm
; top infill extrusion width = 0.40mm
; first layer extrusion width = 0.42mm

M73 P0 R140
M201 X1250 Y1250 Z400 E5000 ; sets maximum accelerations, mm/sec^2
M203 X180 Y180 Z12 E80 ; sets maximum feedrates, mm/sec
M204 P1250 R1250 T1250 ; sets acceleration (P, T) and retract acceleration (R), mm/sec^2
M205 X8.00 Y8.00 Z2.00 E10.00 ; sets the jerk limits, mm/sec
M205 S0 T0 ; sets the minimum extruding and travel feed rate, mm/sec
M107
;TYPE:Custom
G90 ; use absolute coordinates
M83 ; extruder relative mode
M104 S170 ; set extruder temp for bed leveling
M140 S60 ; set bed temp
M109 R170 ; wait for bed leveling temp
M190 S60 ; wait for bed temp
G28 ; home all without mesh bed level
G29 ; mesh bed leveling 
M104 S215 ; set extruder temp
G92 E0.0
G1 Y-2.0 X179 F2400
G1 Z3 F720
M109 S215 ; wait for extruder temp

; intro line
G1 X170 F1000
G1 Z0.2 F720
G1 X110.0 E8.0 F900
G1 X40.0 E10.0 F700
G92 E0.0

M221 S95 ; set flow
G21 ; set units to millimeters
G90 ; use absolute coordinates
M83 ; use relative distances for extrusion
M900 K0.2 ; Filament gcode LA 1.5
; ; Filament gcode LA 1.0
;LAYER_CHANGE
;Z:0.2
;HEIGHT:0.2
;BEFORE_LAYER_CHANGE
G92 E0.0
;0.2


G1 E-3.20000 F4200.000
G1 Z0.200 F9000.000
;AFTER_LAYER_CHANGE
;0.2
G1 Z0.400
G1 X17.703 Y40.025
G1 Z0.200
G1 E3.20000 F2400.000
M204 S800
;TYPE:Skirt
;WIDTH:0.42
G1 F1200.000
G1 X18.330 Y39.727 E0.02178
G1 X19.017 Y39.623 E0.02178
G1 X160.979 Y39.623 E4.45112
G1 X161.881 Y39.802 E0.02884
G1 X162.650 Y40.313 E0.02896
G1 X164.910 Y42.609 E0.10100
G1 X165.252 Y43.265 E0.02319
G1 X165.377 Y43.994 E0.02319
G1 X165.376 Y136.051 E2.88639
G1 X165.235 Y136.785 E0.02343
G1 X164.871 Y137.442 E0.02355
G1 X162.297 Y139.975 E0.11323
G1 X161.670 Y140.273 E0.02178
G1 X160.983 Y140.377 E0.02178
G1 X18.983 Y140.377 E4.45231
G1 X18.233 Y140.241 E0.02390
G1 X17.564 Y139.875 E0.02390
G1 X15.025 Y137.297 E0.11346
G1 X14.727 Y136.670 E0.02178
G1 X14.623 Y135.987 E0.02166
G1 X14.624 Y43.960 E2.88543
G1 X14.763 Y43.222 E0.02355
G1 X15.127 Y42.561 E0.02367
G1 X17.660 Y40.067 E0.11146
M204 S1250
; printing object down.stl id:0 copy 0
G1 E-2.24000 F4200.000
;WIPE_START
G1 F7200.000
G1 X18.330 Y39.727 E-0.41645
G1 X19.017 Y39.623 E-0.38490
G1 X19.217 Y39.623 E-0.11065
;WIPE_END
G1 E-0.04800 F4200.000
G1 Z0.400 F9000.000
G1 X19.812 Y42.787
G1 Z0.200
G1 E3.20000 F2400.000
M204 S800
;TYPE:Perimeter
G1 F1200.000
G1 X160.188 Y42.787 E4.40139
G1 X160.188 Y44.812 E0.06349
G1 X162.213 Y44.812 E0.06349
G1 X162.213 Y135.188 E2.83367
M73 P0 R139
G1 X160.188 Y135.188 E0.06349
G1 X160.188 Y137.213 E0.06349
G1 X19.812 Y137.213 E4.40139
G1 X19.812 Y135.188 E0.06349
G1 X17.787 Y135.188 E0.06349
G1 X17.787 Y44.812 E2.83367
G1 X19.812 Y44.812 E0.06349
G1 X19.812 Y42.847 E0.06161
M204 S1250
G1 E-2.24000 F4200.000
;WIPE_START
G1 F7200.000
G1 X21.458 Y42.846 E-0.91200
;WIPE_END
G1 E-0.04800 F4200.000
G1 Z0.400 F9000.000
G1 X160.565 Y44.435
G1 Z0.200
G1 E3.20000 F2400.000
M204 S800
;TYPE:External perimeter
G1 F1200.000
G1 X162.590 Y44.435 E0.06349
G1 X162.590 Y135.565 E2.85732
G1 X160.565 Y135.565 E0.06349
G1 X160.565 Y137.590 E0.06349
G1 X19.435 Y137.590 E4.42503
G1 X19.435 Y135.565 E0.06349
G1 X17.410 Y135.565 E0.06349
G1 X17.410 Y44.435 E2.85732
G1 X19.435 Y44.435 E0.06349
G1 X19.435 Y42.410 E0.06349
G1 X160.565 Y42.410 E4.42503
M73 P1 R139
G1 X160.565 Y44.375 E0.06161
M204 S1250
G1 X160.763 Y44.782 F9000.000
G1 X160.075 Y43.664
M204 S800
;TYPE:Solid infill
;WIDTH:0.420512
G1 F1200.000
G1 X159.481 Y43.070 E0.02636
G1 X158.947 Y43.070 E0.01677
G1 X160.075 Y44.198 E0.05007
M204 S1250
G1 X161.336 Y44.925 F9000.000
M204 S800
G1 F1200.000
G1 X161.930 Y45.519 E0.02636
G1 X161.930 Y46.053 E0.01677
G1 X160.802 Y44.925 E0.05007
M204 S1250
G1 E-2.24000 F4200.000
;WIPE_START
G1 F7200.000
G1 X161.930 Y46.053 E-0.88376
G1 X161.930 Y46.002 E-0.02823
;WIPE_END
G1 E-0.04800 F4200.000
G1 Z0.400 F9000.000
G1 X162.100 Y46.757
G1 Z0.200
G1 E3.20000 F2400.000
M204 S800
G1 F1200.000
G1 X160.438 Y45.095 E0.07378
G1 X159.905 Y45.095 E0.01674
G1 X159.905 Y44.562 E0.01674
G1 X158.413 Y43.070 E0.06625
G1 X157.879 Y43.070 E0.01677
G1 X161.930 Y47.121 E0.17987
G1 X161.930 Y47.655 E0.01677
G1 X157.345 Y43.070 E0.20358
G1 X156.811 Y43.070 E0.01677
G1 X161.930 Y48.189 E0.22729
G1 X161.930 Y48.723 E0.01677
G1 X156.277 Y43.070 E0.25100
G1 X155.743 Y43.070 E0.01677
G1 X161.930 Y49.257 E0.27471
G1 X161.930 Y49.791 E0.01677
G1 X155.209 Y43.070 E0.29842
G1 X154.675 Y43.070 E0.01677
G1 X161.930 Y50.325 E0.32213
G1 X161.930 Y50.859 E0.01677
G1 X154.141 Y43.070 E0.34584
G1 X153.607 Y43.070 E0.01677
G1 X161.930 Y51.393 E0.36955
G1 X161.930 Y51.927 E0.01677
G1 X153.073 Y43.070 E0.39326
G1 X152.539 Y43.070 E0.01677
G1 X161.930 Y52.461 E0.41698
G1 X161.930 Y52.995 E0.01677
G1 X152.005 Y43.070 E0.44069
G1 X151.471 Y43.070 E0.01677
G1 X161.930 Y53.529 E0.46440
G1 X161.930 Y54.063 E0.01677
G1 X150.937 Y43.070 E0.48811
G1 X150.403 Y43.070 E0.01677
G1 X161.930 Y54.597 E0.51182
G1 X161.930 Y55.131 E0.01677
G1 X149.869 Y43.070 E0.53553
G1 X149.335 Y43.070 E0.01677
G1 X161.930 Y55.665 E0.55924
G1 X161.930 Y56.199 E0.01677
G1 X148.801 Y43.070 E0.58295
G1 X148.267 Y43.070 E0.01677
G1 X161.930 Y56.733 E0.60666
G1 X161.930 Y57.267 E0.01677
G1 X147.733 Y43.070 E0.63037
G1 X147.199 Y43.070 E0.01677
G1 X161.930 Y57.801 E0.65408
G1 X161.930 Y58.335 E0.01677
G1 X146.665 Y43.070 E0.67779
G1 X146.131 Y43.070 E0.01677
G1 X161.930 Y58.869 E0.70150
G1 X161.930 Y59.403 E0.01677
G1 X145.597 Y43.070 E0.72521
M73 P1 R138
G1 X145.063 Y43.070 E0.01677
G1 X161.930 Y59.937 E0.74892
G1 X161.930 Y60.471 E0.01677
G1 X144.529 Y43.070 E0.77263
G1 X143.995 Y43.070 E0.01677
G1 X161.930 Y61.005 E0.79634
G1 X161.930 Y61.539 E0.01677
G1 X143.461 Y43.070 E0.82005
G1 X142.927 Y43.070 E0.01677
G1 X161.930 Y62.073 E0.84376
G1 X161.930 Y62.607 E0.01677
G1 X142.393 Y43.070 E0.86747
G1 X141.859 Y43.070 E0.01677
G1 X161.930 Y63.141 E0.89118
G1 X161.930 Y63.675 E0.01677
G1 X141.325 Y43.070 E0.91489
G1 X140.791 Y43.070 E0.01677
G1 X161.930 Y64.209 E0.93861
G1 X161.930 Y64.743 E0.01677
G1 X140.257 Y43.070 E0.96232
G1 X139.723 Y43.070 E0.01677
G1 X161.930 Y65.277 E0.98603
G1 X161.930 Y65.811 E0.01677
G1 X139.189 Y43.070 E1.00974
G1 X138.655 Y43.070 E0.01677
G1 X161.930 Y66.345 E1.03345
G1 X161.930 Y66.879 E0.01677
G1 X138.121 Y43.070 E1.05716
G1 X137.587 Y43.070 E0.01677
G1 X161.930 Y67.413 E1.08087
G1 X161.930 Y67.947 E0.01677
G1 X137.053 Y43.070 E1.10458
G1 X136.519 Y43.070 E0.01677
G1 X161.930 Y68.481 E1.12829
G1 X161.930 Y69.015 E0.01677
G1 X135.985 Y43.070 E1.15200
G1 X135.451 Y43.070 E0.01677
G1 X161.930 Y69.549 E1.17571
G1 X161.930 Y70.083 E0.01677
G1 X134.917 Y43.070 E1.19942
G1 X134.383 Y43.070 E0.01677
G1 X161.930 Y70.617 E1.22313
G1 X161.930 Y71.151 E0.01677
G1 X133.849 Y43.070 E1.24684
G1 X133.315 Y43.070 E0.01677
G1 X161.930 Y71.685 E1.27055
G1 X161.930 Y72.219 E0.01677
G1 X132.781 Y43.070 E1.29426
G1 X132.247 Y43.070 E0.01677
G1 X161.930 Y72.753 E1.31797
G1 X161.930 Y73.287 E0.01677
G1 X131.713 Y43.070 E1.34168
G1 X131.179 Y43.070 E0.01677
G1 X161.930 Y73.821 E1.36539
G1 X161.930 Y74.355 E0.01677
G1 X130.645 Y43.070 E1.38910
G1 X130.111 Y43.070 E0.01677
G1 X161.930 Y74.889 E1.41281
G1 X161.930 Y75.423 E0.01677
G1 X129.577 Y43.070 E1.43652
G1 X129.043 Y43.070 E0.01677
G1 X161.930 Y75.957 E1.46023
G1 X161.930 Y76.491 E0.01677
G1 X128.509 Y43.070 E1.48395
G1 X127.975 Y43.070 E0.01677
G1 X161.930 Y77.025 E1.50766
M73 P2 R137
G1 X161.930 Y77.559 E0.01677
G1 X127.441 Y43.070 E1.53137
G1 X126.907 Y43.070 E0.01677
G1 X161.930 Y78.093 E1.55508
G1 X161.930 Y78.627 E0.01677
G1 X126.373 Y43.070 E1.57879
G1 X125.839 Y43.070 E0.01677
G1 X161.930 Y79.161 E1.60250
G1 X161.930 Y79.695 E0.01677
G1 X125.305 Y43.070 E1.62621
G1 X124.771 Y43.070 E0.01677
G1 X161.930 Y80.229 E1.64992
G1 X161.930 Y80.763 E0.01677
G1 X124.237 Y43.070 E1.67363
G1 X123.703 Y43.070 E0.01677
G1 X161.930 Y81.297 E1.69734
G1 X161.930 Y81.831 E0.01677
G1 X123.169 Y43.070 E1.72105
G1 X122.635 Y43.070 E0.01677
G1 X161.930 Y82.365 E1.74476
G1 X161.930 Y82.899 E0.01677
G1 X122.101 Y43.070 E1.76847
G1 X121.567 Y43.070 E0.01677
G1 X161.930 Y83.433 E1.79218
G1 X161.930 Y83.967 E0.01677
G1 X121.033 Y43.070 E1.81589
G1 X120.499 Y43.070 E0.01677
G1 X161.930 Y84.501 E1.83960
G1 X161.930 Y85.035 E0.01677
G1 X119.965 Y43.070 E1.86331
G1 X119.431 Y43.070 E0.01677
G1 X161.930 Y85.569 E1.88702
G1 X161.930 Y86.103 E0.01677
G1 X118.897 Y43.070 E1.91073
G1 X118.363 Y43.070 E0.01677
G1 X161.930 Y86.637 E1.93444
G1 X161.930 Y87.171 E0.01677
G1 X117.829 Y43.070 E1.95815
G1 X117.295 Y43.070 E0.01677
G1 X161.930 Y87.705 E1.98186
G1 X161.930 Y88.239 E0.01677
G1 X116.761 Y43.070 E2.00557
M73 P2 R136
G1 X116.227 Y43.070 E0.01677
G1 X161.930 Y88.773 E2.02929
G1 X161.930 Y89.307 E0.01677
G1 X115.693 Y43.070 E2.05300
G1 X115.159 Y43.070 E0.01677
G1 X161.930 Y89.841 E2.07671
G1 X161.930 Y90.375 E0.01677
G1 X114.625 Y43.070 E2.10042
G1 X114.091 Y43.070 E0.01677
G1 X161.930 Y90.908 E2.12413
G1 X161.930 Y91.442 E0.01677
G1 X113.558 Y43.070 E2.14784
G1 X113.024 Y43.070 E0.01677
G1 X161.930 Y91.976 E2.17155
M73 P3 R136
G1 X161.930 Y92.510 E0.01677
G1 X112.490 Y43.070 E2.19526
G1 X111.956 Y43.070 E0.01677
G1 X161.930 Y93.044 E2.21897
G1 X161.930 Y93.578 E0.01677
G1 X111.422 Y43.070 E2.24268
G1 X110.888 Y43.070 E0.01677
G1 X161.930 Y94.112 E2.26639
G1 X161.930 Y94.646 E0.01677
G1 X110.354 Y43.070 E2.29010
G1 X109.820 Y43.070 E0.01677
G1 X161.930 Y95.180 E2.31381
G1 X161.930 Y95.714 E0.01677
G1 X109.286 Y43.070 E2.33752
G1 X108.752 Y43.070 E0.01677
G1 X161.930 Y96.248 E2.36123
G1 X161.930 Y96.782 E0.01677
G1 X108.218 Y43.070 E2.38494
G1 X107.684 Y43.070 E0.01677
G1 X161.930 Y97.316 E2.40865
M73 P3 R135
G1 X161.930 Y97.850 E0.01677
G1 X107.150 Y43.070 E2.43236
G1 X106.616 Y43.070 E0.01677
G1 X161.930 Y98.384 E2.45607
G1 X161.930 Y98.918 E0.01677
G1 X106.082 Y43.070 E2.47978
G1 X105.548 Y43.070 E0.01677
G1 X161.930 Y99.452 E2.50349
G1 X161.930 Y99.986 E0.01677
G1 X105.014 Y43.070 E2.52720
G1 X104.480 Y43.070 E0.01677
G1 X161.930 Y100.520 E2.55091
G1 X161.930 Y101.054 E0.01677
G1 X103.946 Y43.070 E2.57463
G1 X103.412 Y43.070 E0.01677
G1 X161.930 Y101.588 E2.59834
G1 X161.930 Y102.122 E0.01677
G1 X102.878 Y43.070 E2.62205
G1 X102.344 Y43.070 E0.01677
G1 X161.930 Y102.656 E2.64576
G1 X161.930 Y103.190 E0.01677
G1 X101.810 Y43.070 E2.66947
G1 X101.276 Y43.070 E0.01677
G1 X161.930 Y103.724 E2.69318
M73 P4 R135
G1 X161.930 Y104.258 E0.01677
G1 X100.742 Y43.070 E2.71689
G1 X100.208 Y43.070 E0.01677
G1 X161.930 Y104.792 E2.74060
M73 P4 R134
G1 X161.930 Y105.326 E0.01677
G1 X99.674 Y43.070 E2.76431
G1 X99.140 Y43.070 E0.01677
G1 X161.930 Y105.860 E2.78802
G1 X161.930 Y106.394 E0.01677
G1 X98.606 Y43.070 E2.81173
G1 X98.072 Y43.070 E0.01677
G1 X161.930 Y106.928 E2.83544
G1 X161.930 Y107.462 E0.01677
G1 X97.538 Y43.070 E2.85915
G1 X97.004 Y43.070 E0.01677
G1 X161.930 Y107.996 E2.88286
G1 X161.930 Y108.530 E0.01677
G1 X96.470 Y43.070 E2.90657
G1 X95.936 Y43.070 E0.01677
G1 X161.930 Y109.064 E2.93028
G1 X161.930 Y109.598 E0.01677
G1 X95.402 Y43.070 E2.95399
G1 X94.868 Y43.070 E0.01677
G1 X161.930 Y110.132 E2.97770
G1 X161.930 Y110.666 E0.01677
G1 X94.334 Y43.070 E3.00141
G1 X93.800 Y43.070 E0.01677
G1 X161.930 Y111.200 E3.02512
G1 X161.930 Y111.734 E0.01677
G1 X93.266 Y43.070 E3.04883
M73 P4 R133
G1 X92.732 Y43.070 E0.01677
G1 X161.930 Y112.268 E3.07254
G1 X161.930 Y112.802 E0.01677
G1 X92.198 Y43.070 E3.09625
G1 X91.664 Y43.070 E0.01677
G1 X161.930 Y113.336 E3.11997
M73 P5 R133
G1 X161.930 Y113.870 E0.01677
G1 X91.130 Y43.070 E3.14368
G1 X90.596 Y43.070 E0.01677
G1 X161.930 Y114.404 E3.16739
G1 X161.930 Y114.938 E0.01677
G1 X90.062 Y43.070 E3.19110
G1 X89.528 Y43.070 E0.01677
G1 X161.930 Y115.472 E3.21481
G1 X161.930 Y116.006 E0.01677
G1 X88.994 Y43.070 E3.23852
G1 X88.460 Y43.070 E0.01677
G1 X161.930 Y116.540 E3.26223
G1 X161.930 Y117.074 E0.01677
G1 X87.926 Y43.070 E3.28594
G1 X87.392 Y43.070 E0.01677
G1 X161.930 Y117.608 E3.30965
G1 X161.930 Y118.142 E0.01677
G1 X86.858 Y43.070 E3.33336
M73 P5 R132
G1 X86.324 Y43.070 E0.01677
G1 X161.930 Y118.676 E3.35707
G1 X161.930 Y119.210 E0.01677
G1 X85.790 Y43.070 E3.38078
G1 X85.256 Y43.070 E0.01677
G1 X161.930 Y119.744 E3.40449
G1 X161.930 Y120.278 E0.01677
G1 X84.722 Y43.070 E3.42820
G1 X84.188 Y43.070 E0.01677
G1 X161.930 Y120.812 E3.45191
G1 X161.930 Y121.346 E0.01677
G1 X83.654 Y43.070 E3.47562
G1 X83.120 Y43.070 E0.01677
G1 X161.930 Y121.880 E3.49933
M73 P6 R132
G1 X161.930 Y122.414 E0.01677
G1 X82.586 Y43.070 E3.52304
G1 X82.052 Y43.070 E0.01677
G1 X161.930 Y122.948 E3.54675
G1 X161.930 Y123.482 E0.01677
G1 X81.518 Y43.070 E3.57046
G1 X80.984 Y43.070 E0.01677
G1 X161.930 Y124.016 E3.59417
M73 P6 R131
G1 X161.930 Y124.550 E0.01677
G1 X80.450 Y43.070 E3.61788
G1 X79.916 Y43.070 E0.01677
G1 X161.930 Y125.084 E3.64159
G1 X161.930 Y125.618 E0.01677
G1 X79.382 Y43.070 E3.66531
G1 X78.848 Y43.070 E0.01677
G1 X161.930 Y126.152 E3.68902
G1 X161.930 Y126.686 E0.01677
G1 X78.314 Y43.070 E3.71273
G1 X77.780 Y43.070 E0.01677
G1 X161.930 Y127.220 E3.73644
G1 X161.930 Y127.754 E0.01677
G1 X77.246 Y43.070 E3.76015
G1 X76.712 Y43.070 E0.01677
G1 X161.930 Y128.288 E3.78386
G1 X161.930 Y128.822 E0.01677
G1 X76.178 Y43.070 E3.80757
G1 X75.644 Y43.070 E0.01677
G1 X161.930 Y129.356 E3.83128
M73 P7 R130
G1 X161.930 Y129.890 E0.01677
G1 X75.110 Y43.070 E3.85499
G1 X74.576 Y43.070 E0.01677
G1 X161.930 Y130.424 E3.87870
G1 X161.930 Y130.958 E0.01677
G1 X74.042 Y43.070 E3.90241
G1 X73.508 Y43.070 E0.01677
G1 X161.930 Y131.492 E3.92612
G1 X161.930 Y132.026 E0.01677
G1 X72.974 Y43.070 E3.94983
G1 X72.440 Y43.070 E0.01677
G1 X161.930 Y132.560 E3.97354
G1 X161.930 Y133.094 E0.01677
G1 X71.906 Y43.070 E3.99725
G1 X71.372 Y43.070 E0.01677
G1 X161.930 Y133.628 E4.02096
G1 X161.930 Y134.162 E0.01677
G1 X70.838 Y43.070 E4.04467
M73 P7 R129
G1 X70.304 Y43.070 E0.01677
G1 X161.930 Y134.696 E4.06838
G1 X161.930 Y134.905 E0.00656
G1 X161.605 Y134.905 E0.01020
G1 X69.770 Y43.070 E4.07766
G1 X69.236 Y43.070 E0.01677
G1 X161.071 Y134.905 E4.07766
G1 X160.537 Y134.905 E0.01677
G1 X68.702 Y43.070 E4.07766
M73 P8 R129
G1 X68.168 Y43.070 E0.01677
G1 X160.003 Y134.905 E4.07766
G1 X159.905 Y134.905 E0.00308
G1 X159.905 Y135.341 E0.01369
G1 X67.634 Y43.070 E4.09702
G1 X67.100 Y43.070 E0.01677
G1 X159.905 Y135.875 E4.12073
G1 X159.905 Y136.409 E0.01677
G1 X66.566 Y43.070 E4.14444
G1 X66.032 Y43.070 E0.01677
G1 X159.892 Y136.930 E4.16758
G1 X159.358 Y136.930 E0.01677
G1 X65.498 Y43.070 E4.16758
M73 P8 R128
G1 X64.964 Y43.070 E0.01677
G1 X158.824 Y136.930 E4.16758
G1 X158.290 Y136.930 E0.01677
G1 X64.430 Y43.070 E4.16758
G1 X63.896 Y43.070 E0.01677
G1 X157.756 Y136.930 E4.16758
G1 X157.222 Y136.930 E0.01677
G1 X63.362 Y43.070 E4.16758
G1 X62.828 Y43.070 E0.01677
G1 X156.688 Y136.930 E4.16758
G1 X156.154 Y136.930 E0.01677
G1 X62.294 Y43.070 E4.16758
G1 X61.760 Y43.070 E0.01677
G1 X155.620 Y136.930 E4.16758
M73 P9 R128
G1 X155.086 Y136.930 E0.01677
G1 X61.226 Y43.070 E4.16758
G1 X60.692 Y43.070 E0.01677
G1 X154.552 Y136.930 E4.16758
M73 P9 R127
G1 X154.018 Y136.930 E0.01677
G1 X60.158 Y43.070 E4.16758
G1 X59.624 Y43.070 E0.01677
G1 X153.484 Y136.930 E4.16758
G1 X152.950 Y136.930 E0.01677
G1 X59.090 Y43.070 E4.16758
G1 X58.556 Y43.070 E0.01677
G1 X152.416 Y136.930 E4.16758
G1 X151.882 Y136.930 E0.01677
G1 X58.022 Y43.070 E4.16758
G1 X57.488 Y43.070 E0.01677
G1 X151.348 Y136.930 E4.16758
G1 X150.814 Y136.930 E0.01677
G1 X56.954 Y43.070 E4.16758
G1 X56.420 Y43.070 E0.01677
G1 X150.280 Y136.930 E4.16758
M73 P9 R126
G1 X149.746 Y136.930 E0.01677
G1 X55.886 Y43.070 E4.16758
G1 X55.352 Y43.070 E0.01677
G1 X149.212 Y136.930 E4.16758
M73 P10 R126
G1 X148.678 Y136.930 E0.01677
G1 X54.818 Y43.070 E4.16758
G1 X54.284 Y43.070 E0.01677
G1 X148.144 Y136.930 E4.16758
G1 X147.610 Y136.930 E0.01677
G1 X53.750 Y43.070 E4.16758
G1 X53.216 Y43.070 E0.01677
