; generated by PrusaSlicer 2.3.3+linux-x64 on 2021-10-08 at 11:01:53 UTC


;
;

;
;
; 

; external perimeters extrusion width = 0.45mm
; perimeters extrusion width = 0.45mm
; infill extrusion width = 0.45mm
; solid infill extrusion width = 0.45mm
; top infill extrusion width = 0.40mm
; first layer extrusion width = 0.42mm

M73 P0 R141
M201 X1250 Y1250 Z400 E5000 ; sets maximum accelerations, mm/sec^2
M203 X180 Y180 Z12 E80 ; sets maximum feedrates, mm/sec
M204 P1250 R1250 T1250 ; sets acceleration (P, T) and retract acceleration (R), mm/sec^2
M205 X8.00 Y8.00 Z2.00 E10.00 ; sets the jerk limits, mm/sec
M205 S0 T0 ; sets the minimum extruding and travel feed rate, mm/sec
M107
;TYPE:Custom
G90 ; use absolute coordinates
M83 ; extruder relative mode
M104 S170 ; set extruder temp for bed leveling
M140 S60 ; set bed temp
M109 R170 ; wait for bed leveling temp
M190 S60 ; wait for bed temp
G28 ; home all without mesh bed level
G29 ; mesh bed leveling 
M104 S215 ; set extruder temp
G92 E0.0
G1 Y-2.0 X179 F2400
G1 Z3 F720
M109 S215 ; wait for extruder temp

; intro line
G1 X170 F1000
G1 Z0.2 F720
G1 X110.0 E8.0 F900
G1 X40.0 E10.0 F700
G92 E0.0

M221 S95 ; set flow
G21 ; set units to millimeters
G90 ; use absolute coordinates
M83 ; use relative distances for extrusion
M900 K0.2 ; Filament gcode LA 1.5
; ; Filament gcode LA 1.0
;LAYER_CHANGE
;Z:0.2
;HEIGHT:0.2
;BEFORE_LAYER_CHANGE
G92 E0.0
;0.2


G1 E-3.20000 F4200.000
G1 Z0.200 F9000.000
;AFTER_LAYER_CHANGE
;0.2
G1 Z0.400
G1 X41.060 Y37.822
G1 Z0.200
G1 E3.20000 F2400.000
M204 S800
;TYPE:Skirt
;WIDTH:0.42
G1 F1200.000
G1 X41.992 Y37.623 E0.02989
G1 X137.991 Y37.623 E3.00998
M73 P0 R140
G1 X138.893 Y37.802 E0.02884
G1 X139.657 Y38.308 E0.02872
G1 X140.173 Y39.065 E0.02872
G1 X140.364 Y39.961 E0.02872
G1 X140.365 Y140.015 E3.13714
G1 X140.195 Y140.881 E0.02767
G1 X139.722 Y141.626 E0.02767
G1 X138.936 Y142.179 E0.03013
G1 X137.992 Y142.377 E0.03024
G1 X41.997 Y142.377 E3.00986
G1 X41.131 Y142.208 E0.02767
G1 X40.387 Y141.734 E0.02767
G1 X39.833 Y140.949 E0.03013
G1 X39.635 Y140.005 E0.03024
G1 X39.635 Y39.985 E3.13606
G1 X39.805 Y39.119 E0.02767
G1 X40.278 Y38.374 E0.02767
G1 X41.011 Y37.857 E0.02813
M204 S1250
; printing object front.stl id:0 copy 0
G1 E-2.24000 F4200.000
;WIPE_START
G1 F7200.000
G1 X41.992 Y37.623 E-0.55904
G1 X42.629 Y37.623 E-0.35296
;WIPE_END
G1 E-0.04800 F4200.000
G1 Z0.400 F9000.000
G1 X42.800 Y40.787
G1 Z0.200
G1 E3.20000 F2400.000
M204 S800
;TYPE:Perimeter
G1 F1200.000
G1 X137.200 Y40.787 E2.95987
G1 X137.200 Y41.188 E0.01257
G1 X43.200 Y41.188 E2.94730
G1 X43.200 Y138.812 E3.06094
G1 X137.200 Y138.812 E2.94730
G1 X137.200 Y139.213 E0.01257
G1 X42.800 Y139.213 E2.95987
G1 X42.800 Y40.847 E3.08419
M204 S1250
G1 X43.578 Y41.565 F9000.000
M204 S800
;TYPE:External perimeter
G1 F1200.000
G1 X43.578 Y138.435 E3.03729
G1 X137.577 Y138.435 E2.94730
G1 X137.577 Y139.590 E0.03621
G1 X42.422 Y139.590 E2.98352
G1 X42.422 Y40.410 E3.10972
M73 P1 R139
G1 X137.577 Y40.410 E2.98352
G1 X137.577 Y41.565 E0.03621
G1 X43.638 Y41.565 E2.94542
M204 S1250
G1 X43.178 Y41.567 F9000.000
G1 E-2.24000 F4200.000
;WIPE_START
G1 F7200.000
G1 X43.636 Y43.211 E-0.91200
;WIPE_END
G1 E-0.04800 F4200.000
G1 Z0.400 F9000.000
G1 X46.825 Y44.812
G1 Z0.200
G1 E3.20000 F2400.000
M204 S800
;TYPE:Perimeter
G1 F1200.000
G1 X137.200 Y44.812 E2.83367
G1 X137.200 Y135.188 E2.83367
G1 X46.825 Y135.188 E2.83367
G1 X46.825 Y44.872 E2.83179
M204 S1250
G1 X46.448 Y44.435 F9000.000
M204 S800
;TYPE:External perimeter
G1 F1200.000
G1 X137.577 Y44.435 E2.85732
G1 X137.577 Y135.565 E2.85732
G1 X46.448 Y135.565 E2.85732
G1 X46.448 Y44.495 E2.85544
M204 S1250
G1 X46.834 Y44.539 F9000.000
G1 E-2.24000 F4200.000
;WIPE_START
G1 F7200.000
G1 X48.093 Y44.494 E-0.91200
;WIPE_END
G1 E-0.04800 F4200.000
G1 Z0.400 F9000.000
G1 X137.087 Y45.688
G1 Z0.200
G1 E3.20000 F2400.000
M204 S800
;TYPE:Solid infill
;WIDTH:0.420269
G1 F1200.000
G1 X136.494 Y45.095 E0.02632
G1 X135.960 Y45.095 E0.01674
G1 X136.918 Y46.052 E0.04247
G1 X136.918 Y46.586 E0.01674
G1 X135.427 Y45.095 E0.06615
G1 X134.893 Y45.095 E0.01674
G1 X136.918 Y47.119 E0.08983
G1 X136.918 Y47.653 E0.01674
G1 X134.360 Y45.095 E0.11351
G1 X133.826 Y45.095 E0.01674
G1 X136.918 Y48.187 E0.13719
G1 X136.918 Y48.720 E0.01674
G1 X133.292 Y45.095 E0.16087
G1 X132.759 Y45.095 E0.01674
G1 X136.918 Y49.254 E0.18455
G1 X136.918 Y49.788 E0.01674
G1 X132.225 Y45.095 E0.20823
G1 X131.691 Y45.095 E0.01674
G1 X136.918 Y50.321 E0.23191
G1 X136.918 Y50.855 E0.01674
G1 X131.158 Y45.095 E0.25559
G1 X130.624 Y45.095 E0.01674
G1 X136.918 Y51.389 E0.27927
G1 X136.918 Y51.922 E0.01674
G1 X130.090 Y45.095 E0.30295
G1 X129.557 Y45.095 E0.01674
G1 X136.918 Y52.456 E0.32663
G1 X136.918 Y52.989 E0.01674
G1 X129.023 Y45.095 E0.35031
G1 X128.489 Y45.095 E0.01674
G1 X136.918 Y53.523 E0.37399
G1 X136.918 Y54.057 E0.01674
G1 X127.956 Y45.095 E0.39767
G1 X127.422 Y45.095 E0.01674
G1 X136.918 Y54.590 E0.42135
G1 X136.918 Y55.124 E0.01674
G1 X126.888 Y45.095 E0.44503
G1 X126.355 Y45.095 E0.01674
G1 X136.918 Y55.658 E0.46871
M73 P1 R138
G1 X136.918 Y56.191 E0.01674
G1 X125.821 Y45.095 E0.49239
G1 X125.287 Y45.095 E0.01674
G1 X136.918 Y56.725 E0.51607
G1 X136.918 Y57.259 E0.01674
G1 X124.754 Y45.095 E0.53975
G1 X124.220 Y45.095 E0.01674
G1 X136.918 Y57.792 E0.56343
G1 X136.918 Y58.326 E0.01674
G1 X123.687 Y45.095 E0.58711
G1 X123.153 Y45.095 E0.01674
G1 X136.918 Y58.860 E0.61079
G1 X136.918 Y59.393 E0.01674
G1 X122.619 Y45.095 E0.63447
G1 X122.086 Y45.095 E0.01674
G1 X136.918 Y59.927 E0.65815
G1 X136.918 Y60.461 E0.01674
G1 X121.552 Y45.095 E0.68183
G1 X121.018 Y45.095 E0.01674
G1 X136.918 Y60.994 E0.70551
G1 X136.918 Y61.528 E0.01674
G1 X120.485 Y45.095 E0.72919
G1 X119.951 Y45.095 E0.01674
G1 X136.918 Y62.062 E0.75287
G1 X136.918 Y62.595 E0.01674
G1 X119.417 Y45.095 E0.77655
G1 X118.884 Y45.095 E0.01674
G1 X136.918 Y63.129 E0.80023
G1 X136.918 Y63.663 E0.01674
G1 X118.350 Y45.095 E0.82391
G1 X117.816 Y45.095 E0.01674
G1 X136.918 Y64.196 E0.84759
G1 X136.918 Y64.730 E0.01674
G1 X117.283 Y45.095 E0.87127
G1 X116.749 Y45.095 E0.01674
G1 X136.918 Y65.263 E0.89495
G1 X136.918 Y65.797 E0.01674
G1 X116.215 Y45.095 E0.91863
G1 X115.682 Y45.095 E0.01674
G1 X136.918 Y66.331 E0.94231
G1 X136.918 Y66.864 E0.01674
G1 X115.148 Y45.095 E0.96599
G1 X114.614 Y45.095 E0.01674
G1 X136.918 Y67.398 E0.98967
G1 X136.918 Y67.932 E0.01674
G1 X114.081 Y45.095 E1.01335
M73 P2 R138
G1 X113.547 Y45.095 E0.01674
G1 X136.918 Y68.465 E1.03703
G1 X136.918 Y68.999 E0.01674
G1 X113.013 Y45.095 E1.06071
G1 X112.480 Y45.095 E0.01674
G1 X136.918 Y69.533 E1.08439
G1 X136.918 Y70.066 E0.01674
G1 X111.946 Y45.095 E1.10807
G1 X111.413 Y45.095 E0.01674
G1 X136.918 Y70.600 E1.13175
G1 X136.918 Y71.134 E0.01674
G1 X110.879 Y45.095 E1.15543
G1 X110.345 Y45.095 E0.01674
G1 X136.918 Y71.667 E1.17911
G1 X136.918 Y72.201 E0.01674
G1 X109.812 Y45.095 E1.20279
G1 X109.278 Y45.095 E0.01674
G1 X136.918 Y72.735 E1.22647
G1 X136.918 Y73.268 E0.01674
G1 X108.744 Y45.095 E1.25015
G1 X108.211 Y45.095 E0.01674
G1 X136.918 Y73.802 E1.27383
G1 X136.918 Y74.336 E0.01674
G1 X107.677 Y45.095 E1.29751
G1 X107.143 Y45.095 E0.01674
G1 X136.918 Y74.869 E1.32119
G1 X136.918 Y75.403 E0.01674
G1 X106.610 Y45.095 E1.34487
G1 X106.076 Y45.095 E0.01674
G1 X136.918 Y75.937 E1.36855
G1 X136.918 Y76.470 E0.01674
G1 X105.542 Y45.095 E1.39223
M73 P2 R137
G1 X105.009 Y45.095 E0.01674
G1 X136.918 Y77.004 E1.41591
G1 X136.918 Y77.537 E0.01674
G1 X104.475 Y45.095 E1.43959
G1 X103.941 Y45.095 E0.01674
G1 X136.918 Y78.071 E1.46327
G1 X136.918 Y78.605 E0.01674
G1 X103.408 Y45.095 E1.48695
G1 X102.874 Y45.095 E0.01674
G1 X136.918 Y79.138 E1.51063
G1 X136.918 Y79.672 E0.01674
G1 X102.340 Y45.095 E1.53431
G1 X101.807 Y45.095 E0.01674
G1 X136.918 Y80.206 E1.55799
G1 X136.918 Y80.739 E0.01674
G1 X101.273 Y45.095 E1.58167
G1 X100.739 Y45.095 E0.01674
G1 X136.918 Y81.273 E1.60535
G1 X136.918 Y81.807 E0.01674
G1 X100.206 Y45.095 E1.62903
G1 X99.672 Y45.095 E0.01674
G1 X136.918 Y82.340 E1.65271
G1 X136.918 Y82.874 E0.01674
G1 X99.139 Y45.095 E1.67639
G1 X98.605 Y45.095 E0.01674
G1 X136.918 Y83.408 E1.70007
G1 X136.918 Y83.941 E0.01674
G1 X98.071 Y45.095 E1.72375
G1 X97.538 Y45.095 E0.01674
G1 X136.918 Y84.475 E1.74743
G1 X136.918 Y85.009 E0.01674
G1 X97.004 Y45.095 E1.77111
G1 X96.470 Y45.095 E0.01674
G1 X136.918 Y85.542 E1.79479
G1 X136.918 Y86.076 E0.01674
G1 X95.937 Y45.095 E1.81847
G1 X95.403 Y45.095 E0.01674
G1 X136.918 Y86.610 E1.84215
G1 X136.918 Y87.143 E0.01674
G1 X94.869 Y45.095 E1.86583
M73 P3 R137
G1 X94.336 Y45.095 E0.01674
G1 X136.918 Y87.677 E1.88951
G1 X136.918 Y88.211 E0.01674
G1 X93.802 Y45.095 E1.91319
G1 X93.268 Y45.095 E0.01674
G1 X136.918 Y88.744 E1.93687
M73 P3 R136
G1 X136.918 Y89.278 E0.01674
G1 X92.735 Y45.095 E1.96055
G1 X92.201 Y45.095 E0.01674
G1 X136.918 Y89.811 E1.98422
G1 X136.918 Y90.345 E0.01674
G1 X91.667 Y45.095 E2.00790
G1 X91.134 Y45.095 E0.01674
G1 X136.918 Y90.879 E2.03158
G1 X136.918 Y91.412 E0.01674
G1 X90.600 Y45.095 E2.05526
G1 X90.066 Y45.095 E0.01674
G1 X136.918 Y91.946 E2.07894
G1 X136.918 Y92.480 E0.01674
G1 X89.533 Y45.095 E2.10262
G1 X88.999 Y45.095 E0.01674
G1 X136.918 Y93.013 E2.12630
G1 X136.918 Y93.547 E0.01674
G1 X88.465 Y45.095 E2.14998
G1 X87.932 Y45.095 E0.01674
G1 X136.918 Y94.081 E2.17366
G1 X136.918 Y94.614 E0.01674
G1 X87.398 Y45.095 E2.19734
G1 X86.865 Y45.095 E0.01674
G1 X136.918 Y95.148 E2.22102
G1 X136.918 Y95.682 E0.01674
G1 X86.331 Y45.095 E2.24470
G1 X85.797 Y45.095 E0.01674
G1 X136.918 Y96.215 E2.26838
G1 X136.918 Y96.749 E0.01674
G1 X85.264 Y45.095 E2.29206
G1 X84.730 Y45.095 E0.01674
G1 X136.918 Y97.283 E2.31574
G1 X136.918 Y97.816 E0.01674
G1 X84.196 Y45.095 E2.33942
M73 P3 R135
G1 X83.663 Y45.095 E0.01674
G1 X136.918 Y98.350 E2.36310
G1 X136.918 Y98.884 E0.01674
G1 X83.129 Y45.095 E2.38678
G1 X82.595 Y45.095 E0.01674
G1 X136.918 Y99.417 E2.41046
G1 X136.918 Y99.951 E0.01674
G1 X82.062 Y45.095 E2.43414
G1 X81.528 Y45.095 E0.01674
G1 X136.918 Y100.485 E2.45782
M73 P4 R135
G1 X136.918 Y101.018 E0.01674
G1 X80.994 Y45.095 E2.48150
G1 X80.461 Y45.095 E0.01674
G1 X136.918 Y101.552 E2.50518
G1 X136.918 Y102.085 E0.01674
G1 X79.927 Y45.095 E2.52886
G1 X79.393 Y45.095 E0.01674
G1 X136.918 Y102.619 E2.55254
G1 X136.918 Y103.153 E0.01674
G1 X78.860 Y45.095 E2.57622
G1 X78.326 Y45.095 E0.01674
G1 X136.918 Y103.686 E2.59990
G1 X136.918 Y104.220 E0.01674
G1 X77.792 Y45.095 E2.62358
G1 X77.259 Y45.095 E0.01674
G1 X136.918 Y104.754 E2.64726
G1 X136.918 Y105.287 E0.01674
G1 X76.725 Y45.095 E2.67094
G1 X76.191 Y45.095 E0.01674
G1 X136.918 Y105.821 E2.69462
M73 P4 R134
G1 X136.918 Y106.355 E0.01674
G1 X75.658 Y45.095 E2.71830
G1 X75.124 Y45.095 E0.01674
G1 X136.918 Y106.888 E2.74198
G1 X136.918 Y107.422 E0.01674
G1 X74.591 Y45.095 E2.76566
G1 X74.057 Y45.095 E0.01674
G1 X136.918 Y107.956 E2.78934
G1 X136.918 Y108.489 E0.01674
G1 X73.523 Y45.095 E2.81302
G1 X72.990 Y45.095 E0.01674
G1 X136.918 Y109.023 E2.83670
G1 X136.918 Y109.557 E0.01674
G1 X72.456 Y45.095 E2.86038
G1 X71.922 Y45.095 E0.01674
G1 X136.918 Y110.090 E2.88406
G1 X136.918 Y110.624 E0.01674
G1 X71.389 Y45.095 E2.90774
M73 P5 R134
G1 X70.855 Y45.095 E0.01674
G1 X136.918 Y111.158 E2.93142
G1 X136.918 Y111.691 E0.01674
G1 X70.321 Y45.095 E2.95510
G1 X69.788 Y45.095 E0.01674
G1 X136.918 Y112.225 E2.97878
G1 X136.918 Y112.759 E0.01674
G1 X69.254 Y45.095 E3.00246
M73 P5 R133
G1 X68.720 Y45.095 E0.01674
G1 X136.918 Y113.292 E3.02614
G1 X136.918 Y113.826 E0.01674
G1 X68.187 Y45.095 E3.04982
G1 X67.653 Y45.095 E0.01674
G1 X136.918 Y114.359 E3.07350
G1 X136.918 Y114.893 E0.01674
G1 X67.119 Y45.095 E3.09718
G1 X66.586 Y45.095 E0.01674
G1 X136.918 Y115.427 E3.12086
G1 X136.918 Y115.960 E0.01674
G1 X66.052 Y45.095 E3.14454
G1 X65.518 Y45.095 E0.01674
G1 X136.918 Y116.494 E3.16822
G1 X136.918 Y117.028 E0.01674
G1 X64.985 Y45.095 E3.19190
G1 X64.451 Y45.095 E0.01674
G1 X136.918 Y117.561 E3.21558
G1 X136.918 Y118.095 E0.01674
G1 X63.917 Y45.095 E3.23926
G1 X63.384 Y45.095 E0.01674
G1 X136.918 Y118.629 E3.26294
G1 X136.918 Y119.162 E0.01674
G1 X62.850 Y45.095 E3.28662
M73 P5 R132
G1 X62.317 Y45.095 E0.01674
G1 X136.918 Y119.696 E3.31030
M73 P6 R132
G1 X136.918 Y120.230 E0.01674
G1 X61.783 Y45.095 E3.33398
G1 X61.249 Y45.095 E0.01674
G1 X136.918 Y120.763 E3.35766
G1 X136.918 Y121.297 E0.01674
G1 X60.716 Y45.095 E3.38134
G1 X60.182 Y45.095 E0.01674
G1 X136.918 Y121.831 E3.40502
G1 X136.918 Y122.364 E0.01674
G1 X59.648 Y45.095 E3.42870
G1 X59.115 Y45.095 E0.01674
G1 X136.918 Y122.898 E3.45238
G1 X136.918 Y123.432 E0.01674
G1 X58.581 Y45.095 E3.47606
G1 X58.047 Y45.095 E0.01674
G1 X136.918 Y123.965 E3.49974
G1 X136.918 Y124.499 E0.01674
G1 X57.514 Y45.095 E3.52342
G1 X56.980 Y45.095 E0.01674
G1 X136.918 Y125.033 E3.54710
M73 P6 R131
G1 X136.918 Y125.566 E0.01674
G1 X56.446 Y45.095 E3.57078
G1 X55.913 Y45.095 E0.01674
G1 X136.918 Y126.100 E3.59446
G1 X136.918 Y126.633 E0.01674
G1 X55.379 Y45.095 E3.61814
G1 X54.845 Y45.095 E0.01674
G1 X136.918 Y127.167 E3.64182
G1 X136.918 Y127.701 E0.01674
G1 X54.312 Y45.095 E3.66550
M73 P7 R131
G1 X53.778 Y45.095 E0.01674
G1 X136.918 Y128.234 E3.68918
G1 X136.918 Y128.768 E0.01674
G1 X53.244 Y45.095 E3.71286
G1 X52.711 Y45.095 E0.01674
G1 X136.918 Y129.302 E3.73654
G1 X136.918 Y129.835 E0.01674
G1 X52.177 Y45.095 E3.76022
G1 X51.643 Y45.095 E0.01674
G1 X136.918 Y130.369 E3.78390
M73 P7 R130
G1 X136.918 Y130.903 E0.01674
G1 X51.110 Y45.095 E3.80758
G1 X50.576 Y45.095 E0.01674
G1 X136.918 Y131.436 E3.83126
G1 X136.918 Y131.970 E0.01674
G1 X50.043 Y45.095 E3.85494
G1 X49.509 Y45.095 E0.01674
G1 X136.918 Y132.504 E3.87862
G1 X136.918 Y133.037 E0.01674
G1 X48.975 Y45.095 E3.90230
G1 X48.442 Y45.095 E0.01674
G1 X136.918 Y133.571 E3.92598
G1 X136.918 Y134.105 E0.01674
G1 X47.908 Y45.095 E3.94966
G1 X47.374 Y45.095 E0.01674
G1 X136.918 Y134.638 E3.97334
G1 X136.918 Y134.905 E0.00837
G1 X136.651 Y134.905 E0.00837
G1 X47.107 Y45.362 E3.97334
M73 P8 R130
G1 X47.107 Y45.895 E0.01674
G1 X136.117 Y134.905 E3.94966
M73 P8 R129
G1 X135.584 Y134.905 E0.01674
G1 X47.107 Y46.429 E3.92598
G1 X47.107 Y46.963 E0.01674
G1 X135.050 Y134.905 E3.90230
G1 X134.516 Y134.905 E0.01674
G1 X47.107 Y47.496 E3.87862
G1 X47.107 Y48.030 E0.01674
G1 X133.983 Y134.905 E3.85494
G1 X133.449 Y134.905 E0.01674
G1 X47.107 Y48.564 E3.83126
G1 X47.107 Y49.097 E0.01674
G1 X132.915 Y134.905 E3.80758
G1 X132.382 Y134.905 E0.01674
G1 X47.107 Y49.631 E3.78390
G1 X47.107 Y50.165 E0.01674
G1 X131.848 Y134.905 E3.76022
G1 X131.314 Y134.905 E0.01674
G1 X47.107 Y50.698 E3.73654
M73 P8 R128
G1 X47.107 Y51.232 E0.01674
G1 X130.781 Y134.905 E3.71286
G1 X130.247 Y134.905 E0.01674
G1 X47.107 Y51.765 E3.68918
G1 X47.107 Y52.299 E0.01674
G1 X129.713 Y134.905 E3.66550
G1 X129.180 Y134.905 E0.01674
G1 X47.107 Y52.833 E3.64182
M73 P9 R128
G1 X47.107 Y53.366 E0.01674
G1 X128.646 Y134.905 E3.61814
G1 X128.112 Y134.905 E0.01674
G1 X47.107 Y53.900 E3.59446
G1 X47.107 Y54.434 E0.01674
G1 X127.579 Y134.905 E3.57078
G1 X127.045 Y134.905 E0.01674
G1 X47.107 Y54.967 E3.54710
G1 X47.107 Y55.501 E0.01674
G1 X126.511 Y134.905 E3.52342
G1 X125.978 Y134.905 E0.01674
G1 X47.107 Y56.035 E3.49975
G1 X47.107 Y56.568 E0.01674
G1 X125.444 Y134.905 E3.47607
M73 P9 R127
G1 X124.911 Y134.905 E0.01674
G1 X47.107 Y57.102 E3.45239
G1 X47.107 Y57.636 E0.01674
G1 X124.377 Y134.905 E3.42871
G1 X123.843 Y134.905 E0.01674
G1 X47.107 Y58.169 E3.40503
G1 X47.107 Y58.703 E0.01674
G1 X123.310 Y134.905 E3.38135
G1 X122.776 Y134.905 E0.01674
G1 X47.107 Y59.237 E3.35767
G1 X47.107 Y59.770 E0.01674
G1 X122.242 Y134.905 E3.33399
G1 X121.709 Y134.905 E0.01674
G1 X47.107 Y60.304 E3.31031
G1 X47.107 Y60.838 E0.01674
G1 X121.175 Y134.905 E3.28663
M73 P10 R127
G1 X120.641 Y134.905 E0.01674
G1 X47.107 Y61.371 E3.26295
G1 X47.107 Y61.905 E0.01674
G1 X120.108 Y134.905 E3.23927
G1 X119.574 Y134.905 E0.01674
G1 X47.107 Y62.439 E3.21559
M73 P10 R126
G1 X47.107 Y62.972 E0.01674
G1 X119.040 Y134.905 E3.19191
G1 X118.507 Y134.905 E0.01674
G1 X47.107 Y63.506 E3.16823
G1 X47.107 Y64.039 E0.01674
G1 X117.973 Y134.905 E3.14455
G1 X117.439 Y134.905 E0.01674
