; generated by PrusaSlicer 2.3.3+linux-x64 on 2021-10-08 at 11:02:10 UTC


;
;

;
;
; 

; external perimeters extrusion width = 0.45mm
; perimeters extrusion width = 0.45mm
; infill extrusion width = 0.45mm
; solid infill extrusion width = 0.45mm
; top infill extrusion width = 0.40mm
; first layer extrusion width = 0.42mm

M73 P0 R146
M201 X1250 Y1250 Z400 E5000 ; sets maximum accelerations, mm/sec^2
M203 X180 Y180 Z12 E80 ; sets maximum feedrates, mm/sec
M204 P1250 R1250 T1250 ; sets acceleration (P, T) and retract acceleration (R), mm/sec^2
M205 X8.00 Y8.00 Z2.00 E10.00 ; sets the jerk limits, mm/sec
M205 S0 T0 ; sets the minimum extruding and travel feed rate, mm/sec
M107
;TYPE:Custom
G90 ; use absolute coordinates
M83 ; extruder relative mode
M104 S170 ; set extruder temp for bed leveling
M140 S60 ; set bed temp
M109 R170 ; wait for bed leveling temp
M190 S60 ; wait for bed temp
G28 ; home all without mesh bed level
G29 ; mesh bed leveling 
M104 S215 ; set extruder temp
G92 E0.0
G1 Y-2.0 X179 F2400
M73 P0 R145
G1 Z3 F720
M109 S215 ; wait for extruder temp

; intro line
G1 X170 F1000
G1 Z0.2 F720
G1 X110.0 E8.0 F900
G1 X40.0 E10.0 F700
G92 E0.0

M221 S95 ; set flow
G21 ; set units to millimeters
G90 ; use absolute coordinates
M83 ; use relative distances for extrusion
M900 K0.2 ; Filament gcode LA 1.5
; ; Filament gcode LA 1.0
;LAYER_CHANGE
;Z:0.2
;HEIGHT:0.2
;BEFORE_LAYER_CHANGE
G92 E0.0
;0.2


G1 E-3.20000 F4200.000
G1 Z0.200 F9000.000
;AFTER_LAYER_CHANGE
;0.2
G1 Z0.400
G1 X38.300 Y38.338
G1 Z0.200
G1 E3.20000 F2400.000
M204 S800
;TYPE:Skirt
;WIDTH:0.42
G1 F1200.000
G1 X39.072 Y37.812 E0.02931
G1 X39.984 Y37.623 E0.02919
G1 X140.004 Y37.623 E3.13606
G1 X140.906 Y37.802 E0.02884
G1 X141.670 Y38.308 E0.02872
G1 X142.185 Y39.065 E0.02872
G1 X142.377 Y39.961 E0.02872
G1 X142.377 Y140.015 E3.13714
G1 X142.198 Y140.906 E0.02849
G1 X141.700 Y141.662 E0.02837
G1 X140.921 Y142.191 E0.02954
G1 X140.000 Y142.377 E0.02946
G1 X39.985 Y142.377 E3.13591
G1 X39.094 Y142.198 E0.02849
G1 X38.338 Y141.700 E0.02837
G1 X37.809 Y140.921 E0.02954
G1 X37.623 Y140.000 E0.02946
G1 X37.623 Y39.985 E3.13591
G1 X37.802 Y39.094 E0.02849
G1 X38.267 Y38.389 E0.02649
M204 S1250
; printing object rear.stl id:0 copy 0
G1 E-2.24000 F4200.000
;WIPE_START
G1 F7200.000
G1 X39.072 Y37.812 E-0.54888
G1 X39.714 Y37.679 E-0.36312
;WIPE_END
G1 E-0.04800 F4200.000
G1 Z0.400 F9000.000
G1 X41.188 Y41.188
G1 Z0.200
G1 E3.20000 F2400.000
M204 S800
;TYPE:Perimeter
G1 F1200.000
G1 X138.812 Y41.188 E3.06094
G1 X138.812 Y138.812 E3.06094
G1 X41.188 Y138.812 E3.06094
G1 X41.188 Y41.248 E3.05906
M204 S1250
G1 X41.565 Y41.565 F9000.000
M204 S800
;TYPE:External perimeter
G1 F1200.000
G1 X138.435 Y41.565 E3.03729
G1 X138.435 Y138.435 E3.03729
M73 P0 R144
G1 X41.565 Y138.435 E3.03729
G1 X41.565 Y41.625 E3.03541
M204 S1250
G1 X41.461 Y41.179 F9000.000
G1 X40.787 Y40.787
M204 S800
;TYPE:Perimeter
G1 F1200.000
G1 X139.213 Y40.787 E3.08607
G1 X139.213 Y139.213 E3.08607
G1 X40.787 Y139.213 E3.08607
M73 P1 R144
G1 X40.787 Y40.847 E3.08419
M204 S1250
G1 X40.410 Y40.410 F9000.000
M204 S800
;TYPE:External perimeter
G1 F1200.000
G1 X139.590 Y40.410 E3.10972
G1 X139.590 Y139.590 E3.10972
G1 X40.410 Y139.590 E3.10972
G1 X40.410 Y40.470 E3.10784
M204 S1250
G1 X40.796 Y40.514 F9000.000
G1 E-2.24000 F4200.000
;WIPE_START
G1 F7200.000
G1 X42.056 Y40.469 E-0.91200
;WIPE_END
G1 E-0.04800 F4200.000
G1 Z0.400 F9000.000
G1 X44.812 Y44.812
G1 Z0.200
G1 E3.20000 F2400.000
M204 S800
;TYPE:Perimeter
G1 F1200.000
G1 X135.188 Y44.812 E2.83367
G1 X135.188 Y135.188 E2.83367
M73 P1 R143
G1 X44.812 Y135.188 E2.83367
G1 X44.812 Y44.872 E2.83179
M204 S1250
G1 X44.435 Y44.435 F9000.000
M204 S800
;TYPE:External perimeter
G1 F1200.000
G1 X135.565 Y44.435 E2.85732
G1 X135.565 Y135.565 E2.85732
G1 X44.435 Y135.565 E2.85732
G1 X44.435 Y44.495 E2.85544
M204 S1250
G1 X44.821 Y44.539 F9000.000
G1 E-2.24000 F4200.000
;WIPE_START
G1 F7200.000
G1 X46.081 Y44.494 E-0.91200
;WIPE_END
G1 E-0.04800 F4200.000
G1 Z0.400 F9000.000
G1 X135.075 Y45.688
G1 Z0.200
G1 E3.20000 F2400.000
M204 S800
;TYPE:Solid infill
;WIDTH:0.420269
G1 F1200.000
G1 X134.482 Y45.095 E0.02632
G1 X133.948 Y45.095 E0.01674
G1 X134.905 Y46.052 E0.04247
G1 X134.905 Y46.586 E0.01674
G1 X133.414 Y45.095 E0.06615
G1 X132.881 Y45.095 E0.01674
G1 X134.905 Y47.119 E0.08983
G1 X134.905 Y47.653 E0.01674
G1 X132.347 Y45.095 E0.11351
G1 X131.813 Y45.095 E0.01674
G1 X134.905 Y48.187 E0.13719
G1 X134.905 Y48.720 E0.01674
G1 X131.280 Y45.095 E0.16087
G1 X130.746 Y45.095 E0.01674
G1 X134.905 Y49.254 E0.18455
G1 X134.905 Y49.788 E0.01674
G1 X130.212 Y45.095 E0.20823
G1 X129.679 Y45.095 E0.01674
G1 X134.905 Y50.321 E0.23191
G1 X134.905 Y50.855 E0.01674
G1 X129.145 Y45.095 E0.25559
G1 X128.611 Y45.095 E0.01674
G1 X134.905 Y51.389 E0.27927
G1 X134.905 Y51.922 E0.01674
G1 X128.078 Y45.095 E0.30295
G1 X127.544 Y45.095 E0.01674
G1 X134.905 Y52.456 E0.32663
G1 X134.905 Y52.989 E0.01674
G1 X127.011 Y45.095 E0.35031
G1 X126.477 Y45.095 E0.01674
G1 X134.905 Y53.523 E0.37399
G1 X134.905 Y54.057 E0.01674
G1 X125.943 Y45.095 E0.39767
G1 X125.410 Y45.095 E0.01674
G1 X134.905 Y54.590 E0.42135
G1 X134.905 Y55.124 E0.01674
G1 X124.876 Y45.095 E0.44503
G1 X124.342 Y45.095 E0.01674
G1 X134.905 Y55.658 E0.46871
G1 X134.905 Y56.191 E0.01674
G1 X123.809 Y45.095 E0.49239
G1 X123.275 Y45.095 E0.01674
G1 X134.905 Y56.725 E0.51607
G1 X134.905 Y57.259 E0.01674
G1 X122.741 Y45.095 E0.53975
G1 X122.208 Y45.095 E0.01674
G1 X134.905 Y57.792 E0.56343
G1 X134.905 Y58.326 E0.01674
G1 X121.674 Y45.095 E0.58711
G1 X121.140 Y45.095 E0.01674
G1 X134.905 Y58.860 E0.61079
G1 X134.905 Y59.393 E0.01674
G1 X120.607 Y45.095 E0.63447
G1 X120.073 Y45.095 E0.01674
G1 X134.905 Y59.927 E0.65815
G1 X134.905 Y60.461 E0.01674
G1 X119.539 Y45.095 E0.68183
G1 X119.006 Y45.095 E0.01674
G1 X134.905 Y60.994 E0.70551
G1 X134.905 Y61.528 E0.01674
G1 X118.472 Y45.095 E0.72919
G1 X117.938 Y45.095 E0.01674
G1 X134.905 Y62.062 E0.75287
M73 P2 R143
G1 X134.905 Y62.595 E0.01674
G1 X117.405 Y45.095 E0.77655
G1 X116.871 Y45.095 E0.01674
G1 X134.905 Y63.129 E0.80023
G1 X134.905 Y63.663 E0.01674
G1 X116.337 Y45.095 E0.82391
G1 X115.804 Y45.095 E0.01674
G1 X134.905 Y64.196 E0.84759
G1 X134.905 Y64.730 E0.01674
G1 X115.270 Y45.095 E0.87127
G1 X114.737 Y45.095 E0.01674
G1 X134.905 Y65.263 E0.89495
M73 P2 R142
G1 X134.905 Y65.797 E0.01674
G1 X114.203 Y45.095 E0.91863
G1 X113.669 Y45.095 E0.01674
G1 X134.905 Y66.331 E0.94231
G1 X134.905 Y66.864 E0.01674
G1 X113.136 Y45.095 E0.96599
G1 X112.602 Y45.095 E0.01674
G1 X134.905 Y67.398 E0.98967
G1 X134.905 Y67.932 E0.01674
G1 X112.068 Y45.095 E1.01335
G1 X111.535 Y45.095 E0.01674
G1 X134.905 Y68.465 E1.03703
G1 X134.905 Y68.999 E0.01674
G1 X111.001 Y45.095 E1.06071
G1 X110.467 Y45.095 E0.01674
G1 X134.905 Y69.533 E1.08439
G1 X134.905 Y70.066 E0.01674
G1 X109.934 Y45.095 E1.10807
G1 X109.400 Y45.095 E0.01674
G1 X134.905 Y70.600 E1.13175
G1 X134.905 Y71.134 E0.01674
G1 X108.866 Y45.095 E1.15543
G1 X108.333 Y45.095 E0.01674
G1 X134.905 Y71.667 E1.17911
G1 X134.905 Y72.201 E0.01674
G1 X107.799 Y45.095 E1.20279
G1 X107.265 Y45.095 E0.01674
G1 X134.905 Y72.735 E1.22647
G1 X134.905 Y73.268 E0.01674
G1 X106.732 Y45.095 E1.25015
G1 X106.198 Y45.095 E0.01674
G1 X134.905 Y73.802 E1.27383
G1 X134.905 Y74.336 E0.01674
G1 X105.664 Y45.095 E1.29751
G1 X105.131 Y45.095 E0.01674
G1 X134.905 Y74.869 E1.32119
G1 X134.905 Y75.403 E0.01674
G1 X104.597 Y45.095 E1.34487
G1 X104.063 Y45.095 E0.01674
G1 X134.905 Y75.937 E1.36855
G1 X134.905 Y76.470 E0.01674
G1 X103.530 Y45.095 E1.39223
G1 X102.996 Y45.095 E0.01674
G1 X134.905 Y77.004 E1.41591
G1 X134.905 Y77.537 E0.01674
G1 X102.463 Y45.095 E1.43959
G1 X101.929 Y45.095 E0.01674
G1 X134.905 Y78.071 E1.46327
G1 X134.905 Y78.605 E0.01674
G1 X101.395 Y45.095 E1.48695
G1 X100.862 Y45.095 E0.01674
G1 X134.905 Y79.138 E1.51063
G1 X134.905 Y79.672 E0.01674
G1 X100.328 Y45.095 E1.53431
G1 X99.794 Y45.095 E0.01674
G1 X134.905 Y80.206 E1.55799
G1 X134.905 Y80.739 E0.01674
G1 X99.261 Y45.095 E1.58167
G1 X98.727 Y45.095 E0.01674
M73 P2 R141
G1 X134.905 Y81.273 E1.60535
G1 X134.905 Y81.807 E0.01674
G1 X98.193 Y45.095 E1.62903
G1 X97.660 Y45.095 E0.01674
G1 X134.905 Y82.340 E1.65271
G1 X134.905 Y82.874 E0.01674
G1 X97.126 Y45.095 E1.67639
G1 X96.592 Y45.095 E0.01674
G1 X134.905 Y83.408 E1.70007
G1 X134.905 Y83.941 E0.01674
G1 X96.059 Y45.095 E1.72375
G1 X95.525 Y45.095 E0.01674
G1 X134.905 Y84.475 E1.74743
G1 X134.905 Y85.009 E0.01674
G1 X94.991 Y45.095 E1.77111
M73 P3 R141
G1 X94.458 Y45.095 E0.01674
G1 X134.905 Y85.542 E1.79479
G1 X134.905 Y86.076 E0.01674
G1 X93.924 Y45.095 E1.81847
G1 X93.390 Y45.095 E0.01674
G1 X134.905 Y86.610 E1.84215
G1 X134.905 Y87.143 E0.01674
G1 X92.857 Y45.095 E1.86583
G1 X92.323 Y45.095 E0.01674
G1 X134.905 Y87.677 E1.88951
G1 X134.905 Y88.211 E0.01674
G1 X91.789 Y45.095 E1.91319
G1 X91.256 Y45.095 E0.01674
G1 X134.905 Y88.744 E1.93687
G1 X134.905 Y89.278 E0.01674
G1 X90.722 Y45.095 E1.96055
G1 X90.189 Y45.095 E0.01674
G1 X134.905 Y89.811 E1.98423
G1 X134.905 Y90.345 E0.01674
G1 X89.655 Y45.095 E2.00790
G1 X89.121 Y45.095 E0.01674
G1 X134.905 Y90.879 E2.03158
G1 X134.905 Y91.412 E0.01674
G1 X88.588 Y45.095 E2.05526
G1 X88.054 Y45.095 E0.01674
G1 X134.905 Y91.946 E2.07894
M73 P3 R140
G1 X134.905 Y92.480 E0.01674
G1 X87.520 Y45.095 E2.10262
G1 X86.987 Y45.095 E0.01674
G1 X134.905 Y93.013 E2.12630
G1 X134.905 Y93.547 E0.01674
G1 X86.453 Y45.095 E2.14998
G1 X85.919 Y45.095 E0.01674
G1 X134.905 Y94.081 E2.17366
G1 X134.905 Y94.614 E0.01674
G1 X85.386 Y45.095 E2.19734
G1 X84.852 Y45.095 E0.01674
G1 X134.905 Y95.148 E2.22102
G1 X134.905 Y95.682 E0.01674
G1 X84.318 Y45.095 E2.24470
G1 X83.785 Y45.095 E0.01674
G1 X134.905 Y96.215 E2.26838
G1 X134.905 Y96.749 E0.01674
G1 X83.251 Y45.095 E2.29206
G1 X82.717 Y45.095 E0.01674
G1 X134.905 Y97.283 E2.31574
G1 X134.905 Y97.816 E0.01674
G1 X82.184 Y45.095 E2.33942
G1 X81.650 Y45.095 E0.01674
G1 X134.905 Y98.350 E2.36310
G1 X134.905 Y98.884 E0.01674
G1 X81.116 Y45.095 E2.38678
M73 P4 R140
G1 X80.583 Y45.095 E0.01674
G1 X134.905 Y99.417 E2.41046
G1 X134.905 Y99.951 E0.01674
G1 X80.049 Y45.095 E2.43414
G1 X79.515 Y45.095 E0.01674
G1 X134.905 Y100.485 E2.45782
M73 P4 R139
G1 X134.905 Y101.018 E0.01674
G1 X78.982 Y45.095 E2.48150
G1 X78.448 Y45.095 E0.01674
G1 X134.905 Y101.552 E2.50518
G1 X134.905 Y102.085 E0.01674
G1 X77.915 Y45.095 E2.52886
G1 X77.381 Y45.095 E0.01674
G1 X134.905 Y102.619 E2.55254
G1 X134.905 Y103.153 E0.01674
G1 X76.847 Y45.095 E2.57622
G1 X76.314 Y45.095 E0.01674
G1 X134.905 Y103.686 E2.59990
G1 X134.905 Y104.220 E0.01674
G1 X75.780 Y45.095 E2.62358
G1 X75.246 Y45.095 E0.01674
G1 X134.905 Y104.754 E2.64726
G1 X134.905 Y105.287 E0.01674
G1 X74.713 Y45.095 E2.67094
G1 X74.179 Y45.095 E0.01674
G1 X134.905 Y105.821 E2.69462
G1 X134.905 Y106.355 E0.01674
G1 X73.645 Y45.095 E2.71830
G1 X73.112 Y45.095 E0.01674
G1 X134.905 Y106.888 E2.74198
G1 X134.905 Y107.422 E0.01674
G1 X72.578 Y45.095 E2.76566
G1 X72.044 Y45.095 E0.01674
G1 X134.905 Y107.956 E2.78934
M73 P4 R138
G1 X134.905 Y108.489 E0.01674
G1 X71.511 Y45.095 E2.81302
G1 X70.977 Y45.095 E0.01674
G1 X134.905 Y109.023 E2.83670
G1 X134.905 Y109.557 E0.01674
G1 X70.443 Y45.095 E2.86038
G1 X69.910 Y45.095 E0.01674
G1 X134.905 Y110.090 E2.88406
M73 P5 R138
G1 X134.905 Y110.624 E0.01674
G1 X69.376 Y45.095 E2.90774
G1 X68.842 Y45.095 E0.01674
G1 X134.905 Y111.158 E2.93142
G1 X134.905 Y111.691 E0.01674
G1 X68.309 Y45.095 E2.95510
G1 X67.775 Y45.095 E0.01674
G1 X134.905 Y112.225 E2.97878
G1 X134.905 Y112.759 E0.01674
G1 X67.241 Y45.095 E3.00246
G1 X66.708 Y45.095 E0.01674
G1 X134.905 Y113.292 E3.02614
G1 X134.905 Y113.826 E0.01674
G1 X66.174 Y45.095 E3.04982
G1 X65.641 Y45.095 E0.01674
G1 X134.905 Y114.359 E3.07350
G1 X134.905 Y114.893 E0.01674
G1 X65.107 Y45.095 E3.09718
M73 P5 R137
G1 X64.573 Y45.095 E0.01674
G1 X134.905 Y115.427 E3.12086
G1 X134.905 Y115.960 E0.01674
G1 X64.040 Y45.095 E3.14454
G1 X63.506 Y45.095 E0.01674
G1 X134.905 Y116.494 E3.16822
G1 X134.905 Y117.028 E0.01674
G1 X62.972 Y45.095 E3.19190
G1 X62.439 Y45.095 E0.01674
G1 X134.905 Y117.561 E3.21558
G1 X134.905 Y118.095 E0.01674
G1 X61.905 Y45.095 E3.23926
G1 X61.371 Y45.095 E0.01674
G1 X134.905 Y118.629 E3.26294
G1 X134.905 Y119.162 E0.01674
G1 X60.838 Y45.095 E3.28662
M73 P6 R137
G1 X60.304 Y45.095 E0.01674
G1 X134.905 Y119.696 E3.31030
G1 X134.905 Y120.230 E0.01674
G1 X59.770 Y45.095 E3.33398
G1 X59.237 Y45.095 E0.01674
G1 X134.905 Y120.763 E3.35766
G1 X134.905 Y121.297 E0.01674
G1 X58.703 Y45.095 E3.38134
M73 P6 R136
G1 X58.169 Y45.095 E0.01674
G1 X134.905 Y121.831 E3.40502
G1 X134.905 Y122.364 E0.01674
G1 X57.636 Y45.095 E3.42870
G1 X57.102 Y45.095 E0.01674
G1 X134.905 Y122.898 E3.45238
G1 X134.905 Y123.432 E0.01674
G1 X56.568 Y45.095 E3.47606
G1 X56.035 Y45.095 E0.01674
G1 X134.905 Y123.965 E3.49974
G1 X134.905 Y124.499 E0.01674
G1 X55.501 Y45.095 E3.52342
G1 X54.967 Y45.095 E0.01674
G1 X134.905 Y125.033 E3.54710
G1 X134.905 Y125.566 E0.01674
G1 X54.434 Y45.095 E3.57078
G1 X53.900 Y45.095 E0.01674
G1 X134.905 Y126.100 E3.59446
G1 X134.905 Y126.633 E0.01674
G1 X53.367 Y45.095 E3.61814
M73 P6 R135
G1 X52.833 Y45.095 E0.01674
G1 X134.905 Y127.167 E3.64182
G1 X134.905 Y127.701 E0.01674
G1 X52.299 Y45.095 E3.66550
M73 P7 R135
G1 X51.766 Y45.095 E0.01674
G1 X134.905 Y128.234 E3.68918
G1 X134.905 Y128.768 E0.01674
G1 X51.232 Y45.095 E3.71286
G1 X50.698 Y45.095 E0.01674
G1 X134.905 Y129.302 E3.73654
G1 X134.905 Y129.835 E0.01674
G1 X50.165 Y45.095 E3.76022
G1 X49.631 Y45.095 E0.01674
G1 X134.905 Y130.369 E3.78390
G1 X134.905 Y130.903 E0.01674
G1 X49.097 Y45.095 E3.80758
G1 X48.564 Y45.095 E0.01674
G1 X134.905 Y131.436 E3.83126
G1 X134.905 Y131.970 E0.01674
G1 X48.030 Y45.095 E3.85494
M73 P7 R134
G1 X47.496 Y45.095 E0.01674
G1 X134.905 Y132.504 E3.87862
G1 X134.905 Y133.037 E0.01674
G1 X46.963 Y45.095 E3.90230
G1 X46.429 Y45.095 E0.01674
G1 X134.905 Y133.571 E3.92598
G1 X134.905 Y134.105 E0.01674
G1 X45.895 Y45.095 E3.94966
G1 X45.362 Y45.095 E0.01674
G1 X134.905 Y134.638 E3.97334
G1 X134.905 Y134.905 E0.00837
G1 X134.638 Y134.905 E0.00837
G1 X45.095 Y45.362 E3.97334
M73 P8 R134
G1 X45.095 Y45.895 E0.01674
G1 X134.105 Y134.905 E3.94966
G1 X133.571 Y134.905 E0.01674
G1 X45.095 Y46.429 E3.92598
G1 X45.095 Y46.963 E0.01674
G1 X133.037 Y134.905 E3.90230
G1 X132.504 Y134.905 E0.01674
G1 X45.095 Y47.496 E3.87862
M73 P8 R133
G1 X45.095 Y48.030 E0.01674
G1 X131.970 Y134.905 E3.85494
G1 X131.436 Y134.905 E0.01674
G1 X45.095 Y48.564 E3.83126
G1 X45.095 Y49.097 E0.01674
G1 X130.903 Y134.905 E3.80758
G1 X130.369 Y134.905 E0.01674
G1 X45.095 Y49.631 E3.78390
G1 X45.095 Y50.165 E0.01674
G1 X129.835 Y134.905 E3.76022
G1 X129.302 Y134.905 E0.01674
G1 X45.095 Y50.698 E3.73654
G1 X45.095 Y51.232 E0.01674
G1 X128.768 Y134.905 E3.71286
G1 X128.235 Y134.905 E0.01674
G1 X45.095 Y51.765 E3.68918
G1 X45.095 Y52.299 E0.01674
G1 X127.701 Y134.905 E3.66550
G1 X127.167 Y134.905 E0.01674
G1 X45.095 Y52.833 E3.64182
M73 P9 R132
G1 X45.095 Y53.366 E0.01674
G1 X126.634 Y134.905 E3.61814
G1 X126.100 Y134.905 E0.01674
G1 X45.095 Y53.900 E3.59446
G1 X45.095 Y54.434 E0.01674
G1 X125.566 Y134.905 E3.57079
G1 X125.033 Y134.905 E0.01674
G1 X45.095 Y54.967 E3.54711
G1 X45.095 Y55.501 E0.01674
G1 X124.499 Y134.905 E3.52343
G1 X123.965 Y134.905 E0.01674
G1 X45.095 Y56.035 E3.49975
G1 X45.095 Y56.568 E0.01674
G1 X123.432 Y134.905 E3.47607
G1 X122.898 Y134.905 E0.01674
G1 X45.095 Y57.102 E3.45239
G1 X45.095 Y57.636 E0.01674
G1 X122.364 Y134.905 E3.42871
G1 X121.831 Y134.905 E0.01674
G1 X45.095 Y58.169 E3.40503
M73 P9 R131
G1 X45.095 Y58.703 E0.01674
G1 X121.297 Y134.905 E3.38135
G1 X120.763 Y134.905 E0.01674
G1 X45.095 Y59.237 E3.35767
G1 X45.095 Y59.770 E0.01674
G1 X120.230 Y134.905 E3.33399
G1 X119.696 Y134.905 E0.01674
G1 X45.095 Y60.304 E3.31031
G1 X45.095 Y60.838 E0.01674
G1 X119.162 Y134.905 E3.28663
G1 X118.629 Y134.905 E0.01674
G1 X45.095 Y61.371 E3.26295
M73 P10 R131
G1 X45.095 Y61.905 E0.01674
G1 X118.095 Y134.905 E3.23927
G1 X117.561 Y134.905 E0.01674
G1 X45.095 Y62.439 E3.21559
