; generated by PrusaSlicer 2.3.3+linux-x64 on 2021-10-08 at 11:10:17 UTC

; 

; external perimeters extrusion width = 0.45mm
; perimeters extrusion width = 0.45mm
; infill extrusion width = 0.45mm
; solid infill extrusion width = 0.45mm
; top infill extrusion width = 0.40mm
; first layer extrusion width = 0.42mm

M73 P0 R3
M73 Q0 S3
M201 X1000 Y1000 Z200 E5000 ; sets maximum accelerations, mm/sec^2
M203 X200 Y200 Z12 E120 ; sets maximum feedrates, mm/sec
M204 P1250 R1250 T1250 ; sets acceleration (P, T) and retract acceleration (R), mm/sec^2
M205 X8.00 Y8.00 Z0.40 E4.50 ; sets the jerk limits, mm/sec
M205 S0 T0 ; sets the minimum extruding and travel feed rate, mm/sec
M107
;TYPE:Custom
M862.3 P "MK3S" ; printer model check
M862.1 P0.4 ; nozzle diameter check
M115 U3.10.0 ; tell printer latest fw version
G90 ; use absolute coordinates
M83 ; extruder relative mode
M104 S215 ; set extruder temp
M140 S60 ; set bed temp
M190 S60 ; wait for bed temp
M109 S215 ; wait for extruder temp
G28 W ; home all without mesh bed level
G80 ; mesh bed leveling
G1 Y-3.0 F1000.0 ; go outside print area
G92 E0.0
G1 X60.0 E9.0 F1000.0 ; intro line
M73 P2 R3
M73 Q2 S3
G1 X100.0 E12.5 F1000.0 ; intro line
G92 E0.0
M221 S95

; Don't change E values below. Excessive value can damage the printer.

M907 E538 ; set extruder motor current
G21 ; set units to millimeters
G90 ; use absolute coordinates
M83 ; use relative distances for extrusion
M900 K0.05 ; Filament gcode LA 1.5
M900 K30 ; Filament gcode LA 1.0
;LAYER_CHANGE
;Z:0.2
;HEIGHT:0.2
;BEFORE_LAYER_CHANGE
G92 E0.0
;0.2


M73 P3 R3
M73 Q3 S3
G1 E-0.80000 F2100.000
G1 Z0.400 F10800.000
;AFTER_LAYER_CHANGE
;0.2
G1 X118.133 Y102.265
M73 Q4 S3
G1 Z0.200
G1 E0.80000 F2100.000
M204 S1000
;TYPE:Skirt
;WIDTH:0.42
G1 F957
G1 X118.415 Y101.640 E0.02148
G1 X118.825 Y101.092 E0.02148
M73 P4 R3
G1 X121.106 Y98.812 E0.10113
G1 X121.842 Y98.305 E0.02800
G1 X122.417 Y98.088 E0.01930
G1 X123.025 Y97.987 E0.01930
G1 X126.772 Y97.980 E0.11750
G1 X127.785 Y98.150 E0.03220
G1 X128.689 Y98.638 E0.03220
G1 X131.164 Y101.081 E0.10905
G1 X131.665 Y101.783 E0.02705
G1 X131.917 Y102.434 E0.02189
G1 X132.018 Y103.125 E0.02189
G1 X132.019 Y106.873 E0.11751
G1 X131.867 Y107.735 E0.02746
G1 X131.577 Y108.375 E0.02202
G1 X131.151 Y108.933 E0.02202
M73 Q5 S3
G1 X128.865 Y111.215 E0.10126
G1 X128.007 Y111.764 E0.03193
G1 X127.430 Y111.950 E0.01902
G1 X126.823 Y112.020 E0.01916
M73 P5 R3
G1 X123.127 Y112.019 E0.11586
G1 X122.265 Y111.867 E0.02746
G1 X121.625 Y111.577 E0.02202
G1 X121.067 Y111.151 E0.02202
G1 X118.785 Y108.865 E0.10126
G1 X118.236 Y108.007 E0.03193
G1 X118.050 Y107.430 E0.01902
G1 X117.980 Y106.823 E0.01916
G1 X117.981 Y103.127 E0.11586
G1 X118.123 Y102.324 E0.02558
G1 X118.494 Y102.391 F10800.000
G1 F957
G1 X118.751 Y101.812 E0.01987
G1 X119.113 Y101.336 E0.01873
G1 X121.362 Y99.090 E0.09967
G1 X122.033 Y98.631 E0.02549
G1 X122.540 Y98.445 E0.01694
G1 X123.074 Y98.361 E0.01694
G1 X126.772 Y98.357 E0.11594
M73 Q6 S3
G1 X127.673 Y98.510 E0.02866
G1 X128.478 Y98.952 E0.02879
G1 X130.891 Y101.341 E0.10646
M73 P6 R3
G1 X131.343 Y101.982 E0.02460
G1 X131.558 Y102.552 E0.01912
G1 X131.642 Y103.156 E0.01912
G1 X131.642 Y106.854 E0.11594
G1 X131.499 Y107.646 E0.02523
G1 X131.240 Y108.202 E0.01924
G1 X130.867 Y108.684 E0.01912
G1 X128.617 Y110.930 E0.09966
G1 X127.836 Y111.428 E0.02904
G1 X127.328 Y111.586 E0.01669
G1 X126.803 Y111.643 E0.01656
G1 X123.142 Y111.642 E0.11479
G1 X122.354 Y111.499 E0.02511
G1 X121.798 Y111.240 E0.01924
G1 X121.316 Y110.867 E0.01912
G1 X119.070 Y108.617 E0.09966
M73 Q7 S3
G1 X118.572 Y107.836 E0.02904
G1 X118.414 Y107.328 E0.01669
G1 X118.357 Y106.803 E0.01656
G1 X118.358 Y103.142 E0.11479
M73 P7 R3
G1 X118.483 Y102.450 E0.02205
G1 X118.866 Y102.451 F10800.000
G1 F957
G1 X119.084 Y101.991 E0.01597
G1 X119.398 Y101.584 E0.01609
G1 X121.614 Y99.369 E0.09826
G1 X122.221 Y98.960 E0.02296
G1 X123.114 Y98.737 E0.02884
G1 X126.772 Y98.734 E0.11469
G1 X127.563 Y98.871 E0.02520
G1 X128.264 Y99.264 E0.02520
G1 X130.615 Y101.598 E0.10386
G1 X131.019 Y102.177 E0.02213
G1 X131.198 Y102.666 E0.01633
G1 X131.266 Y103.182 E0.01633
G1 X131.265 Y106.840 E0.11469
G1 X131.134 Y107.549 E0.02260
M73 Q8 S3
G1 X130.910 Y108.019 E0.01633
G1 X130.589 Y108.429 E0.01633
G1 X128.369 Y110.646 E0.09838
G1 X127.674 Y111.087 E0.02579
G1 X126.787 Y111.266 E0.02837
M73 P8 R3
G1 X123.160 Y111.265 E0.11374
G1 X122.451 Y111.134 E0.02260
G1 X121.981 Y110.910 E0.01633
G1 X121.571 Y110.589 E0.01633
G1 X119.354 Y108.369 E0.09838
G1 X118.913 Y107.674 E0.02579
G1 X118.734 Y106.787 E0.02837
G1 X118.735 Y103.160 E0.11374
G1 X118.855 Y102.510 E0.02072
; printing object dice_cross.stl id:0 copy 0
;WIPE_START
G1 F8640.000
G1 X119.084 Y101.991 E-0.13107
G1 X119.398 Y101.584 E-0.11850
G1 X120.961 Y100.022 E-0.51043
;WIPE_END
G1 E-0.04000 F2100.000
G1 Z0.600 F10800.000
G1 X118.855 Y102.510
G1 X118.855 Y102.510
G1 X126.672 Y105.664
G1 Z0.200
M73 Q9 S3
G1 E0.80000 F2100.000
;TYPE:Perimeter
G1 F957
G1 X127.776 Y106.768 E0.04896
G1 X126.768 Y107.776 E0.04471
G1 X125.000 Y106.008 E0.07839
M73 P9 R3
G1 X123.232 Y107.776 E0.07839
G1 X122.224 Y106.768 E0.04471
G1 X123.992 Y105.000 E0.07839
G1 X122.224 Y103.232 E0.07839
G1 X123.232 Y102.224 E0.04471
G1 X125.000 Y103.992 E0.07839
G1 X126.768 Y102.224 E0.07839
G1 X127.776 Y103.232 E0.04471
G1 X126.008 Y105.000 E0.07839
G1 X126.629 Y105.621 E0.02754
G1 X126.896 Y105.355 F10800.000
;TYPE:External perimeter
G1 F957
G1 X128.309 Y106.768 E0.06267
M73 Q10 S3
G1 X126.768 Y108.309 E0.06835
G1 X125.000 Y106.541 E0.07839
G1 X123.232 Y108.309 E0.07839
M73 P10 R3
G1 X121.691 Y106.768 E0.06835
G1 X123.459 Y105.000 E0.07839
G1 X121.691 Y103.232 E0.07839
G1 X123.232 Y101.691 E0.06835
G1 X125.000 Y103.459 E0.07839
G1 X126.768 Y101.691 E0.07839
G1 X128.309 Y103.232 E0.06835
G1 X126.541 Y105.000 E0.07839
G1 X126.854 Y105.312 E0.01384
G1 X126.632 Y105.655 F10800.000
G1 E-0.80000 F2100.000
M73 Q11 S3
G1 Z0.600 F10800.000
G1 X127.491 Y103.357
G1 Z0.200
G1 E0.80000 F2100.000
;TYPE:Solid infill
;WIDTH:0.432751
G1 F957
G1 X126.763 Y102.629 E0.03338
M73 P11 R3
G1 X126.488 Y102.904 E0.01264
G1 X127.096 Y103.512 E0.02788
G1 X126.820 Y103.788 E0.01264
G1 X126.212 Y103.180 E0.02788
G1 X125.936 Y103.455 E0.01264
G1 X126.545 Y104.064 E0.02788
G1 X126.269 Y104.339 E0.01264
G1 X125.661 Y103.731 E0.02788
G1 X125.385 Y104.007 E0.01264
G1 X125.993 Y104.615 E0.02788
G1 X125.718 Y104.891 E0.01264
G1 X125.109 Y104.282 E0.02788
G1 X125.000 Y104.392 E0.00501
G1 X123.232 Y102.624 E0.08104
G1 X123.066 Y102.790 E0.00763
G1 X127.210 Y106.934 E0.18996
G1 X126.934 Y107.210 E0.01264
G1 X122.790 Y103.066 E0.18996
G1 X122.624 Y103.232 E0.00762
G1 X124.392 Y105.000 E0.08104
M73 Q12 S3
G1 X124.282 Y105.109 E0.00501
G1 X124.891 Y105.718 E0.02788
G1 X124.615 Y105.993 E0.01264
G1 X124.007 Y105.385 E0.02788
G1 X123.731 Y105.661 E0.01264
G1 X124.339 Y106.269 E0.02788
M73 P12 R3
G1 X124.064 Y106.545 E0.01264
G1 X123.455 Y105.936 E0.02788
G1 X123.180 Y106.212 E0.01264
G1 X123.788 Y106.820 E0.02788
G1 X123.512 Y107.096 E0.01264
G1 X122.904 Y106.488 E0.02788
G1 X122.628 Y106.763 E0.01264
G1 X123.357 Y107.492 E0.03338
; stop printing object dice_cross.stl id:0 copy 0
M106 S84.15
;LAYER_CHANGE
;Z:0.45
;HEIGHT:0.25
;BEFORE_LAYER_CHANGE
G92 E0.0
;0.45


;WIPE_START
G1 F8640.000
G1 X122.628 Y106.763 E-0.23781
G1 X122.904 Y106.488 E-0.09001
G1 X123.512 Y107.096 E-0.19863
G1 X123.788 Y106.820 E-0.09001
G1 X123.348 Y106.381 E-0.14353
;WIPE_END
G1 E-0.04000 F2100.000
G1 Z0.600 F10800.000
;AFTER_LAYER_CHANGE
;0.45
G1 X118.236 Y108.007
G1 Z0.450
G1 E0.80000 F2100.000
;TYPE:Skirt
;WIDTH:0.42
G1 F935
G1 X118.050 Y107.430 E0.02310
G1 X117.980 Y106.823 E0.02327
G1 X117.981 Y103.127 E0.14071
G1 X118.133 Y102.265 E0.03335
G1 X118.415 Y101.640 E0.02608
G1 X118.825 Y101.092 E0.02608
G1 X121.106 Y98.812 E0.12281
M73 Q13 S3
G1 X121.842 Y98.305 E0.03401
G1 X122.417 Y98.088 E0.02343
G1 X123.025 Y97.987 E0.02343
G1 X126.772 Y97.980 E0.14270
M73 P13 R3
G1 X127.785 Y98.150 E0.03911
G1 X128.689 Y98.638 E0.03911
G1 X131.164 Y101.081 E0.13243
G1 X131.665 Y101.783 E0.03285
G1 X131.917 Y102.434 E0.02658
G1 X132.018 Y103.125 E0.02658
G1 X132.019 Y106.873 E0.14270
G1 X131.867 Y107.735 E0.03335
G1 X131.577 Y108.375 E0.02674
G1 X131.151 Y108.933 E0.02674
G1 X128.865 Y111.215 E0.12298
G1 X128.007 Y111.764 E0.03878
G1 X127.430 Y111.950 E0.02310
G1 X126.823 Y112.020 E0.02327
G1 X123.127 Y112.019 E0.14071
M73 Q14 S3
G1 X122.265 Y111.867 E0.03335
G1 X121.625 Y111.577 E0.02674
G1 X121.067 Y111.151 E0.02674
G1 X118.785 Y108.865 E0.12298
M73 P14 R3
G1 X118.268 Y108.058 E0.03649
G1 X118.585 Y107.856 F10800.000
G1 F935
G1 X118.414 Y107.328 E0.02113
G1 X118.357 Y106.803 E0.02011
G1 X118.358 Y103.142 E0.13940
G1 X118.501 Y102.354 E0.03049
G1 X118.751 Y101.812 E0.02275
G1 X119.113 Y101.336 E0.02275
G1 X121.362 Y99.090 E0.12104
G1 X122.033 Y98.631 E0.03095
G1 X122.540 Y98.445 E0.02057
G1 X123.074 Y98.361 E0.02057
G1 X126.772 Y98.357 E0.14080
G1 X127.673 Y98.510 E0.03481
G1 X128.478 Y98.952 E0.03496
G1 X130.891 Y101.341 E0.12929
M73 Q15 S3
G1 X131.343 Y101.982 E0.02987
G1 X131.558 Y102.552 E0.02321
G1 X131.642 Y103.156 E0.02321
G1 X131.642 Y106.854 E0.14080
M73 P15 R3
G1 X131.499 Y107.646 E0.03065
G1 X131.240 Y108.202 E0.02337
G1 X130.867 Y108.684 E0.02321
G1 X128.617 Y110.930 E0.12104
G1 X127.836 Y111.428 E0.03527
G1 X127.328 Y111.586 E0.02026
G1 X126.803 Y111.643 E0.02011
G1 X123.142 Y111.642 E0.13940
G1 X122.354 Y111.499 E0.03049
G1 X121.798 Y111.240 E0.02337
G1 X121.316 Y110.867 E0.02321
G1 X119.070 Y108.617 E0.12104
G1 X118.617 Y107.906 E0.03209
G1 X118.913 Y107.674 F10800.000
G1 F935
G1 X118.734 Y106.787 E0.03445
G1 X118.735 Y103.160 E0.13813
M73 Q16 S3
G1 X118.866 Y102.451 E0.02745
G1 X119.084 Y101.991 E0.01940
G1 X119.398 Y101.584 E0.01954
G1 X121.614 Y99.369 E0.11933
M73 P16 R3
G1 X122.221 Y98.960 E0.02788
G1 X123.114 Y98.737 E0.03502
G1 X126.772 Y98.734 E0.13928
G1 X127.563 Y98.871 E0.03060
G1 X128.264 Y99.264 E0.03060
G1 X130.615 Y101.598 E0.12613
G1 X131.019 Y102.177 E0.02688
G1 X131.198 Y102.666 E0.01983
G1 X131.266 Y103.182 E0.01983
G1 X131.265 Y106.840 E0.13929
G1 X131.134 Y107.549 E0.02745
G1 X130.910 Y108.019 E0.01983
G1 X130.589 Y108.429 E0.01983
G1 X128.369 Y110.646 E0.11947
G1 X127.674 Y111.087 E0.03131
G1 X126.787 Y111.266 E0.03445
M73 P16 R2
G1 X123.160 Y111.265 E0.13813
M73 Q17 S2
G1 X122.451 Y111.134 E0.02745
G1 X121.981 Y110.910 E0.01983
G1 X121.571 Y110.589 E0.01983
G1 X119.354 Y108.369 E0.11947
M73 P17 R2
G1 X118.946 Y107.725 E0.02903
; printing object dice_cross.stl id:0 copy 0
;WIPE_START
G1 F8640.000
G1 X118.734 Y106.787 E-0.22192
G1 X118.735 Y104.457 E-0.53808
;WIPE_END
G1 E-0.04000 F2100.000
G1 Z0.850 F10800.000
G1 X118.946 Y107.725
G1 X118.946 Y107.725
G1 X124.353 Y106.889
G1 Z0.450
G1 E0.80000 F2100.000
M204 S800
;TYPE:Perimeter
;WIDTH:0.45
G1 F935
G1 X123.232 Y108.010 E0.06531
G1 X121.990 Y106.768 E0.07239
G1 X123.757 Y105.000 E0.10299
G1 X121.990 Y103.232 E0.10299
G1 X123.232 Y101.990 E0.07239
G1 X125.000 Y103.757 E0.10299
M73 Q18 S2
G1 X126.768 Y101.990 E0.10299
G1 X128.010 Y103.232 E0.07239
M73 P18 R2
G1 X126.243 Y105.000 E0.10299
G1 X128.010 Y106.768 E0.10299
G1 X126.768 Y108.010 E0.07239
G1 X125.000 Y106.243 E0.10299
G1 X124.396 Y106.847 E0.03521
M204 S1000
G1 X124.676 Y107.127 F10800.000
M204 S800
;TYPE:External perimeter
G1 F935
G1 X123.232 Y108.571 E0.08411
G1 X121.429 Y106.768 E0.10505
G1 X123.197 Y105.000 E0.10299
G1 X121.429 Y103.232 E0.10299
G1 X123.232 Y101.429 E0.10505
M73 Q19 S2
G1 X125.000 Y103.197 E0.10299
G1 X126.768 Y101.429 E0.10299
M73 P19 R2
G1 X128.571 Y103.232 E0.10505
G1 X126.803 Y105.000 E0.10299
G1 X128.571 Y106.768 E0.10299
G1 X126.768 Y108.571 E0.10505
G1 X125.000 Y106.803 E0.10299
G1 X124.718 Y107.085 E0.01641
M204 S1000
G1 X124.377 Y106.862 F10800.000
;WIPE_START
G1 F8640.000
G1 X123.232 Y108.571 E-0.48529
G1 X122.391 Y107.730 E-0.27471
;WIPE_END
G1 E-0.04000 F2100.000
G1 Z0.850 F10800.000
G1 X124.718 Y107.085
G1 X124.718 Y107.085
G1 X125.000 Y106.841
G1 X126.637 Y107.711
G1 Z0.450
G1 E0.80000 F2100.000
;TYPE:Solid infill
;WIDTH:0.463594
G1 F935
G1 X127.585 Y106.763 E0.05714
M73 Q20 S2
G1 X127.295 Y106.473 E0.01747
G1 X126.473 Y107.295 E0.04954
G1 X126.183 Y107.005 E0.01747
G1 X127.005 Y106.183 E0.04954
G1 X126.716 Y105.893 E0.01747
G1 X125.893 Y106.716 E0.04954
M73 P20 R2
G1 X125.603 Y106.426 E0.01747
G1 X126.426 Y105.603 E0.04954
G1 X126.136 Y105.314 E0.01747
G1 X125.314 Y106.136 E0.04954
G1 X125.024 Y105.846 E0.01747
G1 X125.846 Y105.024 E0.04954
G1 X125.822 Y105.000 E0.00143
G1 X127.590 Y103.232 E0.10652
G1 X127.324 Y102.966 E0.01604
G1 X122.966 Y107.324 E0.26259
G1 X122.676 Y107.034 E0.01747
G1 X127.034 Y102.676 E0.26259
G1 X126.768 Y102.410 E0.01604
G1 X125.000 Y104.178 E0.10652
M73 Q21 S2
G1 X124.976 Y104.154 E0.00143
G1 X124.154 Y104.976 E0.04954
G1 X123.864 Y104.686 E0.01747
G1 X124.686 Y103.864 E0.04954
G1 X124.397 Y103.574 E0.01747
G1 X123.574 Y104.397 E0.04954
M73 P21 R2
G1 X123.284 Y104.107 E0.01747
G1 X124.107 Y103.284 E0.04954
G1 X123.817 Y102.995 E0.01747
G1 X122.995 Y103.817 E0.04954
G1 X122.705 Y103.527 E0.01747
G1 X123.527 Y102.705 E0.04954
G1 X123.237 Y102.415 E0.01747
G1 X122.289 Y103.363 E0.05714
; stop printing object dice_cross.stl id:0 copy 0
M106 S170.85
;LAYER_CHANGE
;Z:0.7
;HEIGHT:0.25
;BEFORE_LAYER_CHANGE
G92 E0.0
;0.7


;WIPE_START
G1 F8640.000
G1 X123.237 Y102.415 E-0.30967
G1 X123.527 Y102.705 E-0.09466
G1 X122.705 Y103.527 E-0.26849
G1 X122.972 Y103.794 E-0.08718
;WIPE_END
G1 E-0.04000 F2100.000
G1 Z0.850 F10800.000
;AFTER_LAYER_CHANGE
;0.7
G1 X118.133 Y102.265
G1 Z0.700
G1 E0.80000 F2100.000
;TYPE:Skirt
;WIDTH:0.42
G1 F935
G1 X118.415 Y101.640 E0.02608
G1 X118.825 Y101.092 E0.02608
G1 X121.106 Y98.812 E0.12281
G1 X121.842 Y98.305 E0.03401
G1 X122.417 Y98.088 E0.02343
G1 X123.025 Y97.987 E0.02343
G1 X126.772 Y97.980 E0.14270
M73 Q22 S2
G1 X127.785 Y98.150 E0.03911
G1 X128.689 Y98.638 E0.03911
G1 X131.164 Y101.081 E0.13243
M73 P22 R2
G1 X131.665 Y101.783 E0.03285
G1 X131.917 Y102.434 E0.02658
G1 X132.018 Y103.125 E0.02658
G1 X132.019 Y106.873 E0.14270
G1 X131.867 Y107.735 E0.03335
G1 X131.577 Y108.375 E0.02674
G1 X131.151 Y108.933 E0.02674
G1 X128.865 Y111.215 E0.12298
G1 X128.007 Y111.764 E0.03878
G1 X127.430 Y111.950 E0.02310
G1 X126.823 Y112.020 E0.02327
G1 X123.127 Y112.019 E0.14071
G1 X122.265 Y111.867 E0.03335
G1 X121.625 Y111.577 E0.02674
G1 X121.067 Y111.151 E0.02674
G1 X118.785 Y108.865 E0.12298
M73 Q23 S2
G1 X118.236 Y108.007 E0.03878
G1 X118.050 Y107.430 E0.02310
G1 X117.980 Y106.823 E0.02327
G1 X117.981 Y103.127 E0.14071
M73 P23 R2
G1 X118.123 Y102.324 E0.03106
G1 X118.494 Y102.391 F10800.000
G1 F935
G1 X118.751 Y101.812 E0.02413
G1 X119.113 Y101.336 E0.02275
G1 X121.362 Y99.090 E0.12104
G1 X122.033 Y98.631 E0.03095
G1 X122.540 Y98.445 E0.02057
G1 X123.074 Y98.361 E0.02057
G1 X126.772 Y98.357 E0.14080
G1 X127.673 Y98.510 E0.03481
G1 X128.478 Y98.952 E0.03496
G1 X130.891 Y101.341 E0.12929
G1 X131.343 Y101.982 E0.02987
G1 X131.558 Y102.552 E0.02321
G1 X131.642 Y103.156 E0.02321
G1 X131.642 Y106.854 E0.14080
M73 Q24 S2
G1 X131.499 Y107.646 E0.03065
G1 X131.240 Y108.202 E0.02337
G1 X130.867 Y108.684 E0.02321
G1 X128.617 Y110.930 E0.12104
M73 P24 R2
G1 X127.836 Y111.428 E0.03527
G1 X127.328 Y111.586 E0.02026
G1 X126.803 Y111.643 E0.02011
G1 X123.142 Y111.642 E0.13940
G1 X122.354 Y111.499 E0.03049
G1 X121.798 Y111.240 E0.02337
G1 X121.316 Y110.867 E0.02321
G1 X119.070 Y108.617 E0.12104
G1 X118.572 Y107.836 E0.03527
G1 X118.414 Y107.328 E0.02026
G1 X118.357 Y106.803 E0.02011
G1 X118.358 Y103.142 E0.13940
G1 X118.483 Y102.450 E0.02678
G1 X118.866 Y102.451 F10800.000
G1 F935
G1 X119.084 Y101.991 E0.01940
G1 X119.398 Y101.584 E0.01954
G1 X121.614 Y99.369 E0.11933
M73 Q25 S2
G1 X122.221 Y98.960 E0.02788
G1 X123.114 Y98.737 E0.03502
G1 X126.772 Y98.734 E0.13928
M73 P25 R2
G1 X127.563 Y98.871 E0.03060
G1 X128.264 Y99.264 E0.03060
G1 X130.615 Y101.598 E0.12613
G1 X131.019 Y102.177 E0.02688
G1 X131.198 Y102.666 E0.01983
G1 X131.266 Y103.182 E0.01983
G1 X131.265 Y106.840 E0.13929
