; generated by PrusaSlicer 2.3.3+linux-x64 on 2021-10-08 at 11:10:00 UTC

; 

; external perimeters extrusion width = 0.45mm
; perimeters extrusion width = 0.45mm
; infill extrusion width = 0.45mm
; solid infill extrusion width = 0.45mm
; top infill extrusion width = 0.40mm
; first layer extrusion width = 0.42mm

M73 P0 R3
M73 Q0 S3
M201 X1000 Y1000 Z200 E5000 ; sets maximum accelerations, mm/sec^2
M203 X200 Y200 Z12 E120 ; sets maximum feedrates, mm/sec
M204 P1250 R1250 T1250 ; sets acceleration (P, T) and retract acceleration (R), mm/sec^2
M205 X8.00 Y8.00 Z0.40 E4.50 ; sets the jerk limits, mm/sec
M205 S0 T0 ; sets the minimum extruding and travel feed rate, mm/sec
M107
;TYPE:Custom
M862.3 P "MK3S" ; printer model check
M862.1 P0.4 ; nozzle diameter check
M115 U3.10.0 ; tell printer latest fw version
G90 ; use absolute coordinates
M83 ; extruder relative mode
M104 S215 ; set extruder temp
M140 S60 ; set bed temp
M190 S60 ; wait for bed temp
M109 S215 ; wait for extruder temp
G28 W ; home all without mesh bed level
G80 ; mesh bed leveling
G1 Y-3.0 F1000.0 ; go outside print area
G92 E0.0
G1 X60.0 E9.0 F1000.0 ; intro line
M73 P2 R3
M73 Q2 S3
G1 X100.0 E12.5 F1000.0 ; intro line
G92 E0.0
M221 S95

; Don't change E values below. Excessive value can damage the printer.

M907 E538 ; set extruder motor current
G21 ; set units to millimeters
G90 ; use absolute coordinates
M83 ; use relative distances for extrusion
M900 K0.05 ; Filament gcode LA 1.5
M900 K30 ; Filament gcode LA 1.0
;LAYER_CHANGE
;Z:0.2
;HEIGHT:0.2
;BEFORE_LAYER_CHANGE
G92 E0.0
;0.2


M73 P3 R3
M73 Q3 S3
G1 E-0.80000 F2100.000
G1 Z0.400 F10800.000
;AFTER_LAYER_CHANGE
;0.2
G1 X119.723 Y99.659
M73 Q4 S3
G1 Z0.200
G1 E0.80000 F2100.000
M204 S1000
;TYPE:Skirt
;WIDTH:0.42
M73 P4 R3
G1 F1200.000
G1 X120.845 Y98.746 E0.04536
G1 X122.116 Y98.068 E0.04519
G1 X123.566 Y97.630 E0.04748
G1 X125.005 Y97.492 E0.04532
G1 X126.439 Y97.631 E0.04517
G1 X127.885 Y98.068 E0.04736
G1 X129.155 Y98.746 E0.04516
G1 X130.279 Y99.661 E0.04546
G1 X131.233 Y100.814 E0.04689
G1 X131.924 Y102.095 E0.04564
G1 X132.366 Y103.546 E0.04756
G1 X132.508 Y104.991 E0.04554
G1 X132.371 Y106.430 E0.04530
G1 X131.937 Y107.871 E0.04720
G1 X131.254 Y109.155 E0.04561
G1 X130.341 Y110.277 E0.04535
G1 X129.178 Y111.238 E0.04730
G1 X127.901 Y111.925 E0.04548
G1 X126.438 Y112.369 E0.04791
G1 X125.000 Y112.508 E0.04532
M73 Q5 S3
G1 X123.561 Y112.369 E0.04532
G1 X122.098 Y111.925 E0.04793
G1 X120.822 Y111.238 E0.04545
G1 X119.661 Y110.279 E0.04720
G1 X118.752 Y109.163 E0.04514
M73 P5 R3
G1 X118.068 Y107.884 E0.04550
G1 X117.632 Y106.445 E0.04713
G1 X117.492 Y104.998 E0.04558
G1 X117.631 Y103.560 E0.04530
G1 X118.071 Y102.107 E0.04759
G1 X118.759 Y100.826 E0.04561
G1 X119.685 Y99.705 E0.04556
G1 X119.974 Y99.945 F10800.000
G1 F1200.000
G1 X121.055 Y99.059 E0.04382
G1 X122.263 Y98.415 E0.04291
G1 X123.640 Y98.000 E0.04510
G1 X125.006 Y97.869 E0.04304
G1 X126.368 Y98.001 E0.04291
G1 X127.758 Y98.424 E0.04552
G1 X128.966 Y99.073 E0.04302
G1 X130.072 Y99.987 E0.04498
G1 X130.933 Y101.044 E0.04273
G1 X131.583 Y102.259 E0.04322
G1 X131.997 Y103.625 E0.04475
G1 X132.131 Y104.994 E0.04312
G1 X132.000 Y106.360 E0.04303
M73 Q6 S3
G1 X131.582 Y107.745 E0.04536
G1 X130.929 Y108.963 E0.04334
G1 X130.014 Y110.071 E0.04506
G1 X128.948 Y110.938 E0.04307
M73 P6 R3
G1 X127.741 Y111.583 E0.04291
G1 X126.364 Y111.999 E0.04510
G1 X124.998 Y112.131 E0.04304
G1 X123.632 Y111.999 E0.04304
G1 X122.242 Y111.576 E0.04552
G1 X121.034 Y110.927 E0.04302
G1 X119.928 Y110.013 E0.04498
G1 X119.067 Y108.956 E0.04273
G1 X118.417 Y107.741 E0.04322
G1 X118.002 Y106.371 E0.04489
G1 X117.869 Y104.996 E0.04331
G1 X118.001 Y103.634 E0.04289
G1 X118.420 Y102.251 E0.04531
G1 X119.074 Y101.034 E0.04334
G1 X119.936 Y99.991 E0.04242
G1 X120.225 Y100.230 F10800.000
G1 F1200.000
G1 X121.262 Y99.375 E0.04215
G1 X122.405 Y98.764 E0.04064
G1 X123.710 Y98.370 E0.04273
G1 X125.004 Y98.246 E0.04075
G1 X126.289 Y98.370 E0.04050
G1 X127.599 Y98.766 E0.04288
M73 Q7 S3
G1 X128.741 Y99.376 E0.04061
G1 X129.746 Y100.195 E0.04064
G1 X130.606 Y101.234 E0.04230
G1 X131.227 Y102.383 E0.04095
G1 X131.612 Y103.621 E0.04065
M73 P7 R3
G1 X131.754 Y104.992 E0.04321
G1 X131.631 Y106.282 E0.04063
G1 X131.239 Y107.586 E0.04269
G1 X130.628 Y108.734 E0.04080
G1 X129.807 Y109.744 E0.04079
G1 X128.758 Y110.612 E0.04268
G1 X127.614 Y111.228 E0.04076
G1 X126.294 Y111.629 E0.04324
G1 X125.000 Y111.754 E0.04075
G1 X123.706 Y111.629 E0.04077
G1 X122.386 Y111.228 E0.04325
G1 X121.242 Y110.612 E0.04074
G1 X120.195 Y109.746 E0.04262
G1 X119.380 Y108.746 E0.04045
G1 X118.766 Y107.598 E0.04082
G1 X118.372 Y106.301 E0.04251
G1 X118.246 Y104.998 E0.04104
G1 X118.371 Y103.709 E0.04061
G1 X118.768 Y102.395 E0.04303
G1 X119.386 Y101.245 E0.04093
G1 X120.187 Y100.276 E0.03941
G1 X120.476 Y100.515 F10800.000
G1 F1200.000
G1 X120.523 Y100.459 E0.00228
G1 X121.472 Y99.688 E0.03837
M73 Q8 S3
G1 X122.548 Y99.113 E0.03824
G1 X123.784 Y98.740 E0.04049
G1 X125.006 Y98.623 E0.03846
G1 X126.215 Y98.740 E0.03811
G1 X127.452 Y99.113 E0.04050
M73 P8 R3
G1 X128.530 Y99.689 E0.03833
G1 X129.479 Y100.461 E0.03836
G1 X130.295 Y101.446 E0.04007
G1 X130.880 Y102.531 E0.03866
G1 X131.257 Y103.770 E0.04061
G1 X131.377 Y104.994 E0.03856
G1 X131.261 Y106.212 E0.03837
G1 X130.885 Y107.457 E0.04077
G1 X130.302 Y108.544 E0.03866
G1 X129.480 Y109.538 E0.04044
G1 X128.531 Y110.310 E0.03837
G1 X127.452 Y110.887 E0.03835
G1 X126.216 Y111.260 E0.04049
G1 X124.998 Y111.377 E0.03835
G1 X123.781 Y111.259 E0.03836
G1 X122.534 Y110.881 E0.04085
G1 X121.454 Y110.300 E0.03845
G1 X120.461 Y109.479 E0.04038
G1 X119.695 Y108.538 E0.03805
G1 X119.114 Y107.455 E0.03855
G1 X118.742 Y106.226 E0.04025
G1 X118.623 Y105.000 E0.03864
G1 X118.740 Y103.783 E0.03832
M73 Q9 S3
G1 X119.115 Y102.543 E0.04063
G1 X119.698 Y101.456 E0.03866
G1 X120.438 Y100.562 E0.03640
; printing object dice_round.stl id:0 copy 0
;WIPE_START
G1 F8640.000
G1 X120.523 Y100.459 E-0.03066
G1 X121.472 Y99.688 E-0.28258
G1 X122.548 Y99.113 E-0.28158
G1 X123.233 Y98.906 E-0.16518
;WIPE_END
G1 E-0.04000 F2100.000
G1 Z0.600 F10800.000
M73 P9 R3
G1 X120.438 Y100.562
G1 X120.438 Y100.562
G1 X127.990 Y103.825
G1 Z0.200
G1 E0.80000 F2100.000
;TYPE:Perimeter
G1 F1200.000
G1 X128.074 Y104.069 E0.00807
G1 X128.155 Y104.398 E0.01064
G1 X128.201 Y104.731 E0.01054
G1 X128.211 Y105.067 E0.01054
G1 X128.187 Y105.403 E0.01054
G1 X128.127 Y105.733 E0.01054
G1 X128.033 Y106.059 E0.01064
G1 X127.935 Y106.307 E0.00834
G1 X127.816 Y106.545 E0.00834
G1 X127.638 Y106.833 E0.01064
G1 X127.430 Y107.101 E0.01064
G1 X127.249 Y107.294 E0.00829
G1 X126.995 Y107.517 E0.01059
G1 X126.721 Y107.712 E0.01054
G1 X126.426 Y107.879 E0.01064
G1 X126.183 Y107.987 E0.00834
G1 X125.931 Y108.074 E0.00834
G1 X125.602 Y108.155 E0.01064
G1 X125.269 Y108.201 E0.01054
G1 X124.933 Y108.211 E0.01054
G1 X124.597 Y108.187 E0.01054
G1 X124.267 Y108.127 E0.01054
G1 X123.941 Y108.033 E0.01064
G1 X123.696 Y107.936 E0.00824
G1 X123.394 Y107.782 E0.01064
G1 X123.112 Y107.599 E0.01054
G1 X122.848 Y107.385 E0.01064
G1 X122.660 Y107.201 E0.00824
G1 X122.439 Y106.940 E0.01074
G1 X122.289 Y106.724 E0.00824
G1 X122.121 Y106.426 E0.01074
G1 X122.014 Y106.185 E0.00824
G1 X121.906 Y105.864 E0.01064
G1 X121.833 Y105.536 E0.01054
G1 X121.794 Y105.199 E0.01064
G1 X121.788 Y104.936 E0.00824
G1 X121.813 Y104.597 E0.01064
G1 X121.873 Y104.267 E0.01054
G1 X121.967 Y103.941 E0.01064
G1 X122.064 Y103.696 E0.00824
G1 X122.218 Y103.394 E0.01064
G1 X122.401 Y103.112 E0.01054
G1 X122.615 Y102.848 E0.01064
G1 X122.801 Y102.658 E0.00834
G1 X123.002 Y102.485 E0.00834
G1 X123.279 Y102.288 E0.01064
G1 X123.574 Y102.121 E0.01064
G1 X123.817 Y102.013 E0.00834
G1 X124.069 Y101.926 E0.00834
G1 X124.398 Y101.845 E0.01064
G1 X124.731 Y101.799 E0.01054
G1 X125.067 Y101.789 E0.01054
G1 X125.403 Y101.813 E0.01054
G1 X125.733 Y101.873 E0.01054
G1 X126.059 Y101.967 E0.01064
G1 X126.304 Y102.064 E0.00824
G1 X126.606 Y102.218 E0.01064
G1 X126.888 Y102.401 E0.01054
G1 X127.152 Y102.615 E0.01064
G1 X127.340 Y102.799 E0.00824
G1 X127.561 Y103.060 E0.01074
G1 X127.711 Y103.276 E0.00824
G1 X127.966 Y103.770 E0.01744
G1 X128.310 Y103.617 F10800.000
;TYPE:External perimeter
M73 Q10 S3
G1 F1200.000
G1 X128.436 Y103.961 E0.01150
G1 X128.526 Y104.327 E0.01182
G1 X128.577 Y104.700 E0.01178
G1 X128.589 Y105.075 E0.01178
G1 X128.561 Y105.450 E0.01178
G1 X128.495 Y105.820 E0.01178
G1 X128.390 Y106.182 E0.01182
G1 X128.279 Y106.460 E0.00939
G1 X128.146 Y106.728 E0.00939
G1 X127.948 Y107.049 E0.01182
G1 X127.717 Y107.346 E0.01182
G1 X127.511 Y107.565 E0.00941
G1 X127.230 Y107.813 E0.01176
G1 X126.923 Y108.031 E0.01178
G1 X126.595 Y108.216 E0.01182
G1 X126.321 Y108.338 E0.00939
G1 X126.039 Y108.436 E0.00939
G1 X125.673 Y108.526 E0.01182
M73 P10 R3
G1 X125.300 Y108.577 E0.01178
G1 X124.925 Y108.589 E0.01178
G1 X124.550 Y108.561 E0.01178
G1 X124.180 Y108.495 E0.01178
G1 X123.818 Y108.390 E0.01182
G1 X123.541 Y108.280 E0.00936
G1 X123.205 Y108.109 E0.01182
G1 X122.890 Y107.904 E0.01178
G1 X122.597 Y107.667 E0.01182
G1 X122.384 Y107.458 E0.00936
G1 X122.140 Y107.169 E0.01185
G1 X121.970 Y106.924 E0.00936
G1 X121.784 Y106.595 E0.01185
G1 X121.663 Y106.322 E0.00936
G1 X121.543 Y105.965 E0.01182
G1 X121.461 Y105.599 E0.01178
G1 X121.417 Y105.224 E0.01181
G1 X121.411 Y104.926 E0.00936
G1 X121.439 Y104.550 E0.01182
G1 X121.505 Y104.180 E0.01178
G1 X121.610 Y103.818 E0.01182
G1 X121.720 Y103.541 E0.00936
G1 X121.891 Y103.205 E0.01182
G1 X122.096 Y102.890 E0.01178
G1 X122.333 Y102.597 E0.01182
G1 X122.543 Y102.383 E0.00939
G1 X122.769 Y102.187 E0.00939
G1 X123.077 Y101.969 E0.01182
G1 X123.405 Y101.784 E0.01182
G1 X123.679 Y101.662 E0.00939
G1 X123.961 Y101.564 E0.00939
G1 X124.327 Y101.474 E0.01182
G1 X124.700 Y101.423 E0.01178
G1 X125.075 Y101.411 E0.01178
G1 X125.450 Y101.439 E0.01178
G1 X125.820 Y101.505 E0.01178
G1 X126.182 Y101.610 E0.01182
G1 X126.459 Y101.720 E0.00936
G1 X126.795 Y101.891 E0.01182
G1 X127.110 Y102.096 E0.01178
G1 X127.403 Y102.333 E0.01182
G1 X127.616 Y102.542 E0.00936
G1 X127.860 Y102.831 E0.01185
G1 X128.030 Y103.076 E0.00936
G1 X128.286 Y103.562 E0.01724
G1 X128.091 Y103.911 F10800.000
G1 E-0.80000 F2100.000
G1 Z0.600 F10800.000
G1 X126.343 Y102.211
G1 Z0.200
G1 E0.80000 F2100.000
;TYPE:Solid infill
;WIDTH:0.432479
G1 F1200.000
G1 X127.180 Y103.048 E0.03835
G1 X127.336 Y103.233 E0.00782
G1 X127.471 Y103.427 E0.00765
G1 X127.623 Y103.697 E0.01003
G1 X127.827 Y104.246 E0.01897
G1 X125.754 Y102.173 E0.09493
G1 X125.367 Y102.094 E0.01280
M73 Q11 S3
G1 X125.105 Y102.075 E0.00851
G1 X127.923 Y104.893 E0.12909
G1 X127.928 Y105.061 E0.00546
G1 X127.897 Y105.418 E0.01159
G1 X124.584 Y102.105 E0.15176
M73 P11 R3
G1 X124.133 Y102.205 E0.01497
G1 X127.794 Y105.866 E0.16773
G1 X127.635 Y106.258 E0.01369
G1 X123.738 Y102.361 E0.17851
G1 X123.385 Y102.559 E0.01310
G1 X127.441 Y106.614 E0.18576
G1 X127.204 Y106.929 E0.01274
G1 X123.077 Y102.802 E0.18904
G1 X122.797 Y103.073 E0.01262
G1 X126.926 Y107.201 E0.18914
M73 Q12 S3
G1 X126.614 Y107.441 E0.01273
G1 X122.560 Y103.387 E0.18572
M73 P12 R3
G1 X122.360 Y103.738 E0.01309
G1 X126.262 Y107.639 E0.17872
G1 X125.867 Y107.796 E0.01375
G1 X122.206 Y104.134 E0.16773
G1 X122.103 Y104.582 E0.01490
G1 X125.416 Y107.895 E0.15176
G1 X125.245 Y107.919 E0.00559
G1 X124.895 Y107.925 E0.01134
G1 X122.075 Y105.105 E0.12919
G1 X122.112 Y105.488 E0.01248
G1 X122.171 Y105.752 E0.00875
G1 X124.246 Y107.827 E0.09504
M73 Q13 S3
G1 X123.813 Y107.678 E0.01483
G1 X123.536 Y107.537 E0.01008
G1 X123.278 Y107.370 E0.00993
G1 X123.064 Y107.196 E0.00895
G1 X122.206 Y106.338 E0.03927
; stop printing object dice_round.stl id:0 copy 0
M106 S84.15
;LAYER_CHANGE
;Z:0.45
;HEIGHT:0.25
;BEFORE_LAYER_CHANGE
G92 E0.0
;0.45


;WIPE_START
G1 F8640.000
G1 X123.064 Y107.196 E-0.27996
G1 X123.278 Y107.370 E-0.06380
G1 X123.536 Y107.537 E-0.07079
G1 X123.813 Y107.678 E-0.07184
G1 X124.246 Y107.827 E-0.10570
G1 X123.731 Y107.313 E-0.16790
;WIPE_END
M73 P13 R3
G1 E-0.04000 F2100.000
G1 Z0.600 F10800.000
;AFTER_LAYER_CHANGE
;0.45
G1 X122.098 Y111.925
G1 Z0.450
G1 E0.80000 F2100.000
;TYPE:Skirt
;WIDTH:0.42
G1 F1241
G1 X120.822 Y111.238 E0.05519
G1 X119.661 Y110.279 E0.05732
G1 X118.752 Y109.163 E0.05482
G1 X118.068 Y107.884 E0.05525
G1 X117.632 Y106.445 E0.05724
G1 X117.492 Y104.998 E0.05535
G1 X117.631 Y103.560 E0.05502
G1 X118.071 Y102.107 E0.05780
G1 X118.759 Y100.826 E0.05539
G1 X119.723 Y99.659 E0.05761
G1 X120.845 Y98.746 E0.05508
G1 X122.116 Y98.068 E0.05488
G1 X123.566 Y97.630 E0.05766
G1 X125.005 Y97.492 E0.05504
G1 X126.439 Y97.631 E0.05486
G1 X127.885 Y98.068 E0.05751
G1 X129.155 Y98.746 E0.05484
M73 Q14 S3
G1 X130.279 Y99.661 E0.05520
G1 X131.233 Y100.814 E0.05695
G1 X131.924 Y102.095 E0.05543
G1 X132.366 Y103.546 E0.05776
M73 P14 R3
G1 X132.508 Y104.991 E0.05530
G1 X132.371 Y106.430 E0.05501
G1 X131.937 Y107.871 E0.05732
G1 X131.254 Y109.155 E0.05539
G1 X130.341 Y110.277 E0.05508
G1 X129.178 Y111.238 E0.05744
G1 X127.901 Y111.925 E0.05523
G1 X126.438 Y112.369 E0.05818
G1 X125.000 Y112.508 E0.05504
G1 X123.561 Y112.369 E0.05503
G1 X122.156 Y111.942 E0.05593
G1 X122.265 Y111.583 F10800.000
G1 F1241
G1 X121.034 Y110.927 E0.05313
G1 X119.928 Y110.013 E0.05462
G1 X119.067 Y108.956 E0.05189
G1 X118.417 Y107.741 E0.05249
G1 X118.002 Y106.371 E0.05451
G1 X117.869 Y104.996 E0.05260
G1 X118.001 Y103.634 E0.05209
G1 X118.420 Y102.251 E0.05503
G1 X119.074 Y101.034 E0.05263
G1 X119.989 Y99.926 E0.05473
M73 Q15 S3
G1 X121.055 Y99.059 E0.05231
G1 X122.263 Y98.415 E0.05212
G1 X123.640 Y98.000 E0.05477
G1 X125.006 Y97.869 E0.05227
M73 P15 R3
G1 X126.368 Y98.001 E0.05211
G1 X127.758 Y98.424 E0.05529
G1 X128.966 Y99.073 E0.05225
G1 X130.072 Y99.987 E0.05462
G1 X130.933 Y101.044 E0.05189
G1 X131.583 Y102.259 E0.05249
G1 X131.997 Y103.625 E0.05435
G1 X132.131 Y104.994 E0.05237
G1 X132.000 Y106.360 E0.05226
G1 X131.582 Y107.745 E0.05509
G1 X130.929 Y108.963 E0.05263
G1 X130.014 Y110.071 E0.05473
G1 X128.948 Y110.938 E0.05231
G1 X127.741 Y111.583 E0.05212
G1 X126.364 Y111.999 E0.05477
G1 X124.998 Y112.131 E0.05227
G1 X123.632 Y111.999 E0.05227
G1 X122.322 Y111.601 E0.05210
G1 X122.431 Y111.242 F10800.000
G1 F1241
G1 X121.242 Y110.612 E0.05124
G1 X120.195 Y109.746 E0.05175
G1 X119.380 Y108.746 E0.04913
G1 X118.766 Y107.598 E0.04957
M73 Q16 S3
G1 X118.372 Y106.301 E0.05162
G1 X118.246 Y104.998 E0.04984
G1 X118.371 Y103.709 E0.04932
G1 X118.768 Y102.395 E0.05226
G1 X119.386 Y101.245 E0.04971
M73 P16 R2
G1 X120.256 Y100.193 E0.05200
G1 X121.262 Y99.375 E0.04937
M73 Q16 S2
G1 X122.405 Y98.764 E0.04935
G1 X123.710 Y98.370 E0.05190
G1 X125.004 Y98.246 E0.04949
G1 X126.289 Y98.370 E0.04918
G1 X127.599 Y98.766 E0.05207
G1 X128.741 Y99.376 E0.04932
G1 X129.746 Y100.195 E0.04936
G1 X130.606 Y101.234 E0.05137
G1 X131.227 Y102.383 E0.04973
G1 X131.612 Y103.621 E0.04937
G1 X131.754 Y104.992 E0.05247
G1 X131.631 Y106.282 E0.04935
G1 X131.239 Y107.586 E0.05184
G1 X130.628 Y108.734 E0.04955
G1 X129.807 Y109.744 E0.04954
G1 X128.758 Y110.612 E0.05183
G1 X127.614 Y111.228 E0.04950
G1 X126.294 Y111.629 E0.05252
G1 X125.000 Y111.754 E0.04949
G1 X123.706 Y111.629 E0.04951
G1 X122.489 Y111.259 E0.04844
M73 Q17 S2
G1 X122.598 Y110.900 F10800.000
G1 F1241
G1 X121.454 Y110.300 E0.04919
G1 X120.461 Y109.479 E0.04904
G1 X119.695 Y108.538 E0.04621
G1 X119.114 Y107.455 E0.04681
M73 P17 R2
G1 X118.742 Y106.226 E0.04888
G1 X118.623 Y105.000 E0.04693
G1 X118.740 Y103.783 E0.04653
G1 X119.115 Y102.543 E0.04934
G1 X119.698 Y101.456 E0.04695
G1 X120.523 Y100.459 E0.04926
G1 X121.472 Y99.688 E0.04660
G1 X122.548 Y99.113 E0.04644
G1 X123.784 Y98.740 E0.04917
G1 X125.006 Y98.623 E0.04671
G1 X126.215 Y98.740 E0.04628
G1 X127.452 Y99.113 E0.04919
G1 X128.530 Y99.689 E0.04655
G1 X129.479 Y100.461 E0.04659
G1 X130.295 Y101.446 E0.04867
G1 X130.880 Y102.531 E0.04695
G1 X131.257 Y103.770 E0.04932
G1 X131.377 Y104.994 E0.04683
G1 X131.261 Y106.212 E0.04660
G1 X130.885 Y107.457 E0.04952
G1 X130.302 Y108.544 E0.04695
G1 X129.480 Y109.538 E0.04912
G1 X128.531 Y110.310 E0.04660
G1 X127.452 Y110.887 E0.04658
