; generated by PrusaSlicer 2.3.3+linux-x64 on 2021-10-01 at 12:06:29 UTC

; 

; external perimeters extrusion width = 0.45mm
; perimeters extrusion width = 0.45mm
; infill extrusion width = 0.45mm
; solid infill extrusion width = 0.45mm
; top infill extrusion width = 0.40mm
; first layer extrusion width = 0.42mm

M73 P0 R79
M73 Q0 S80
M201 X1000 Y1000 Z200 E5000 ; sets maximum accelerations, mm/sec^2
M203 X200 Y200 Z12 E120 ; sets maximum feedrates, mm/sec
M204 P1250 R1250 T1250 ; sets acceleration (P, T) and retract acceleration (R), mm/sec^2
M205 X8.00 Y8.00 Z0.40 E4.50 ; sets the jerk limits, mm/sec
M205 S0 T0 ; sets the minimum extruding and travel feed rate, mm/sec
M107
;TYPE:Custom
M862.3 P "MK3S" ; printer model check
M862.1 P0.4 ; nozzle diameter check
M115 U3.10.0 ; tell printer latest fw version
G90 ; use absolute coordinates
M83 ; extruder relative mode
M104 S215 ; set extruder temp
M140 S60 ; set bed temp
M190 S60 ; wait for bed temp
M109 S215 ; wait for extruder temp
G28 W ; home all without mesh bed level
G80 ; mesh bed leveling
G1 Y-3.0 F1000.0 ; go outside print area
G92 E0.0
G1 X60.0 E9.0 F1000.0 ; intro line
G1 X100.0 E12.5 F1000.0 ; intro line
G92 E0.0
M221 S95

; Don't change E values below. Excessive value can damage the printer.

M907 E538 ; set extruder motor current
G21 ; set units to millimeters
G90 ; use absolute coordinates
M83 ; use relative distances for extrusion
M900 K0.05 ; Filament gcode LA 1.5
M900 K30 ; Filament gcode LA 1.0
;LAYER_CHANGE
;Z:0.2
;HEIGHT:0.2
;BEFORE_LAYER_CHANGE
G92 E0.0
;0.2


G1 E-0.80000 F2100.000
G1 Z0.400 F10800.000
;AFTER_LAYER_CHANGE
;0.2
G1 X100.581 Y95.747
G1 Z0.200
G1 E0.80000 F2100.000
M204 S1000
;TYPE:Skirt
;WIDTH:0.42
G1 F1200.000
G1 X101.745 Y94.661 E0.04990
G1 X102.734 Y93.925 E0.03867
G1 X104.337 Y92.997 E0.05806
G1 X106.052 Y92.294 E0.05813
G1 X106.998 Y92.024 E0.03085
G1 X108.807 Y91.703 E0.05760
G1 X110.467 Y91.625 E0.05210
G1 X141.008 Y92.197 E0.95775
G1 X143.203 Y92.522 E0.06957
G1 X144.244 Y92.817 E0.03394
G1 X145.653 Y93.375 E0.04751
G1 X147.591 Y94.493 E0.07016
G1 X148.777 Y95.433 E0.04743
G1 X149.583 Y96.219 E0.03532
G1 X150.313 Y97.068 E0.03511
G1 X151.181 Y98.316 E0.04765
G1 X152.176 Y100.320 E0.07016
G1 X152.643 Y101.758 E0.04739
G1 X152.880 Y102.861 E0.03537
G1 X153.019 Y103.979 E0.03533
G1 X153.050 Y105.491 E0.04742
G1 X152.770 Y107.711 E0.07016
G1 X152.361 Y109.175 E0.04764
G1 X151.952 Y110.214 E0.03502
G1 X151.208 Y111.639 E0.05039
G1 X150.290 Y112.962 E0.05051
G1 X149.213 Y114.160 E0.05051
G1 X147.989 Y115.217 E0.05072
G1 X146.647 Y116.108 E0.05051
G1 X145.204 Y116.825 E0.05051
G1 X143.689 Y117.353 E0.05030
G1 X142.096 Y117.691 E0.05106
G1 X140.502 Y117.824 E0.05017
G1 X109.968 Y118.374 E0.95751
G1 X108.841 Y118.302 E0.03541
G1 X106.960 Y117.967 E0.05993
G1 X105.603 Y117.550 E0.04452
G1 X104.579 Y117.123 E0.03477
G1 X102.602 Y115.987 E0.07150
G1 X100.877 Y114.560 E0.07019
G1 X99.366 Y112.799 E0.07276
G1 X98.251 Y110.948 E0.06774
G1 X97.364 Y108.642 E0.07748
G1 X96.961 Y106.673 E0.06301
G1 X96.891 Y105.910 E0.02403
G1 X96.892 Y104.052 E0.05826
G1 X97.157 Y102.181 E0.05924
G1 X97.379 Y101.311 E0.02817
G1 X98.009 Y99.576 E0.05786
G1 X98.791 Y98.071 E0.05318
G1 X99.405 Y97.150 E0.03472
G1 X100.542 Y95.793 E0.05551
; printing object nut_picker_test.stl_2 id:1 copy 0
;WIPE_START
G1 F8640.000
G1 X101.745 Y94.661 E-0.38123
G1 X102.734 Y93.925 E-0.28477
G1 X103.087 Y93.721 E-0.09400
;WIPE_END
G1 E-0.04000 F2100.000
G1 Z0.600 F10800.000
G1 X100.542 Y95.793
G1 X100.542 Y95.793
G1 X130.805 Y102.891
G1 Z0.200
G1 E0.80000 F2100.000
;TYPE:Perimeter
G1 F1200.000
G1 X130.872 Y102.603 E0.00927
G1 X131.108 Y101.822 E0.02557
G1 X131.406 Y101.070 E0.02537
G1 X131.769 Y100.340 E0.02557
G1 X131.965 Y100.000 E0.01230
G1 X132.416 Y99.321 E0.02557
G1 X132.923 Y98.682 E0.02557
G1 X133.185 Y98.390 E0.01230
G1 X133.772 Y97.815 E0.02576
G1 X134.069 Y97.559 E0.01230
G1 X134.719 Y97.066 E0.02557
G1 X135.402 Y96.632 E0.02537
G1 X136.119 Y96.257 E0.02537
G1 X136.865 Y95.944 E0.02537
G1 X137.635 Y95.694 E0.02537
G1 X138.429 Y95.507 E0.02557
G1 X138.815 Y95.442 E0.01230
G1 X139.632 Y95.356 E0.02576
G1 X140.025 Y95.340 E0.01230
G1 X140.837 Y95.357 E0.02549
G1 X141.645 Y95.441 E0.02545
G1 X142.439 Y95.593 E0.02537
G1 X143.219 Y95.811 E0.02537
G1 X143.983 Y96.095 E0.02557
G1 X144.342 Y96.254 E0.01230
G1 X145.064 Y96.632 E0.02557
G1 X145.753 Y97.069 E0.02557
G1 X146.070 Y97.300 E0.01230
G1 X146.697 Y97.818 E0.02549
G1 X147.277 Y98.386 E0.02545
G1 X147.805 Y98.998 E0.02537
G1 X148.281 Y99.653 E0.02537
G1 X148.703 Y100.350 E0.02557
G1 X148.885 Y100.698 E0.01230
G1 X149.219 Y101.449 E0.02576
G1 X149.356 Y101.816 E0.01230
G1 X149.592 Y102.597 E0.02557
G1 X149.761 Y103.395 E0.02557
G1 X149.819 Y103.783 E0.01230
G1 X149.887 Y104.595 E0.02557
G1 X149.887 Y105.405 E0.02537
G1 X149.819 Y106.213 E0.02545
G1 X149.683 Y107.015 E0.02549
G1 X149.594 Y107.397 E0.01230
G1 X149.358 Y108.178 E0.02557
G1 X149.060 Y108.930 E0.02537
G1 X148.698 Y109.660 E0.02557
G1 X148.501 Y110.000 E0.01230
G1 X148.047 Y110.685 E0.02576
G1 X147.809 Y110.997 E0.01230
G1 X147.277 Y111.614 E0.02557
G1 X146.694 Y112.185 E0.02557
G1 X146.397 Y112.441 E0.01230
G1 X145.748 Y112.934 E0.02557
G1 X145.059 Y113.371 E0.02557
G1 X144.715 Y113.560 E0.01230
G1 X143.977 Y113.907 E0.02557
G1 X143.219 Y114.189 E0.02537
G1 X142.439 Y114.407 E0.02537
G1 X141.641 Y114.559 E0.02549
G1 X141.249 Y114.609 E0.01238
G1 X140.435 Y114.660 E0.02556
G1 X139.626 Y114.643 E0.02537
G1 X138.819 Y114.558 E0.02545
G1 X138.021 Y114.406 E0.02549
G1 X137.641 Y114.308 E0.01230
G1 X136.865 Y114.056 E0.02557
G1 X136.119 Y113.743 E0.02537
G1 X135.402 Y113.368 E0.02537
G1 X134.713 Y112.931 E0.02557
G1 X134.396 Y112.700 E0.01230
G1 X133.770 Y112.182 E0.02549
G1 X133.185 Y111.610 E0.02564
G1 X132.923 Y111.318 E0.01230
G1 X132.416 Y110.679 E0.02557
G1 X131.968 Y110.005 E0.02537
G1 X131.578 Y109.296 E0.02537
G1 X131.247 Y108.551 E0.02557
G1 X131.110 Y108.184 E0.01230
G1 X130.874 Y107.403 E0.02557
G1 X130.706 Y106.611 E0.02537
G1 X130.604 Y105.806 E0.02545
G1 X130.570 Y104.994 E0.02549
G1 X130.579 Y104.602 E0.01230
G1 X130.647 Y103.789 E0.02557
G1 X130.791 Y102.949 E0.02672
G1 X130.424 Y102.863 F10800.000
;TYPE:External perimeter
G1 F1200.000
G1 X130.508 Y102.505 E0.01152
G1 X130.752 Y101.698 E0.02643
G1 X131.061 Y100.916 E0.02636
G1 X131.436 Y100.161 E0.02643
G1 X131.644 Y99.801 E0.01305
G1 X132.111 Y99.099 E0.02643
G1 X132.634 Y98.438 E0.02643
G1 X132.913 Y98.129 E0.01305
G1 X133.517 Y97.537 E0.02650
G1 X133.832 Y97.266 E0.01305
M73 Q0 S79
G1 X134.503 Y96.756 E0.02643
G1 X135.213 Y96.305 E0.02636
G1 X135.958 Y95.916 E0.02636
G1 X136.733 Y95.590 E0.02636
G1 X137.533 Y95.330 E0.02636
G1 X138.354 Y95.138 E0.02643
G1 X138.764 Y95.068 E0.01305
G1 X139.605 Y94.980 E0.02650
G1 X140.021 Y94.962 E0.01305
G1 X140.861 Y94.980 E0.02636
G1 X141.700 Y95.068 E0.02644
G1 X142.526 Y95.225 E0.02636
G1 X143.336 Y95.452 E0.02636
G1 X144.126 Y95.745 E0.02643
G1 X144.506 Y95.915 E0.01305
G1 X145.253 Y96.305 E0.02643
G1 X145.965 Y96.757 E0.02643
G1 X146.301 Y97.002 E0.01305
G1 X146.949 Y97.537 E0.02636
G1 X147.552 Y98.127 E0.02644
G1 X148.101 Y98.764 E0.02636
G1 X148.595 Y99.444 E0.02636
G1 X149.032 Y100.165 E0.02643
G1 X149.225 Y100.534 E0.01305
G1 X149.569 Y101.306 E0.02650
G1 X149.714 Y101.696 E0.01305
G1 X149.957 Y102.503 E0.02643
G1 X150.133 Y103.328 E0.02643
G1 X150.193 Y103.739 E0.01305
G1 X150.264 Y104.580 E0.02643
G1 X150.264 Y105.420 E0.02636
G1 X150.193 Y106.261 E0.02644
G1 X150.053 Y107.090 E0.02636
G1 X149.958 Y107.495 E0.01305
G1 X149.714 Y108.302 E0.02643
G1 X149.405 Y109.084 E0.02636
G1 X149.030 Y109.839 E0.02643
G1 X148.822 Y110.199 E0.01305
G1 X148.354 Y110.903 E0.02650
G1 X148.103 Y111.235 E0.01305
G1 X147.552 Y111.873 E0.02643
G1 X146.949 Y112.463 E0.02643
G1 X146.634 Y112.734 E0.01305
G1 X145.963 Y113.244 E0.02643
G1 X145.251 Y113.696 E0.02643
G1 X144.886 Y113.896 E0.01305
G1 X144.124 Y114.255 E0.02643
G1 X143.336 Y114.548 E0.02636
G1 X142.526 Y114.775 E0.02636
G1 X141.700 Y114.932 E0.02635
G1 X141.285 Y114.985 E0.01313
G1 X140.443 Y115.038 E0.02643
G1 X139.603 Y115.020 E0.02636
G1 X138.764 Y114.932 E0.02644
G1 X137.938 Y114.774 E0.02635
G1 X137.535 Y114.671 E0.01305
G1 X136.733 Y114.410 E0.02643
G1 X135.958 Y114.084 E0.02636
G1 X135.213 Y113.695 E0.02636
G1 X134.501 Y113.243 E0.02643
G1 X134.165 Y112.998 E0.01305
G1 X133.517 Y112.463 E0.02635
G1 X132.913 Y111.871 E0.02651
G1 X132.634 Y111.562 E0.01305
G1 X132.111 Y110.901 E0.02643
G1 X131.645 Y110.201 E0.02636
G1 X131.240 Y109.464 E0.02636
G1 X130.897 Y108.694 E0.02643
G1 X130.752 Y108.304 E0.01305
G1 X130.509 Y107.497 E0.02643
G1 X130.334 Y106.674 E0.02636
G1 X130.228 Y105.838 E0.02644
G1 X130.193 Y104.998 E0.02635
G1 X130.202 Y104.582 E0.01305
G1 X130.272 Y103.742 E0.02643
G1 X130.411 Y102.922 E0.02608
G1 X130.772 Y102.745 F10800.000
G1 E-0.80000 F2100.000
G1 Z0.600 F10800.000
G1 X148.145 Y99.658
G1 Z0.200
G1 E0.80000 F2100.000
;TYPE:Solid infill
;WIDTH:0.425453
G1 F1200.000
G1 X146.507 Y98.028 E0.07347
G1 X145.897 Y97.523 E0.02520
G1 X145.594 Y97.303 E0.01192
G1 X144.923 Y96.877 E0.02528
G1 X144.714 Y96.768 E0.00748
G1 X148.481 Y100.535 E0.16941
G1 X148.631 Y100.821 E0.01029
G1 X148.955 Y101.550 E0.02536
G1 X143.694 Y96.289 E0.23665
G1 X143.131 Y96.080 E0.01909
G1 X142.871 Y96.007 E0.00860
G1 X149.225 Y102.361 E0.28582
G1 X149.318 Y102.667 E0.01018
G1 X149.406 Y103.083 E0.01351
G1 X142.148 Y95.825 E0.32647
G1 X141.492 Y95.710 E0.02121
G1 X149.527 Y103.745 E0.36146
G1 X149.582 Y104.341 E0.01902
G1 X140.887 Y95.646 E0.39110
G1 X140.329 Y95.629 E0.01777
G1 X149.604 Y104.904 E0.41722
G1 X149.600 Y105.441 E0.01708
G1 X139.792 Y95.632 E0.44121
G1 X139.294 Y95.676 E0.01588
G1 X149.558 Y105.940 E0.46170
G1 X149.497 Y106.420 E0.01539
G1 X138.807 Y95.730 E0.48086
G1 X138.352 Y95.816 E0.01474
G1 X149.419 Y106.883 E0.49782
G1 X149.320 Y107.325 E0.01441
G1 X137.914 Y95.919 E0.51309
G1 X137.492 Y96.037 E0.01395
G1 X149.195 Y107.740 E0.52643
G1 X149.064 Y108.151 E0.01371
G1 X137.083 Y96.170 E0.53894
G1 X136.694 Y96.322 E0.01328
G1 X148.911 Y108.539 E0.54953
G1 X148.750 Y108.919 E0.01313
G1 X136.314 Y96.482 E0.55943
G1 X135.953 Y96.663 E0.01282
G1 X148.571 Y109.280 E0.56756
M73 P0 R78
G1 X148.385 Y109.636 E0.01276
G1 X135.598 Y96.849 E0.57520
G1 X135.263 Y97.055 E0.01251
G1 X148.180 Y109.972 E0.58105
G1 X147.965 Y110.297 E0.01241
G1 X134.932 Y97.265 E0.58622
G1 X134.621 Y97.495 E0.01230
G1 X147.743 Y110.617 E0.59026
G1 X147.504 Y110.918 E0.01225
G1 X134.314 Y97.728 E0.59333
G1 X134.020 Y97.975 E0.01221
G1 X147.253 Y111.209 E0.59529
G1 X146.996 Y111.493 E0.01218
G1 X133.743 Y98.240 E0.59618
G1 X133.470 Y98.507 E0.01217
G1 X146.723 Y111.761 E0.59618
G1 X146.446 Y112.025 E0.01217
G1 X133.208 Y98.787 E0.59549
G1 X132.964 Y99.084 E0.01223
G1 X146.152 Y112.272 E0.59323
G1 X145.845 Y112.505 E0.01228
G1 X132.725 Y99.386 E0.59016
G1 X132.502 Y99.703 E0.01235
G1 X145.534 Y112.735 E0.58622
G1 X145.203 Y112.945 E0.01247
G1 X132.286 Y100.028 E0.58105
G1 X132.081 Y100.364 E0.01252
G1 X144.869 Y113.153 E0.57526
G1 X144.517 Y113.341 E0.01272
M73 P1 R78
G1 X131.896 Y100.720 E0.56774
M73 Q1 S79
G1 X131.716 Y101.081 E0.01284
G1 X144.149 Y113.514 E0.55926
G1 X143.775 Y113.681 E0.01303
G1 X131.555 Y101.462 E0.54967
G1 X131.402 Y101.849 E0.01326
G1 X143.380 Y113.828 E0.53883
G1 X142.975 Y113.964 E0.01359
G1 X131.271 Y102.260 E0.52648
G1 X131.146 Y102.675 E0.01381
G1 X142.553 Y114.082 E0.51310
G1 X142.111 Y114.182 E0.01439
G1 X131.047 Y103.118 E0.49770
G1 X130.969 Y103.580 E0.01493
G1 X141.657 Y114.268 E0.48078
G1 X141.178 Y114.330 E0.01537
G1 X130.908 Y104.060 E0.46197
G1 X130.866 Y104.559 E0.01593
G1 X140.669 Y114.362 E0.44096
G1 X140.137 Y114.371 E0.01693
G1 X130.858 Y105.092 E0.41741
G1 X130.881 Y105.656 E0.01797
G1 X139.579 Y114.354 E0.39124
G1 X138.974 Y114.290 E0.01934
G1 X130.947 Y106.263 E0.36107
G1 X130.985 Y106.564 E0.00965
G1 X131.060 Y106.917 E0.01148
G1 X138.317 Y114.175 E0.32645
G1 X138.082 Y114.130 E0.00761
G1 X137.599 Y113.998 E0.01593
G1 X131.241 Y107.639 E0.28602
G1 X131.378 Y108.093 E0.01509
G1 X131.511 Y108.451 E0.01213
G1 X136.771 Y113.710 E0.23658
G1 X136.240 Y113.487 E0.01833
G1 X135.751 Y113.231 E0.01753
G1 X132.005 Y109.485 E0.16852
G1 X132.210 Y109.859 E0.01356
G1 X132.645 Y110.513 E0.02499
G1 X133.139 Y111.136 E0.02528
G1 X133.356 Y111.377 E0.01031
G1 X134.884 Y112.905 E0.06876
; stop printing object nut_picker_test.stl_2 id:1 copy 0
; printing object nut_picker_test.stl_1 id:0 copy 0
;WIPE_START
G1 F8640.000
G1 X133.356 Y111.377 E-0.49918
G1 X133.139 Y111.136 E-0.07485
G1 X132.645 Y110.513 E-0.18349
G1 X132.639 Y110.504 E-0.00248
;WIPE_END
G1 E-0.04000 F2100.000
G1 Z0.600 F10800.000
G1 X134.884 Y112.905
G1 X134.884 Y112.905
G1 X117.650 Y111.321
G1 Z0.200
G1 E0.80000 F2100.000
;TYPE:External perimeter
;WIDTH:0.42
G1 F1200.000
G1 X115.809 Y111.321 E0.05771
G1 X113.106 Y107.025 E0.15915
G1 X112.867 Y106.583 E0.01576
G1 X112.490 Y105.684 E0.03057
G1 X112.326 Y105.424 E0.00962
G1 X112.160 Y105.476 E0.00544
G1 X112.176 Y105.872 E0.01244
G1 X112.270 Y106.316 E0.01423
G1 X112.344 Y106.788 E0.01496
G1 X112.371 Y107.259 E0.01482
G1 X112.377 Y111.321 E0.12736
G1 X110.623 Y111.321 E0.05498
G1 X110.623 Y102.858 E0.26538
G1 X112.508 Y102.858 E0.05909
G1 X115.183 Y107.127 E0.15799
G1 X115.420 Y107.567 E0.01565
G1 X115.792 Y108.460 E0.03034
G1 X115.953 Y108.716 E0.00948
G1 X116.118 Y108.665 E0.00544
G1 X116.108 Y108.367 E0.00935
G1 X115.948 Y107.448 E0.02927
G1 X115.914 Y106.968 E0.01507
G1 X115.907 Y102.858 E0.12888
G1 X117.650 Y102.858 E0.05464
G1 X117.650 Y111.261 E0.26350
G1 X117.677 Y111.720 F10800.000
;WIPE_START
G1 F8640.000
G1 X115.809 Y111.321 E-0.42523
G1 X115.037 Y110.094 E-0.33477
;WIPE_END
G1 E-0.04000 F2100.000
G1 Z0.600 F10800.000
G1 X115.931 Y111.100
G1 X117.650 Y111.261
G1 X117.650 Y111.261
G1 X110.845 Y111.100
G1 X109.727 Y107.700
G1 Z0.200
G1 E0.80000 F2100.000
;TYPE:Perimeter
G1 F1200.000
G1 X105.421 Y107.691 E0.13504
G1 X104.977 Y107.650 E0.01398
G1 X104.556 Y107.570 E0.01342
G1 X104.162 Y107.451 E0.01290
G1 X103.898 Y107.341 E0.00897
G1 X103.552 Y107.152 E0.01237
G1 X103.314 Y106.985 E0.00912
G1 X102.932 Y106.626 E0.01645
G1 X102.622 Y106.189 E0.01679
G1 X102.404 Y105.698 E0.01684
G1 X102.281 Y105.180 E0.01669
G1 X102.249 Y104.888 E0.00923
G1 X102.242 Y104.470 E0.01311
G1 X102.279 Y104.062 E0.01283
G1 X102.334 Y103.775 E0.00915
G1 X102.498 Y103.281 E0.01632
G1 X102.685 Y102.925 E0.01262
G1 X102.842 Y102.698 E0.00864
G1 X103.019 Y102.487 E0.00865
G1 X103.314 Y102.208 E0.01273
G1 X103.746 Y101.912 E0.01640
G1 X104.006 Y101.781 E0.00916
G1 X104.386 Y101.637 E0.01272
G1 X104.797 Y101.535 E0.01328
G1 X105.360 Y101.466 E0.01778
G1 X107.117 Y101.461 E0.05510
G1 X107.117 Y98.480 E0.09344
G1 X109.727 Y98.480 E0.08184
G1 X109.727 Y107.640 E0.28718
G1 X109.350 Y107.322 F10800.000
;TYPE:External perimeter
G1 F1200.000
G1 X105.439 Y107.314 E0.12265
G1 X105.030 Y107.276 E0.01288
G1 X104.646 Y107.203 E0.01224
G1 X104.289 Y107.095 E0.01168
G1 X104.061 Y107.001 E0.00776
G1 X103.751 Y106.832 E0.01106
G1 X103.553 Y106.692 E0.00761
G1 X103.217 Y106.377 E0.01443
G1 X102.951 Y106.002 E0.01443
G1 X102.763 Y105.577 E0.01456
G1 X102.653 Y105.116 E0.01486
G1 X102.626 Y104.864 E0.00796
G1 X102.619 Y104.483 E0.01193
G1 X102.652 Y104.115 E0.01160
G1 X102.699 Y103.871 E0.00779
G1 X102.846 Y103.429 E0.01458
G1 X103.009 Y103.120 E0.01095
G1 X103.294 Y102.746 E0.01476
G1 X103.551 Y102.502 E0.01112
G1 X103.938 Y102.238 E0.01468
G1 X104.158 Y102.126 E0.00775
G1 X104.499 Y101.998 E0.01140
G1 X104.865 Y101.906 E0.01185
G1 X105.383 Y101.843 E0.01636
G1 X107.494 Y101.837 E0.06618
G1 X107.494 Y98.858 E0.09340
G1 X109.350 Y98.858 E0.05820
G1 X109.350 Y107.262 E0.26351
G1 X109.379 Y107.721 F10800.000
;WIPE_START
G1 F8640.000
G1 X106.059 Y107.306 E-0.76000
;WIPE_END
G1 E-0.04000 F2100.000
G1 Z0.600 F10800.000
G1 X109.350 Y107.262
G1 X109.350 Y107.262
G1 X110.845 Y103.079
G1 X118.027 Y102.480
G1 Z0.200
G1 E0.80000 F2100.000
;TYPE:Perimeter
G1 F1200.000
G1 X115.529 Y102.480 E0.07830
G1 X115.536 Y106.671 E0.13141
